ziyutum/ubuntu/CSClient/data_export/valid_input.csv
ts_in,ts_out,JointPosition1,JointPosition2,JointPosition3,JointPosition4,JointPosition5,JointPosition6,JointPosition7,GripperData_Width,GripperData_Speed
2024-07-16 18:58:49.6588544,2024-07-16 18:58:49.6685485,0.000135,-0.785265,0.000098,-2.355849,0.000353,1.571221,0.785773,0.0100000000000000,0.0100000
2024-07-16 18:58:49.6709708,2024-07-16 18:58:49.6711577,0.000134,-0.785265,0.000093,-2.355848,0.000354,1.571223,0.785774,0.0100000000000000,0.0100000
2024-07-16 18:58:49.6790196,2024-07-16 18:58:49.6791738,0.000127,-0.785265,0.000096,-2.355846,0.000353,1.571219,0.785774,0.0100000000000000,0.0100000
2024-07-16 18:58:49.6911373,2024-07-16 18:58:49.6913396,0.000137,-0.785265,0.000095,-2.355850,0.000348,1.571215,0.785774,0.0100000000000000,0.0100000
2024-07-16 18:58:49.6992044,2024-07-16 18:58:49.6993748,0.000135,-0.785268,0.000093,-2.355848,0.000353,1.571217,0.785778,0.0100000000000000,0.0100000
2024-07-16 18:58:49.7113538,2024-07-16 18:58:49.7115604,0.000134,-0.785265,0.000093,-2.355846,0.000352,1.571218,0.785774,0.0100000000000000,0.0100000
2024-07-16 18:58:49.7193996,2024-07-16 18:58:49.7195571,0.000131,-0.785263,0.000093,-2.355849,0.000351,1.571216,0.785772,0.0100000000000000,0.0100000
2024-07-16 18:58:49.7315261,2024-07-16 18:58:49.7316854,0.000130,-0.785257,0.000096,-2.355849,0.000352,1.571220,0.785772,0.0100000000000000,0.0100000
2024-07-16 18:58:49.7395922,2024-07-16 18:58:49.7397523,0.000136,-0.785265,0.000098,-2.355846,0.000353,1.571218,0.785773,0.0100000000000000,0.0100000
2024-07-16 18:58:49.7517135,2024-07-16 18:58:49.7518682,0.000132,-0.785262,0.000093,-2.355843,0.000350,1.571219,0.785770,0.0100000000000000,0.0100000
2024-07-16 18:58:49.7597806,2024-07-16 18:58:49.7599396,0.000132,-0.785260,0.000095,-2.355850,0.000349,1.571223,0.785772,0.0100000000000000,0.0100000
2024-07-16 18:58:49.7719341,2024-07-16 18:58:49.7721305,0.000126,-0.785268,0.000096,-2.355847,0.000350,1.571218,0.785772,0.0100000000000000,0.0100000
2024-07-16 18:58:49.7799855,2024-07-16 18:58:49.7801342,0.000129,-0.785268,0.000098,-2.355849,0.000352,1.571222,0.785772,0.0100000000000000,0.0100000
2024-07-16 18:58:49.7921208,2024-07-16 18:58:49.7923057,0.000132,-0.785271,0.000095,-2.355849,0.000354,1.571220,0.785773,0.0100000000000000,0.0100000
2024-07-16 18:58:49.8001782,2024-07-16 18:58:49.8003195,0.000132,-0.785266,0.000093,-2.355843,0.000352,1.571222,0.785771,0.0100000000000000,0.0100000
2024-07-16 18:58:49.8102887,2024-07-16 18:58:49.8104386,0.000132,-0.785273,0.000096,-2.355851,0.000354,1.571221,0.785775,0.0100000000000000,0.0100000
2024-07-16 18:58:49.8183485,2024-07-16 18:58:49.8184917,0.000131,-0.785269,0.000094,-2.355850,0.000348,1.571220,0.785776,0.0100000000000000,0.0100000
2024-07-16 18:58:49.8304800,2024-07-16 18:58:49.8306605,0.000128,-0.785274,0.000090,-2.355856,0.000351,1.571220,0.785777,0.0100000000000000,0.0100000
2024-07-16 18:58:49.8385458,2024-07-16 18:58:49.8387339,0.000125,-0.785277,0.000093,-2.355863,0.000353,1.571217,0.785775,0.0100000000000000,0.0100000
2024-07-16 18:58:49.8506782,2024-07-16 18:58:49.8508780,0.000125,-0.785279,0.000090,-2.355881,0.000350,1.571216,0.785777,0.0100000000000000,0.0100000
2024-07-16 18:58:49.8587322,2024-07-16 18:58:49.8588960,0.000118,-0.785287,0.000097,-2.355892,0.000350,1.571218,0.785771,0.0100000000000000,0.0100000
2024-07-16 18:58:49.8708606,2024-07-16 18:58:49.8710571,0.000109,-0.785309,0.000092,-2.355948,0.000353,1.571221,0.785761,0.0100000000000000,0.0100000
2024-07-16 18:58:49.8789092,2024-07-16 18:58:49.8790611,0.000101,-0.785340,0.000095,-2.356003,0.000350,1.571220,0.785750,0.0100000000000000,0.0100000
2024-07-16 18:58:49.8910240,2024-07-16 18:58:49.8911897,0.000076,-0.785393,0.000097,-2.356118,0.000350,1.571219,0.785706,0.0100000000000000,0.0100000
2024-07-16 18:58:49.8990856,2024-07-16 18:58:49.8992387,0.000048,-0.785427,0.000097,-2.356188,0.000350,1.571221,0.785663,0.0100000000000000,0.0100000
2024-07-16 18:58:49.9112034,2024-07-16 18:58:49.9113707,-0.000007,-0.785480,0.000096,-2.356306,0.000351,1.571228,0.785574,0.0100000000000000,0.010000
2024-07-16 18:58:49.9192733,2024-07-16 18:58:49.9194499,-0.000051,-0.785521,0.000094,-2.356377,0.000351,1.571234,0.785537,0.0100000000000000,0.010000
2024-07-16 18:58:49.9313834,2024-07-16 18:58:49.9315431,-0.000128,-0.785569,0.000093,-2.356491,0.000351,1.571242,0.785501,0.0100000000000000,0.010000
2024-07-16 18:58:49.9394417,2024-07-16 18:58:49.9395998,-0.000183,-0.785606,0.000090,-2.356578,0.000351,1.571254,0.785480,0.0100000000000000,0.010000
2024-07-16 18:58:49.9515590,2024-07-16 18:58:49.9517220,-0.000252,-0.785675,0.000072,-2.356701,0.000350,1.571268,0.785401,0.0100000000000000,0.010000
2024-07-16 18:58:49.9596507,2024-07-16 18:58:49.9598610,-0.000302,-0.785706,0.000062,-2.356782,0.000352,1.571289,0.785337,0.0100000000000000,0.010000
2024-07-16 18:58:49.9717531,2024-07-16 18:58:49.9719146,-0.000372,-0.785794,0.000058,-2.356938,0.000352,1.571482,0.785249,0.0100000000000000,0.010000
2024-07-16 18:58:49.9799162,2024-07-16 18:58:49.9800669,-0.000426,-0.785842,0.000037,-2.357022,0.000346,1.571558,0.785185,0.0100000000000000,0.010000
2024-07-16 18:58:49.9920299,2024-07-16 18:58:49.9921852,-0.000513,-0.785926,0.000019,-2.357180,0.000347,1.571669,0.785089,0.0100000000000000,0.010000
2024-07-16 18:58:50.0000880,2024-07-16 18:58:50.0002421,-0.000586,-0.785991,0.000011,-2.357288,0.000350,1.571737,0.785018,0.0100000000000000,0.010000
2024-07-16 18:58:50.0122085,2024-07-16 18:58:50.0123806,-0.000696,-0.786103,-0.000009,-2.357484,0.000349,1.571857,0.784903,0.010000000000000,0.010000
2024-07-16 18:58:50.0202676,2024-07-16 18:58:50.0204204,-0.000777,-0.786198,-0.000031,-2.357636,0.000348,1.571956,0.784810,0.010000000000000,0.010000
2024-07-16 18:58:50.0303294,2024-07-16 18:58:50.0304928,-0.000889,-0.786302,-0.000051,-2.357860,0.000345,1.572078,0.784674,0.010000000000000,0.010000
2024-07-16 18:58:50.0383832,2024-07-16 18:58:50.0385415,-0.000989,-0.786399,-0.000081,-2.358074,0.000348,1.572184,0.784568,0.010000000000000,0.010000
2024-07-16 18:58:50.0505321,2024-07-16 18:58:50.0507370,-0.001094,-0.786500,-0.000114,-2.358327,0.000348,1.572311,0.784436,0.010000000000000,0.010000
2024-07-16 18:58:50.0586282,2024-07-16 18:58:50.0591264,-0.001191,-0.786584,-0.000137,-2.358539,0.000341,1.572426,0.784314,0.010000000000000,0.010000
2024-07-16 18:58:50.0707408,2024-07-16 18:58:50.0711962,-0.001338,-0.786709,-0.000176,-2.358903,0.000344,1.572620,0.784108,0.010000000000000,0.010000
2024-07-16 18:58:50.0787983,2024-07-16 18:58:50.0792634,-0.001450,-0.786788,-0.000209,-2.359167,0.000338,1.572764,0.783967,0.010000000000000,0.010000
2024-07-16 18:58:50.0909552,2024-07-16 18:58:50.0914609,-0.001649,-0.786927,-0.000248,-2.359593,0.000337,1.573004,0.783742,0.010000000000000,0.010000
2024-07-16 18:58:50.0990346,2024-07-16 18:58:50.0995087,-0.001792,-0.787015,-0.000268,-2.359898,0.000334,1.573174,0.783562,0.010000000000000,0.010000
2024-07-16 18:58:50.1111436,2024-07-16 18:58:50.1116111,-0.002027,-0.787163,-0.000318,-2.360384,0.000324,1.573442,0.783261,0.010000000000000,0.010000
2024-07-16 18:58:50.1192205,2024-07-16 18:58:50.1196831,-0.002199,-0.787273,-0.000341,-2.360742,0.000318,1.573627,0.783063,0.010000000000000,0.010000
2024-07-16 18:58:50.1313420,2024-07-16 18:58:50.1316359,-0.002468,-0.787453,-0.000376,-2.361292,0.000308,1.573928,0.782736,0.010000000000000,0.010000
2024-07-16 18:58:50.1393973,2024-07-16 18:58:50.1395683,-0.002693,-0.787597,-0.000413,-2.361734,0.000298,1.574173,0.782499,0.010000000000000,0.010000
2024-07-16 18:58:50.1515151,2024-07-16 18:58:50.1517155,-0.003010,-0.787799,-0.000468,-2.362373,0.000281,1.574551,0.782148,0.010000000000000,0.010000
2024-07-16 18:58:50.1596152,2024-07-16 18:58:50.1598763,-0.003257,-0.787949,-0.000487,-2.362814,0.000270,1.574811,0.781878,0.010000000000000,0.010000
2024-07-16 18:58:50.1720282,2024-07-16 18:58:50.1722405,-0.003633,-0.788198,-0.000551,-2.363519,0.000222,1.575196,0.781437,0.010000000000000,0.010000
2024-07-16 18:58:50.1800788,2024-07-16 18:58:50.1802438,-0.003886,-0.788387,-0.000598,-2.364015,0.000163,1.575486,0.781158,0.010000000000000,0.010000
2024-07-16 18:58:50.1922123,2024-07-16 18:58:50.1924173,-0.004309,-0.788670,-0.000653,-2.364798,0.000115,1.575975,0.780705,0.010000000000000,0.010000
2024-07-16 18:58:50.2002850,2024-07-16 18:58:50.2004719,-0.004604,-0.788878,-0.000703,-2.365350,0.000106,1.576308,0.780388,0.010000000000000,0.010000
2024-07-16 18:58:50.2103580,2024-07-16 18:58:50.2105751,-0.005074,-0.789234,-0.000787,-2.366241,0.000083,1.576849,0.779887,0.010000000000000,0.010000
2024-07-16 18:58:50.2184162,2024-07-16 18:58:50.2186039,-0.005449,-0.789513,-0.000845,-2.366935,0.000052,1.577273,0.779483,0.010000000000000,0.010000
2024-07-16 18:58:50.2305369,2024-07-16 18:58:50.2307388,-0.005893,-0.789845,-0.000907,-2.367757,0.000002,1.577752,0.779015,0.010000000000000,0.010000
2024-07-16 18:58:50.2386074,2024-07-16 18:58:50.2388387,-0.006265,-0.790117,-0.000953,-2.368451,-0.000053,1.578190,0.778633,0.010000000000000,0.010000
2024-07-16 18:58:50.2507377,2024-07-16 18:58:50.2509580,-0.006843,-0.790555,-0.001041,-2.369540,-0.000124,1.578837,0.778000,0.010000000000000,0.010000
2024-07-16 18:58:50.2588117,2024-07-16 18:58:50.2591087,-0.007241,-0.790855,-0.001101,-2.370301,-0.000155,1.579299,0.777562,0.010000000000000,0.010000
2024-07-16 18:58:50.2709101,2024-07-16 18:58:50.2710917,-0.007882,-0.791307,-0.001177,-2.371475,-0.000186,1.580022,0.776864,0.010000000000000,0.010000
2024-07-16 18:58:50.2789774,2024-07-16 18:58:50.2792032,-0.008320,-0.791617,-0.001237,-2.372294,-0.000210,1.580521,0.776375,0.010000000000000,0.010000
2024-07-16 18:58:50.2910846,2024-07-16 18:58:50.2912679,-0.009000,-0.792103,-0.001325,-2.373575,-0.000268,1.581322,0.775612,0.010000000000000,0.010000
2024-07-16 18:58:50.2991108,2024-07-16 18:58:50.2993014,-0.009472,-0.792435,-0.001379,-2.374463,-0.000316,1.581872,0.775071,0.010000000000000,0.010000
2024-07-16 18:58:50.3112451,2024-07-16 18:58:50.3114648,-0.010235,-0.792934,-0.001462,-2.375826,-0.000385,1.582690,0.774230,0.010000000000000,0.010000
2024-07-16 18:58:50.3193081,2024-07-16 18:58:50.3195545,-0.010765,-0.793288,-0.001523,-2.376787,-0.000429,1.583299,0.773663,0.010000000000000,0.010000
2024-07-16 18:58:50.3314282,2024-07-16 18:58:50.3316429,-0.011530,-0.793767,-0.001604,-2.378156,-0.000490,1.584109,0.772835,0.010000000000000,0.010000
2024-07-16 18:58:50.3394844,2024-07-16 18:58:50.3396622,-0.012259,-0.794239,-0.001670,-2.379477,-0.000537,1.584928,0.772070,0.010000000000000,0.010000
2024-07-16 18:58:50.3516387,2024-07-16 18:58:50.3518504,-0.013182,-0.794840,-0.001755,-2.381138,-0.000609,1.585967,0.771115,0.010000000000000,0.010000
2024-07-16 18:58:50.3596893,2024-07-16 18:58:50.3598853,-0.013817,-0.795252,-0.001812,-2.382267,-0.000661,1.586655,0.770423,0.010000000000000,0.010000
2024-07-16 18:58:50.3718130,2024-07-16 18:58:50.3719908,-0.014833,-0.795916,-0.001909,-2.384030,-0.000733,1.587770,0.769349,0.010000000000000,0.010000
2024-07-16 18:58:50.3798792,2024-07-16 18:58:50.3800580,-0.015535,-0.796371,-0.001968,-2.385264,-0.000791,1.588539,0.768612,0.010000000000000,0.010000
2024-07-16 18:58:50.3920197,2024-07-16 18:58:50.3922333,-0.016637,-0.797061,-0.002059,-2.387153,-0.000846,1.589713,0.767428,0.010000000000000,0.010000
2024-07-16 18:58:50.4000823,2024-07-16 18:58:50.4002628,-0.017401,-0.797555,-0.002129,-2.388441,-0.000889,1.590543,0.766608,0.010000000000000,0.010000
2024-07-16 18:58:50.4122245,2024-07-16 18:58:50.4124607,-0.018604,-0.798318,-0.002223,-2.390446,-0.000965,1.591858,0.765379,0.010000000000000,0.010000
2024-07-16 18:58:50.4202752,2024-07-16 18:58:50.4204763,-0.019431,-0.798853,-0.002290,-2.391814,-0.001008,1.592738,0.764546,0.010000000000000,0.010000
2024-07-16 18:58:50.4303544,2024-07-16 18:58:50.4305620,-0.020727,-0.799695,-0.002398,-2.393955,-0.001094,1.594138,0.763195,0.010000000000000,0.010000
2024-07-16 18:58:50.4506436,2024-07-16 18:58:50.4509374,-0.022827,-0.801098,-0.002570,-2.397580,-0.001238,1.596448,0.760927,0.010000000000000,0.010000
2024-07-16 18:58:50.4587423,2024-07-16 18:58:50.4589536,-0.023769,-0.801705,-0.002647,-2.399198,-0.001297,1.597463,0.759942,0.010000000000000,0.010000
2024-07-16 18:58:50.4708754,2024-07-16 18:58:50.4710961,-0.025220,-0.802626,-0.002761,-2.401679,-0.001389,1.599025,0.758422,0.010000000000000,0.010000
2024-07-16 18:58:50.4789245,2024-07-16 18:58:50.4791002,-0.026219,-0.803238,-0.002837,-2.403388,-0.001442,1.600093,0.757359,0.010000000000000,0.010000
2024-07-16 18:58:50.4910442,2024-07-16 18:58:50.4912314,-0.027778,-0.804168,-0.002955,-2.406053,-0.001542,1.601762,0.755705,0.010000000000000,0.010000
2024-07-16 18:58:50.4991001,2024-07-16 18:58:50.4992708,-0.028868,-0.804789,-0.003027,-2.407900,-0.001602,1.602895,0.754577,0.010000000000000,0.010000
2024-07-16 18:58:50.5112155,2024-07-16 18:58:50.5113989,-0.030550,-0.805735,-0.003141,-2.410719,-0.001701,1.604687,0.752814,0.010000000000000,0.010000
2024-07-16 18:58:50.5192768,2024-07-16 18:58:50.5194526,-0.031701,-0.806393,-0.003222,-2.412629,-0.001758,1.605939,0.751605,0.010000000000000,0.010000
2024-07-16 18:58:50.5314067,2024-07-16 18:58:50.5316076,-0.033497,-0.807402,-0.003337,-2.415535,-0.001849,1.607905,0.749749,0.010000000000000,0.010000
2024-07-16 18:58:50.5394746,2024-07-16 18:58:50.5396521,-0.034892,-0.808185,-0.003429,-2.417766,-0.001925,1.609376,0.748320,0.010000000000000,0.010000
2024-07-16 18:58:50.5516059,2024-07-16 18:58:50.5518187,-0.036790,-0.809278,-0.003554,-2.420791,-0.002012,1.611422,0.746405,0.010000000000000,0.010000
2024-07-16 18:58:50.5596578,2024-07-16 18:58:50.5598280,-0.038088,-0.810055,-0.003626,-2.422909,-0.002070,1.612844,0.745060,0.010000000000000,0.010000
2024-07-16 18:58:50.5718199,2024-07-16 18:58:50.5720294,-0.040099,-0.811257,-0.003747,-2.426163,-0.002169,1.614932,0.742911,0.010000000000000,0.010000
2024-07-16 18:58:50.5798517,2024-07-16 18:58:50.5800467,-0.041481,-0.812068,-0.003827,-2.428391,-0.002234,1.616398,0.741404,0.010000000000000,0.010000
2024-07-16 18:58:50.5919547,2024-07-16 18:58:50.5921276,-0.043627,-0.813273,-0.003943,-2.431910,-0.002348,1.618601,0.739117,0.010000000000000,0.010000
2024-07-16 18:58:50.6000254,2024-07-16 18:58:50.6001934,-0.045115,-0.814065,-0.004016,-2.434329,-0.002414,1.620147,0.737594,0.010000000000000,0.010000
2024-07-16 18:58:50.6121608,2024-07-16 18:58:50.6123738,-0.047409,-0.815234,-0.004131,-2.437995,-0.002535,1.622508,0.735233,0.010000000000000,0.010000
2024-07-16 18:58:50.6202070,2024-07-16 18:58:50.6203518,-0.048990,-0.816042,-0.004226,-2.440473,-0.002605,1.624135,0.733588,0.010000000000000,0.010000
2024-07-16 18:58:50.6302747,2024-07-16 18:58:50.6304355,-0.051411,-0.817266,-0.004357,-2.444222,-0.002718,1.626711,0.731095,0.010000000000000,0.010000
2024-07-16 18:58:50.6383327,2024-07-16 18:58:50.6384856,-0.053064,-0.818106,-0.004449,-2.446743,-0.002787,1.628504,0.729412,0.010000000000000,0.010000
2024-07-16 18:58:50.6505803,2024-07-16 18:58:50.6507771,-0.055395,-0.819305,-0.004590,-2.450306,-0.002898,1.630975,0.727016,0.010000000000000,0.010000
2024-07-16 18:58:50.6586489,2024-07-16 18:58:50.6589115,-0.057154,-0.820213,-0.004697,-2.452971,-0.002977,1.632785,0.725250,0.010000000000000,0.010000
2024-07-16 18:58:50.6707689,2024-07-16 18:58:50.6709728,-0.059851,-0.821591,-0.004857,-2.457109,-0.003105,1.635489,0.722460,0.010000000000000,0.010000
2024-07-16 18:58:50.6788227,2024-07-16 18:58:50.6790044,-0.061683,-0.822483,-0.004965,-2.459988,-0.003192,1.637364,0.720519,0.010000000000000,0.010000
2024-07-16 18:58:50.6909273,2024-07-16 18:58:50.6910820,-0.064491,-0.823796,-0.005131,-2.464371,-0.003317,1.640267,0.717565,0.010000000000000,0.010000
2024-07-16 18:58:50.6989986,2024-07-16 18:58:50.6991797,-0.066397,-0.824676,-0.005220,-2.467291,-0.003388,1.642253,0.715613,0.010000000000000,0.010000
2024-07-16 18:58:50.7111535,2024-07-16 18:58:50.7113881,-0.069306,-0.826011,-0.005334,-2.471673,-0.003497,1.645350,0.712631,0.010000000000000,0.010000
2024-07-16 18:58:50.7192470,2024-07-16 18:58:50.7194232,-0.071309,-0.826941,-0.005409,-2.474625,-0.003568,1.647518,0.710579,0.010000000000000,0.010000
2024-07-16 18:58:50.7314510,2024-07-16 18:58:50.7316526,-0.074391,-0.828396,-0.005528,-2.479195,-0.003673,1.650768,0.707415,0.010000000000000,0.010000
2024-07-16 18:58:50.7394905,2024-07-16 18:58:50.7396529,-0.076776,-0.829516,-0.005630,-2.482734,-0.003767,1.653214,0.705009,0.010000000000000,0.010000
2024-07-16 18:58:50.7516210,2024-07-16 18:58:50.7517964,-0.080059,-0.830975,-0.005785,-2.487673,-0.003895,1.656451,0.701627,0.010000000000000,0.010000
2024-07-16 18:58:50.7596648,2024-07-16 18:58:50.7598140,-0.082311,-0.831930,-0.005898,-2.490993,-0.003989,1.658705,0.699318,0.010000000000000,0.010000
2024-07-16 18:58:50.7718190,2024-07-16 18:58:50.7720225,-0.085785,-0.833325,-0.006095,-2.495957,-0.004119,1.662257,0.695783,0.010000000000000,0.010000
2024-07-16 18:58:50.7798605,2024-07-16 18:58:50.7800148,-0.088134,-0.834279,-0.006240,-2.499223,-0.004198,1.664720,0.693377,0.010000000000000,0.010000
2024-07-16 18:58:50.7919901,2024-07-16 18:58:50.7921984,-0.091714,-0.835721,-0.006451,-2.504232,-0.004324,1.668517,0.689789,0.010000000000000,0.010000
2024-07-16 18:58:50.8000523,2024-07-16 18:58:50.8002622,-0.094144,-0.836710,-0.006558,-2.507675,-0.004405,1.671043,0.687310,0.010000000000000,0.010000
2024-07-16 18:58:50.8121753,2024-07-16 18:58:50.8123695,-0.097811,-0.838196,-0.006684,-2.513047,-0.004523,1.674768,0.683490,0.010000000000000,0.010000
2024-07-16 18:58:50.8202339,2024-07-16 18:58:50.8204160,-0.100329,-0.839162,-0.006763,-2.516698,-0.004606,1.677310,0.680896,0.010000000000000,0.010000
2024-07-16 18:58:50.8303171,2024-07-16 18:58:50.8304982,-0.104211,-0.840554,-0.006909,-2.522124,-0.004727,1.681326,0.676950,0.010000000000000,0.010000
2024-07-16 18:58:50.8383781,2024-07-16 18:58:50.8385683,-0.106886,-0.841495,-0.006996,-2.525704,-0.004801,1.684111,0.674272,0.010000000000000,0.010000
2024-07-16 18:58:50.8504805,2024-07-16 18:58:50.8506359,-0.110648,-0.842828,-0.007129,-2.530695,-0.004912,1.688058,0.670515,0.010000000000000,0.010000
2024-07-16 18:58:50.8585517,2024-07-16 18:58:50.8587379,-0.113424,-0.843806,-0.007242,-2.534437,-0.005007,1.690894,0.667775,0.010000000000000,0.010000
2024-07-16 18:58:50.8706844,2024-07-16 18:58:50.8708735,-0.117597,-0.845205,-0.007425,-2.540315,-0.005145,1.695093,0.663582,0.010000000000000,0.010000
2024-07-16 18:58:50.8787282,2024-07-16 18:58:50.8788753,-0.120408,-0.846096,-0.007547,-2.544272,-0.005228,1.697935,0.660639,0.010000000000000,0.010000
2024-07-16 18:58:50.8908586,2024-07-16 18:58:50.8910373,-0.124697,-0.847409,-0.007677,-2.550143,-0.005330,1.702436,0.656147,0.010000000000000,0.010000
2024-07-16 18:58:50.8989093,2024-07-16 18:58:50.8990601,-0.127611,-0.848283,-0.007762,-2.553999,-0.005405,1.705569,0.653157,0.010000000000000,0.010000
2024-07-16 18:58:50.9110925,2024-07-16 18:58:50.9112814,-0.132141,-0.849594,-0.007888,-2.559919,-0.005520,1.710359,0.648613,0.010000000000000,0.010000
2024-07-16 18:58:50.9191967,2024-07-16 18:58:50.9193773,-0.135264,-0.850455,-0.007979,-2.564026,-0.005616,1.713480,0.645556,0.010000000000000,0.010000
2024-07-16 18:58:50.9313744,2024-07-16 18:58:50.9315745,-0.140058,-0.851717,-0.008126,-2.570286,-0.005756,1.718210,0.640793,0.010000000000000,0.010000
2024-07-16 18:58:50.9394880,2024-07-16 18:58:50.9397294,-0.143630,-0.852599,-0.008246,-2.574925,-0.005849,1.721895,0.637125,0.010000000000000,0.010000
2024-07-16 18:58:50.9516902,2024-07-16 18:58:50.9518948,-0.148403,-0.853786,-0.008398,-2.581037,-0.005956,1.727017,0.632291,0.010000000000000,0.010000
2024-07-16 18:58:50.9597424,2024-07-16 18:58:50.9599953,-0.151624,-0.854583,-0.008489,-2.585155,-0.006027,1.730504,0.629019,0.010000000000000,0.010000
2024-07-16 18:58:50.9718656,2024-07-16 18:58:50.9721570,-0.156593,-0.855770,-0.008648,-2.591587,-0.006155,1.735661,0.624033,0.010000000000000,0.010000
2024-07-16 18:58:50.9799347,2024-07-16 18:58:50.9802110,-0.160053,-0.856504,-0.008752,-2.595978,-0.006245,1.739140,0.620584,0.010000000000000,0.010000
2024-07-16 18:58:50.9921635,2024-07-16 18:58:50.9924294,-0.165377,-0.857520,-0.008903,-2.602448,-0.006386,1.744527,0.615303,0.010000000000000,0.010000
2024-07-16 18:58:51.0002297,2024-07-16 18:58:51.0004977,-0.168920,-0.858179,-0.008997,-2.606679,-0.006465,1.748284,0.611774,0.010000000000000,0.010000
2024-07-16 18:58:51.0102998,2024-07-16 18:58:51.0105275,-0.174168,-0.859141,-0.009119,-2.613126,-0.006579,1.754022,0.606435,0.010000000000000,0.010000
2024-07-16 18:58:51.0183697,2024-07-16 18:58:51.0185364,-0.177673,-0.859742,-0.009189,-2.617593,-0.006647,1.757796,0.602802,0.010000000000000,0.010000
2024-07-16 18:58:51.0304793,2024-07-16 18:58:51.0306412,-0.182592,-0.860498,-0.009317,-2.623783,-0.006756,1.762994,0.597768,0.010000000000000,0.010000
2024-07-16 18:58:51.0385442,2024-07-16 18:58:51.0387158,-0.186331,-0.860986,-0.009410,-2.628204,-0.006829,1.766930,0.594060,0.010000000000000,0.010000
2024-07-16 18:58:51.0506650,2024-07-16 18:58:51.0508570,-0.192129,-0.861693,-0.009556,-2.634756,-0.006942,1.773017,0.588472,0.010000000000000,0.010000
2024-07-16 18:58:51.0587169,2024-07-16 18:58:51.0588735,-0.195995,-0.862161,-0.009637,-2.639216,-0.007016,1.777146,0.584718,0.010000000000000,0.010000
2024-07-16 18:58:51.0708496,2024-07-16 18:58:51.0710374,-0.201702,-0.862740,-0.009739,-2.646157,-0.007131,1.783250,0.578834,0.010000000000000,0.010000
2024-07-16 18:58:51.0789116,2024-07-16 18:58:51.0790907,-0.205519,-0.863045,-0.009802,-2.650796,-0.007186,1.787392,0.574885,0.010000000000000,0.010000
2024-07-16 18:58:51.0910394,2024-07-16 18:58:51.0913271,-0.211395,-0.863418,-0.009947,-2.657537,-0.007273,1.793793,0.568984,0.010000000000000,0.010000
2024-07-16 18:58:51.0991045,2024-07-16 18:58:51.0993847,-0.215489,-0.863651,-0.010046,-2.662013,-0.007340,1.798250,0.565017,0.010000000000000,0.010000
2024-07-16 18:58:51.1112117,2024-07-16 18:58:51.1114473,-0.221735,-0.863935,-0.010188,-2.668926,-0.007458,1.804890,0.558880,0.010000000000000,0.010000
2024-07-16 18:58:51.1192953,2024-07-16 18:58:51.1195507,-0.225807,-0.864044,-0.010256,-2.673655,-0.007535,1.809277,0.554803,0.010000000000000,0.010000
2024-07-16 18:58:51.1314098,2024-07-16 18:58:51.1316666,-0.231871,-0.864109,-0.010337,-2.680600,-0.007600,1.816022,0.548686,0.010000000000000,0.010000
2024-07-16 18:58:51.1394730,2024-07-16 18:58:51.1396719,-0.236504,-0.864111,-0.010396,-2.685692,-0.007624,1.821346,0.544004,0.010000000000000,0.010000
2024-07-16 18:58:51.1515835,2024-07-16 18:58:51.1517465,-0.242988,-0.864063,-0.010525,-2.692562,-0.007712,1.828546,0.537599,0.010000000000000,0.010000
2024-07-16 18:58:51.1596427,2024-07-16 18:58:51.1598164,-0.247385,-0.863948,-0.010598,-2.697288,-0.007802,1.833270,0.533296,0.010000000000000,0.010000
2024-07-16 18:58:51.1717969,2024-07-16 18:58:51.1720679,-0.253839,-0.863641,-0.010679,-2.704360,-0.007902,1.840455,0.526850,0.010000000000000,0.010000
2024-07-16 18:58:51.1798393,2024-07-16 18:58:51.1800713,-0.258109,-0.863351,-0.010686,-2.708945,-0.007923,1.845416,0.522489,0.010000000000000,0.010000
2024-07-16 18:58:51.1919762,2024-07-16 18:58:51.1921799,-0.264669,-0.862848,-0.010730,-2.715765,-0.007945,1.853056,0.515916,0.010000000000000,0.010000
2024-07-16 18:58:51.2000168,2024-07-16 18:58:51.2001862,-0.269216,-0.862447,-0.010808,-2.720437,-0.008001,1.858164,0.511515,0.010000000000000,0.010000
2024-07-16 18:58:51.2121423,2024-07-16 18:58:51.2123866,-0.276078,-0.861675,-0.010906,-2.727519,-0.008096,1.865793,0.504904,0.010000000000000,0.010000
2024-07-16 18:58:51.2202264,2024-07-16 18:58:51.2204421,-0.279984,-0.861124,-0.010928,-2.731567,-0.008134,1.870352,0.500925,0.010000000000000,0.010000
2024-07-16 18:58:51.2302690,2024-07-16 18:58:51.2304340,-0.287195,-0.860001,-0.010918,-2.738865,-0.008146,1.879116,0.493475,0.010000000000000,0.010000
2024-07-16 18:58:51.2504925,2024-07-16 18:58:51.2508057,-0.298315,-0.858068,-0.010996,-2.749804,-0.008213,1.892048,0.482616,0.010000000000000,0.010000
2024-07-16 18:58:51.2585451,2024-07-16 18:58:51.2587991,-0.303035,-0.857083,-0.011039,-2.754481,-0.008248,1.897530,0.477968,0.010000000000000,0.010000
2024-07-16 18:58:51.2706576,2024-07-16 18:58:51.2709151,-0.309941,-0.855436,-0.011006,-2.761288,-0.008261,1.905976,0.471070,0.010000000000000,0.010000
2024-07-16 18:58:51.2787352,2024-07-16 18:58:51.2789990,-0.314537,-0.854259,-0.011003,-2.765709,-0.008268,1.911794,0.466439,0.010000000000000,0.010000
2024-07-16 18:58:51.2908451,2024-07-16 18:58:51.2911058,-0.321768,-0.852354,-0.011064,-2.772442,-0.008288,1.920551,0.459316,0.010000000000000,0.010000
2024-07-16 18:58:51.2989229,2024-07-16 18:58:51.2991955,-0.326673,-0.850960,-0.011107,-2.777026,-0.008309,1.926357,0.454539,0.010000000000000,0.010000
2024-07-16 18:58:51.3110334,2024-07-16 18:58:51.3112243,-0.333807,-0.848615,-0.011076,-2.783787,-0.008336,1.935219,0.447426,0.010000000000000,0.010000
2024-07-16 18:58:51.3191649,2024-07-16 18:58:51.3194519,-0.338493,-0.846949,-0.011044,-2.788150,-0.008338,1.941304,0.442652,0.010000000000000,0.010000
2024-07-16 18:58:51.3312652,2024-07-16 18:58:51.3315244,-0.345723,-0.844314,-0.011056,-2.794609,-0.008343,1.950637,0.435442,0.010000000000000,0.010000
2024-07-16 18:58:51.3393296,2024-07-16 18:58:51.3395809,-0.350738,-0.842490,-0.011084,-2.799016,-0.008354,1.956877,0.430660,0.010000000000000,0.010000
2024-07-16 18:58:51.3514611,2024-07-16 18:58:51.3517479,-0.358713,-0.839267,-0.011044,-2.806199,-0.008354,1.966942,0.422811,0.010000000000000,0.010000
2024-07-16 18:58:51.3595677,2024-07-16 18:58:51.3598526,-0.363509,-0.837162,-0.010981,-2.810513,-0.008351,1.973265,0.417900,0.010000000000000,0.010000
2024-07-16 18:58:51.3716588,2024-07-16 18:58:51.3719115,-0.370814,-0.833826,-0.010940,-2.816756,-0.008355,1.983064,0.410596,0.010000000000000,0.010000
2024-07-16 18:58:51.3797741,2024-07-16 18:58:51.3800398,-0.375878,-0.831502,-0.010969,-2.820875,-0.008362,1.989747,0.405723,0.010000000000000,0.010000
2024-07-16 18:58:51.3919175,2024-07-16 18:58:51.3921948,-0.383378,-0.827819,-0.010949,-2.827125,-0.008360,1.999676,0.398346,0.010000000000000,0.010000
2024-07-16 18:58:51.4000211,2024-07-16 18:58:51.4002914,-0.388229,-0.825172,-0.010893,-2.831285,-0.008356,2.006322,0.393467,0.010000000000000,0.010000
2024-07-16 18:58:51.4121737,2024-07-16 18:58:51.4137337,-0.395538,-0.820950,-0.010806,-2.837361,-0.008349,2.016494,0.386148,0.010000000000000,0.010000
2024-07-16 18:58:51.4202832,2024-07-16 18:58:51.4204657,-0.400603,-0.818000,-0.010810,-2.841284,-0.008358,2.023460,0.381166,0.010000000000000,0.010000
2024-07-16 18:58:51.4303271,2024-07-16 18:58:51.4304701,-0.408234,-0.813433,-0.010802,-2.847097,-0.008351,2.034035,0.373734,0.010000000000000,0.010000
2024-07-16 18:58:51.4383876,2024-07-16 18:58:51.4385283,-0.413762,-0.809902,-0.010728,-2.851531,-0.008341,2.041942,0.368189,0.010000000000000,0.010000
2024-07-16 18:58:51.4506139,2024-07-16 18:58:51.4508012,-0.419854,-0.805833,-0.010638,-2.856436,-0.008347,2.050679,0.362020,0.010000000000000,0.010000
2024-07-16 18:58:51.4589399,2024-07-16 18:58:51.4591030,-0.424907,-0.802423,-0.010632,-2.860263,-0.008346,2.057856,0.357077,0.010000000000000,0.010000
2024-07-16 18:58:51.4710603,2024-07-16 18:58:51.4712347,-0.432583,-0.797053,-0.010634,-2.865771,-0.008341,2.068838,0.349763,0.010000000000000,0.010000
2024-07-16 18:58:51.4791121,2024-07-16 18:58:51.4792615,-0.437520,-0.793290,-0.010569,-2.869315,-0.008335,2.076291,0.344795,0.010000000000000,0.010000
2024-07-16 18:58:51.4912404,2024-07-16 18:58:51.4914148,-0.444788,-0.787438,-0.010430,-2.874647,-0.008318,2.087500,0.337300,0.010000000000000,0.010000
2024-07-16 18:58:51.4992959,2024-07-16 18:58:51.4994416,-0.449734,-0.783420,-0.010399,-2.878212,-0.008310,2.094972,0.332399,0.010000000000000,0.010000
2024-07-16 18:58:51.5114118,2024-07-16 18:58:51.5115586,-0.458040,-0.776724,-0.010367,-2.883900,-0.008315,2.107236,0.324398,0.010000000000000,0.010000
2024-07-16 18:58:51.5195278,2024-07-16 18:58:51.5196895,-0.462385,-0.772978,-0.010305,-2.886826,-0.008292,2.113920,0.320065,0.010000000000000,0.010000
2024-07-16 18:58:51.5316869,2024-07-16 18:58:51.5318487,-0.470261,-0.765648,-0.010122,-2.892054,-0.008189,2.126513,0.312161,0.010000000000000,0.010000
2024-07-16 18:58:51.5397875,2024-07-16 18:58:51.5399485,-0.475159,-0.761001,-0.010070,-2.895187,-0.008134,2.134374,0.307300,0.010000000000000,0.010000
2024-07-16 18:58:51.5519291,2024-07-16 18:58:51.5521132,-0.482744,-0.753902,-0.010025,-2.899837,-0.008107,2.146281,0.299871,0.010000000000000,0.010000
2024-07-16 18:58:51.5599732,2024-07-16 18:58:51.5601331,-0.487687,-0.749084,-0.009986,-2.902897,-0.008087,2.154196,0.295000,0.010000000000000,0.010000
2024-07-16 18:58:51.5720845,2024-07-16 18:58:51.5722325,-0.494874,-0.741500,-0.009820,-2.907420,-0.008018,2.166107,0.287752,0.010000000000000,0.010000
2024-07-16 18:58:51.5801407,2024-07-16 18:58:51.5802836,-0.499653,-0.736233,-0.009736,-2.910388,-0.007953,2.174152,0.282909,0.010000000000000,0.010000
2024-07-16 18:58:51.5902637,2024-07-16 18:58:51.5904366,-0.507099,-0.728204,-0.009656,-2.914603,-0.007883,2.186330,0.275688,0.010000000000000,0.010000
2024-07-16 18:58:51.5983615,2024-07-16 18:58:51.5985243,-0.512051,-0.722806,-0.009587,-2.917256,-0.007827,2.194571,0.270949,0.010000000000000,0.010000
2024-07-16 18:58:51.6105260,2024-07-16 18:58:51.6106915,-0.518572,-0.715086,-0.009410,-2.920757,-0.007728,2.205909,0.264332,0.010000000000000,0.010000
2024-07-16 18:58:51.6186252,2024-07-16 18:58:51.6187872,-0.523230,-0.709280,-0.009293,-2.923269,-0.007658,2.214222,0.259512,0.010000000000000,0.010000
2024-07-16 18:58:51.6307785,2024-07-16 18:58:51.6310562,-0.530418,-0.700480,-0.009228,-2.926953,-0.007579,2.226726,0.252461,0.010000000000000,0.010000
2024-07-16 18:58:51.6388335,2024-07-16 18:58:51.6390009,-0.535318,-0.694549,-0.009195,-2.929337,-0.007517,2.235053,0.247749,0.010000000000000,0.010000
2024-07-16 18:58:51.6509634,2024-07-16 18:58:51.6511245,-0.542397,-0.685318,-0.009084,-2.932836,-0.007419,2.247596,0.240686,0.010000000000000,0.010000
2024-07-16 18:58:51.6591336,2024-07-16 18:58:51.6593055,-0.546962,-0.678994,-0.008961,-2.935073,-0.007361,2.256018,0.236062,0.010000000000000,0.010000
2024-07-16 18:58:51.6712388,2024-07-16 18:58:51.6713869,-0.553865,-0.669469,-0.008851,-2.938175,-0.007255,2.268820,0.229145,0.010000000000000,0.010000
2024-07-16 18:58:51.6792969,2024-07-16 18:58:51.6794450,-0.558626,-0.662908,-0.008791,-2.940106,-0.007180,2.277333,0.224503,0.010000000000000,0.010000
2024-07-16 18:58:51.6914252,2024-07-16 18:58:51.6915971,-0.566227,-0.652027,-0.008659,-2.943135,-0.007059,2.291188,0.217029,0.010000000000000,0.010000
2024-07-16 18:58:51.6994741,2024-07-16 18:58:51.6996199,-0.570702,-0.645338,-0.008541,-2.944909,-0.006987,2.299818,0.212508,0.010000000000000,0.010000
2024-07-16 18:58:51.7115852,2024-07-16 18:58:51.7117438,-0.577327,-0.635053,-0.008407,-2.947410,-0.006891,2.312695,0.205738,0.010000000000000,0.010000
2024-07-16 18:58:51.7196658,2024-07-16 18:58:51.7198353,-0.581894,-0.628092,-0.008368,-2.949015,-0.006813,2.321263,0.201273,0.010000000000000,0.010000
2024-07-16 18:58:51.7317877,2024-07-16 18:58:51.7319575,-0.588221,-0.618439,-0.008300,-2.951146,-0.006721,2.333102,0.195244,0.010000000000000,0.010000
2024-07-16 18:58:51.7398394,2024-07-16 18:58:51.7399829,-0.593186,-0.610363,-0.008209,-2.952791,-0.006635,2.342745,0.190310,0.010000000000000,0.010000
2024-07-16 18:58:51.7519796,2024-07-16 18:58:51.7521624,-0.599612,-0.599357,-0.008022,-2.954813,-0.006541,2.355599,0.183630,0.010000000000000,0.010000
2024-07-16 18:58:51.7600472,2024-07-16 18:58:51.7602257,-0.603871,-0.592039,-0.007926,-2.956061,-0.006453,2.364141,0.179280,0.010000000000000,0.010000
2024-07-16 18:58:51.7721564,2024-07-16 18:58:51.7722946,-0.610462,-0.580823,-0.007854,-2.957839,-0.006344,2.377047,0.172918,0.010000000000000,0.010000
2024-07-16 18:58:51.7802092,2024-07-16 18:58:51.7803244,-0.614846,-0.573268,-0.007772,-2.958899,-0.006258,2.385638,0.168643,0.010000000000000,0.010000
2024-07-16 18:58:51.7902909,2024-07-16 18:58:51.7904193,-0.621140,-0.561974,-0.007619,-2.960309,-0.006138,2.398465,0.162288,0.010000000000000,0.010000
2024-07-16 18:58:51.7983374,2024-07-16 18:58:51.7984332,-0.625734,-0.553261,-0.007491,-2.961315,-0.006055,2.408045,0.157645,0.010000000000000,0.010000
2024-07-16 18:58:51.8104599,2024-07-16 18:58:51.8105723,-0.630860,-0.543602,-0.007396,-2.962297,-0.005962,2.418732,0.152543,0.010000000000000,0.010000
2024-07-16 18:58:51.8185242,2024-07-16 18:58:51.8186382,-0.635070,-0.535890,-0.007352,-2.962955,-0.005875,2.427230,0.148399,0.010000000000000,0.010000
2024-07-16 18:58:51.8306453,2024-07-16 18:58:51.8307676,-0.641304,-0.524102,-0.007312,-2.963864,-0.005732,2.439831,0.142210,0.010000000000000,0.010000
2024-07-16 18:58:51.8387049,2024-07-16 18:58:51.8388167,-0.645301,-0.516288,-0.007220,-2.964381,-0.005664,2.448249,0.138231,0.010000000000000,0.010000
2024-07-16 18:58:51.8508246,2024-07-16 18:58:51.8511031,-0.651133,-0.504434,-0.007038,-2.965037,-0.005569,2.460807,0.132290,0.010000000000000,0.010000
2024-07-16 18:58:51.8588995,2024-07-16 18:58:51.8590771,-0.654992,-0.496452,-0.006946,-2.965384,-0.005493,2.469122,0.128348,0.010000000000000,0.010000
2024-07-16 18:58:51.8710118,2024-07-16 18:58:51.8711848,-0.660922,-0.484572,-0.006869,-2.965762,-0.005365,2.481486,0.122511,0.010000000000000,0.010000
2024-07-16 18:58:51.8790906,2024-07-16 18:58:51.8792681,-0.664879,-0.476550,-0.006812,-2.966013,-0.005276,2.489708,0.118707,0.010000000000000,0.010000
2024-07-16 18:58:51.8912132,2024-07-16 18:58:51.8913895,-0.670587,-0.464563,-0.006688,-2.966192,-0.005164,2.501899,0.113119,0.010000000000000,0.010000
2024-07-16 18:58:51.8992826,2024-07-16 18:58:51.8994583,-0.674275,-0.456608,-0.006595,-2.966220,-0.005093,2.509980,0.109287,0.010000000000000,0.010000
2024-07-16 18:58:51.9114091,2024-07-16 18:58:51.9115889,-0.680162,-0.443473,-0.006417,-2.966256,-0.004983,2.522917,0.103194,0.010000000000000,0.010000
2024-07-16 18:58:51.9194733,2024-07-16 18:58:51.9196488,-0.683833,-0.435526,-0.006370,-2.966185,-0.004904,2.530871,0.099579,0.010000000000000,0.010000
2024-07-16 18:58:51.9316010,2024-07-16 18:58:51.9317931,-0.689395,-0.423499,-0.006303,-2.966097,-0.004776,2.542702,0.094256,0.010000000000000,0.010000
2024-07-16 18:58:51.9396729,2024-07-16 18:58:51.9398446,-0.693000,-0.415478,-0.006242,-2.965962,-0.004682,2.550413,0.090660,0.010000000000000,0.010000
2024-07-16 18:58:51.9517528,2024-07-16 18:58:51.9519202,-0.698208,-0.403630,-0.006112,-2.965641,-0.004569,2.561911,0.085333,0.010000000000000,0.010000
2024-07-16 18:58:51.9598193,2024-07-16 18:58:51.9599859,-0.701604,-0.395576,-0.005984,-2.965444,-0.004510,2.569509,0.081917,0.010000000000000,0.010000
2024-07-16 18:58:51.9719588,2024-07-16 18:58:51.9721352,-0.706636,-0.383675,-0.005832,-2.964914,-0.004413,2.580713,0.076862,0.010000000000000,0.010000
2024-07-16 18:58:51.9800211,2024-07-16 18:58:51.9801840,-0.710022,-0.375790,-0.005777,-2.964490,-0.004310,2.588124,0.073502,0.010000000000000,0.010000
2024-07-16 18:58:51.9921440,2024-07-16 18:58:51.9923023,-0.715134,-0.363895,-0.005656,-2.963812,-0.004172,2.599002,0.068445,0.010000000000000,0.010000
2024-07-16 18:58:52.0002190,2024-07-16 18:58:52.0003745,-0.718428,-0.356174,-0.005598,-2.963246,-0.004089,2.606236,0.065132,0.010000000000000,0.010000
2024-07-16 18:58:52.0102883,2024-07-16 18:58:52.0104372,-0.723211,-0.344489,-0.005464,-2.962366,-0.003975,2.616913,0.060359,0.010000000000000,0.010000
2024-07-16 18:58:52.0183501,2024-07-16 18:58:52.0184895,-0.726721,-0.335763,-0.005346,-2.961575,-0.003885,2.624785,0.056816,0.010000000000000,0.010000
2024-07-16 18:58:52.0304968,2024-07-16 18:58:52.0306443,-0.730585,-0.326275,-0.005248,-2.960608,-0.003788,2.633423,0.052900,0.010000000000000,0.010000
2024-07-16 18:58:52.0506918,2024-07-16 18:58:52.0508082,-0.738240,-0.307353,-0.005062,-2.958682,-0.003559,2.650246,0.045267,0.010000000000000,0.010000
2024-07-16 18:58:52.0587477,2024-07-16 18:58:52.0588216,-0.741279,-0.300001,-0.005015,-2.957794,-0.003471,2.656858,0.042310,0.010000000000000,0.010000
2024-07-16 18:58:52.0708676,2024-07-16 18:58:52.0709547,-0.745667,-0.288849,-0.004935,-2.956449,-0.003355,2.666542,0.038013,0.010000000000000,0.010000
2024-07-16 18:58:52.0789320,2024-07-16 18:58:52.0790247,-0.748518,-0.281534,-0.004863,-2.955466,-0.003267,2.672840,0.035145,0.010000000000000,0.010000
2024-07-16 18:58:52.0910519,2024-07-16 18:58:52.0911415,-0.752743,-0.270772,-0.004727,-2.953982,-0.003154,2.682246,0.030782,0.010000000000000,0.010000
2024-07-16 18:58:52.0991256,2024-07-16 18:58:52.0992272,-0.755494,-0.263526,-0.004600,-2.953017,-0.003079,2.688383,0.027958,0.010000000000000,0.010000
2024-07-16 18:58:52.1112391,2024-07-16 18:58:52.1113170,-0.759527,-0.253003,-0.004466,-2.951444,-0.002967,2.697383,0.023901,0.010000000000000,0.010000
2024-07-16 18:58:52.1193081,2024-07-16 18:58:52.1194123,-0.762198,-0.246138,-0.004403,-2.950367,-0.002876,2.703277,0.021279,0.010000000000000,0.010000
2024-07-16 18:58:52.1314245,2024-07-16 18:58:52.1315221,-0.766190,-0.235751,-0.004305,-2.948780,-0.002754,2.711901,0.017423,0.010000000000000,0.010000
2024-07-16 18:58:52.1394924,2024-07-16 18:58:52.1395849,-0.769122,-0.228172,-0.004255,-2.947547,-0.002659,2.718256,0.014478,0.010000000000000,0.010000
2024-07-16 18:58:52.1516122,2024-07-16 18:58:52.1516899,-0.772922,-0.218230,-0.004235,-2.945847,-0.002550,2.726580,0.010595,0.010000000000000,0.010000
2024-07-16 18:58:52.1597116,2024-07-16 18:58:52.1598425,-0.775408,-0.211590,-0.004157,-2.944711,-0.002469,2.731972,0.008126,0.010000000000000,0.010000
2024-07-16 18:58:52.1718149,2024-07-16 18:58:52.1719029,-0.779040,-0.201941,-0.003996,-2.942919,-0.002363,2.739862,0.004568,0.010000000000000,0.010000
2024-07-16 18:58:52.1798774,2024-07-16 18:58:52.1799628,-0.781383,-0.195698,-0.003875,-2.941702,-0.002305,2.745039,0.002222,0.010000000000000,0.010000
2024-07-16 18:58:52.1919982,2024-07-16 18:58:52.1920845,-0.784795,-0.186315,-0.003740,-2.939922,-0.002188,2.752573,-0.001219,0.01000000000000,0.010000
2024-07-16 18:58:52.2000667,2024-07-16 18:58:52.2001544,-0.787050,-0.180156,-0.003682,-2.938714,-0.002113,2.757471,-0.003484,0.01000000000000,0.010000
2024-07-16 18:58:52.2121831,2024-07-16 18:58:52.2122679,-0.790445,-0.171248,-0.003637,-2.936861,-0.001996,2.764728,-0.006879,0.01000000000000,0.010000
2024-07-16 18:58:52.2202473,2024-07-16 18:58:52.2203311,-0.792678,-0.165356,-0.003623,-2.935643,-0.001919,2.769429,-0.009084,0.01000000000000,0.010000
2024-07-16 18:58:52.2303127,2024-07-16 18:58:52.2304058,-0.795912,-0.156630,-0.003551,-2.933826,-0.001809,2.776251,-0.012290,0.01000000000000,0.010000
2024-07-16 18:58:52.2383900,2024-07-16 18:58:52.2385029,-0.798246,-0.150295,-0.003479,-2.932436,-0.001726,2.781207,-0.014575,0.01000000000000,0.010000
2024-07-16 18:58:52.2505227,2024-07-16 18:58:52.2506280,-0.800780,-0.143474,-0.003360,-2.930937,-0.001662,2.786613,-0.017037,0.01000000000000,0.010000
2024-07-16 18:58:52.2585804,2024-07-16 18:58:52.2586690,-0.802726,-0.138030,-0.003251,-2.929775,-0.001622,2.790823,-0.019003,0.01000000000000,0.010000
2024-07-16 18:58:52.2706941,2024-07-16 18:58:52.2707732,-0.805568,-0.129987,-0.003081,-2.928024,-0.001565,2.796949,-0.021889,0.01000000000000,0.010000
2024-07-16 18:58:52.2787569,2024-07-16 18:58:52.2788366,-0.807410,-0.124798,-0.002985,-2.926843,-0.001518,2.800957,-0.023799,0.01000000000000,0.010000
2024-07-16 18:58:52.2908783,2024-07-16 18:58:52.2909707,-0.810129,-0.117293,-0.002886,-2.925092,-0.001436,2.806752,-0.026541,0.01000000000000,0.010000
2024-07-16 18:58:52.2989735,2024-07-16 18:58:52.2990914,-0.811915,-0.112345,-0.002813,-2.923936,-0.001366,2.810503,-0.028307,0.01000000000000,0.010000
2024-07-16 18:58:52.3110738,2024-07-16 18:58:52.3111497,-0.814548,-0.105087,-0.002734,-2.922233,-0.001274,2.815898,-0.030885,0.01000000000000,0.010000
2024-07-16 18:58:52.3191353,2024-07-16 18:58:52.3192135,-0.816259,-0.100423,-0.002691,-2.921086,-0.001211,2.819428,-0.032538,0.01000000000000,0.010000
2024-07-16 18:58:52.3313850,2024-07-16 18:58:52.3315065,-0.818780,-0.093729,-0.002652,-2.919389,-0.001130,2.824541,-0.034966,0.01000000000000,0.010000
2024-07-16 18:58:52.3394452,2024-07-16 18:58:52.3395403,-0.820405,-0.089321,-0.002627,-2.918263,-0.001071,2.827847,-0.036508,0.01000000000000,0.010000
2024-07-16 18:58:52.3515754,2024-07-16 18:58:52.3516833,-0.822721,-0.082816,-0.002527,-2.916605,-0.000978,2.832646,-0.038732,0.01000000000000,0.010000
2024-07-16 18:58:52.3596589,2024-07-16 18:58:52.3597740,-0.824396,-0.078112,-0.002437,-2.915406,-0.000938,2.836084,-0.040343,0.01000000000000,0.010000
2024-07-16 18:58:52.3717836,2024-07-16 18:58:52.3718773,-0.826537,-0.072157,-0.002313,-2.913842,-0.000933,2.840541,-0.042524,0.01000000000000,0.010000
2024-07-16 18:58:52.3798444,2024-07-16 18:58:52.3799299,-0.827908,-0.068345,-0.002237,-2.912783,-0.000929,2.843385,-0.043949,0.01000000000000,0.010000
2024-07-16 18:58:52.3919579,2024-07-16 18:58:52.3920538,-0.829932,-0.062756,-0.002108,-2.911240,-0.000896,2.847510,-0.045972,0.01000000000000,0.010000
2024-07-16 18:58:52.4000336,2024-07-16 18:58:52.4001361,-0.831227,-0.059097,-0.002020,-2.910246,-0.000852,2.850130,-0.047222,0.01000000000000,0.010000
2024-07-16 18:58:52.4121499,2024-07-16 18:58:52.4122435,-0.833083,-0.053891,-0.001903,-2.908840,-0.000799,2.853871,-0.049029,0.01000000000000,0.010000
2024-07-16 18:58:52.4202247,2024-07-16 18:58:52.4203272,-0.834267,-0.050553,-0.001845,-2.907919,-0.000782,2.856286,-0.050210,0.01000000000000,0.010000
2024-07-16 18:58:52.4302831,2024-07-16 18:58:52.4303800,-0.835870,-0.046194,-0.001798,-2.906701,-0.000750,2.859468,-0.051768,0.01000000000000,0.010000
2024-07-16 18:58:52.4383538,2024-07-16 18:58:52.4384514,-0.837269,-0.042387,-0.001782,-2.905618,-0.000691,2.862231,-0.053090,0.01000000000000,0.010000
2024-07-16 18:58:52.4505013,2024-07-16 18:58:52.4506069,-0.838600,-0.038702,-0.001750,-2.904577,-0.000623,2.864883,-0.054362,0.01000000000000,0.010000
2024-07-16 18:58:52.4585681,2024-07-16 18:58:52.4586897,-0.839631,-0.035839,-0.001714,-2.903774,-0.000581,2.866884,-0.055317,0.01000000000000,0.010000
2024-07-16 18:58:52.4706777,2024-07-16 18:58:52.4707863,-0.841094,-0.031739,-0.001649,-2.902641,-0.000560,2.869700,-0.056710,0.01000000000000,0.010000
2024-07-16 18:58:52.4787352,2024-07-16 18:58:52.4788165,-0.842035,-0.029164,-0.001591,-2.901922,-0.000555,2.871496,-0.057588,0.01000000000000,0.010000
2024-07-16 18:58:52.4908586,2024-07-16 18:58:52.4909567,-0.843365,-0.025539,-0.001495,-2.900881,-0.000546,2.874083,-0.058820,0.01000000000000,0.010000
2024-07-16 18:58:52.4989121,2024-07-16 18:58:52.4989889,-0.844214,-0.023269,-0.001436,-2.900221,-0.000534,2.875725,-0.059583,0.01000000000000,0.010000
2024-07-16 18:58:52.5110282,2024-07-16 18:58:52.5111082,-0.845387,-0.020101,-0.001343,-2.899273,-0.000510,2.878018,-0.060705,0.01000000000000,0.010000
2024-07-16 18:58:52.5190905,2024-07-16 18:58:52.5191699,-0.846114,-0.018117,-0.001267,-2.898662,-0.000499,2.879425,-0.061434,0.01000000000000,0.010000
2024-07-16 18:58:52.5312572,2024-07-16 18:58:52.5313534,-0.847102,-0.015356,-0.001158,-2.897812,-0.000492,2.881341,-0.062417,0.01000000000000,0.010000
2024-07-16 18:58:52.5393588,2024-07-16 18:58:52.5394519,-0.847716,-0.013593,-0.001092,-2.897286,-0.000488,2.882570,-0.063034,0.01000000000000,0.010000
2024-07-16 18:58:52.5515136,2024-07-16 18:58:52.5516039,-0.848642,-0.010987,-0.000983,-2.896500,-0.000483,2.884419,-0.063944,0.01000000000000,0.010000
2024-07-16 18:58:52.5596190,2024-07-16 18:58:52.5597177,-0.849171,-0.009502,-0.000917,-2.896067,-0.000475,2.885426,-0.064440,0.01000000000000,0.010000
2024-07-16 18:58:52.5717961,2024-07-16 18:58:52.5719092,-0.849919,-0.007521,-0.000820,-2.895480,-0.000469,2.886762,-0.065129,0.01000000000000,0.010000
2024-07-16 18:58:52.5798935,2024-07-16 18:58:52.5799854,-0.850371,-0.006342,-0.000761,-2.895139,-0.000465,2.887558,-0.065512,0.01000000000000,0.010000
2024-07-16 18:58:52.5920576,2024-07-16 18:58:52.5921508,-0.850959,-0.004801,-0.000686,-2.894670,-0.000463,2.888618,-0.066034,0.01000000000000,0.010000
2024-07-16 18:58:52.6001579,2024-07-16 18:58:52.6002496,-0.851306,-0.003911,-0.000648,-2.894406,-0.000461,2.889245,-0.066337,0.01000000000000,0.010000
2024-07-16 18:58:52.6102482,2024-07-16 18:58:52.6103392,-0.851782,-0.002774,-0.000595,-2.894050,-0.000452,2.890051,-0.066745,0.01000000000000,0.010000
2024-07-16 18:58:52.6183473,2024-07-16 18:58:52.6184416,-0.852060,-0.002133,-0.000562,-2.893845,-0.000450,2.890500,-0.066973,0.01000000000000,0.010000
2024-07-16 18:58:52.6304653,2024-07-16 18:58:52.6305868,-0.852387,-0.001433,-0.000528,-2.893629,-0.000448,2.890979,-0.067218,0.01000000000000,0.010000
2024-07-16 18:58:52.6385676,2024-07-16 18:58:52.6386583,-0.852578,-0.001053,-0.000507,-2.893494,-0.000446,2.891263,-0.067331,0.01000000000000,0.010000
2024-07-16 18:58:52.6506956,2024-07-16 18:58:52.6507971,-0.852795,-0.000669,-0.000455,-2.893363,-0.000439,2.891515,-0.067464,0.01000000000000,0.010000
2024-07-16 18:58:52.6587489,2024-07-16 18:58:52.6588284,-0.852896,-0.000554,-0.000423,-2.893310,-0.000434,2.891589,-0.067518,0.01000000000000,0.010000
2024-07-16 18:58:55.0880737,2024-07-16 18:58:55.0882116,-0.853050,-0.000385,-0.000380,-2.893211,-0.000390,2.891699,-0.067570,0.02000000000000,0.020000
2024-07-16 18:58:55.0890814,2024-07-16 18:58:55.0891634,-0.853053,-0.000384,-0.000378,-2.893211,-0.000391,2.891698,-0.067568,0.02000000000000,0.020000
2024-07-16 18:58:55.0900474,2024-07-16 18:58:55.0901771,-0.853053,-0.000387,-0.000375,-2.893213,-0.000391,2.891699,-0.067564,0.02000000000000,0.020000
2024-07-16 18:58:55.0910616,2024-07-16 18:58:55.0911809,-0.853048,-0.000387,-0.000378,-2.893213,-0.000387,2.891699,-0.067565,0.02000000000000,0.020000
2024-07-16 18:58:55.0920732,2024-07-16 18:58:55.0921685,-0.853053,-0.000384,-0.000375,-2.893216,-0.000387,2.891697,-0.067571,0.02000000000000,0.020000
2024-07-16 18:58:55.0930797,2024-07-16 18:58:55.0931909,-0.853053,-0.000382,-0.000378,-2.893216,-0.000390,2.891699,-0.067569,0.02000000000000,0.020000
2024-07-16 18:58:55.0939421,2024-07-16 18:58:55.0940391,-0.853056,-0.000382,-0.000380,-2.893216,-0.000391,2.891697,-0.067568,0.02000000000000,0.020000
2024-07-16 18:58:55.0950497,2024-07-16 18:58:55.0951551,-0.853053,-0.000384,-0.000375,-2.893213,-0.000393,2.891697,-0.067568,0.02000000000000,0.020000
2024-07-16 18:58:55.0959585,2024-07-16 18:58:55.0960563,-0.853054,-0.000384,-0.000380,-2.893213,-0.000393,2.891700,-0.067570,0.02000000000000,0.020000
2024-07-16 18:58:55.0970788,2024-07-16 18:58:55.0971786,-0.853050,-0.000377,-0.000378,-2.893216,-0.000392,2.891699,-0.067572,0.02000000000000,0.020000
2024-07-16 18:58:55.0979395,2024-07-16 18:58:55.0980661,-0.853051,-0.000387,-0.000380,-2.893213,-0.000393,2.891698,-0.067570,0.02000000000000,0.020000
2024-07-16 18:58:55.0990359,2024-07-16 18:58:55.0991402,-0.853053,-0.000382,-0.000378,-2.893213,-0.000390,2.891698,-0.067568,0.02000000000000,0.020000
2024-07-16 18:58:55.0999461,2024-07-16 18:58:55.1000530,-0.853050,-0.000390,-0.000378,-2.893213,-0.000388,2.891699,-0.067572,0.02000000000000,0.020000
2024-07-16 18:58:55.1010999,2024-07-16 18:58:55.1011787,-0.853053,-0.000382,-0.000378,-2.893213,-0.000388,2.891699,-0.067572,0.02000000000000,0.020000
2024-07-16 18:58:55.1020329,2024-07-16 18:58:55.1021267,-0.853053,-0.000384,-0.000380,-2.893216,-0.000391,2.891698,-0.067570,0.02000000000000,0.020000
2024-07-16 18:58:55.1030292,2024-07-16 18:58:55.1031222,-0.853048,-0.000384,-0.000380,-2.893213,-0.000391,2.891697,-0.067566,0.02000000000000,0.020000
2024-07-16 18:58:55.1040801,2024-07-16 18:58:55.1042246,-0.853056,-0.000382,-0.000378,-2.893208,-0.000389,2.891697,-0.067569,0.02000000000000,0.020000
2024-07-16 18:58:55.1060479,2024-07-16 18:58:55.1061461,-0.853051,-0.000382,-0.000375,-2.893213,-0.000391,2.891698,-0.067570,0.02000000000000,0.020000
2024-07-16 18:58:55.1069415,2024-07-16 18:58:55.1070396,-0.853053,-0.000384,-0.000375,-2.893211,-0.000388,2.891699,-0.067567,0.02000000000000,0.020000
2024-07-16 18:58:55.1080827,2024-07-16 18:58:55.1081718,-0.853053,-0.000390,-0.000380,-2.893213,-0.000388,2.891698,-0.067567,0.02000000000000,0.020000
2024-07-16 18:58:55.1090944,2024-07-16 18:58:55.1092310,-0.853055,-0.000390,-0.000375,-2.893218,-0.000388,2.891699,-0.067570,0.02000000000000,0.020000
2024-07-16 18:58:55.1100428,2024-07-16 18:58:55.1101412,-0.853048,-0.000387,-0.000378,-2.893216,-0.000389,2.891699,-0.067568,0.02000000000000,0.020000
2024-07-16 18:58:55.1110289,2024-07-16 18:58:55.1111121,-0.853053,-0.000382,-0.000378,-2.893213,-0.000388,2.891700,-0.067567,0.02000000000000,0.020000
2024-07-16 18:58:55.1120333,2024-07-16 18:58:55.1121321,-0.853054,-0.000382,-0.000378,-2.893213,-0.000388,2.891699,-0.067567,0.02000000000000,0.020000
2024-07-16 18:58:55.1130494,2024-07-16 18:58:55.1131874,-0.853053,-0.000382,-0.000378,-2.893211,-0.000389,2.891698,-0.067570,0.02000000000000,0.020000
2024-07-16 18:58:55.1140406,2024-07-16 18:58:55.1141850,-0.853052,-0.000379,-0.000378,-2.893213,-0.000389,2.891699,-0.067570,0.02000000000000,0.020000
2024-07-16 18:58:55.1150450,2024-07-16 18:58:55.1152523,-0.853059,-0.000382,-0.000380,-2.893213,-0.000392,2.891698,-0.067570,0.02000000000000,0.020000
2024-07-16 18:58:55.1160392,2024-07-16 18:58:55.1161876,-0.853053,-0.000390,-0.000375,-2.893211,-0.000392,2.891698,-0.067568,0.02000000000000,0.020000
2024-07-16 18:58:55.1206112,2024-07-16 18:58:55.1207392,-0.853053,-0.000384,-0.000378,-2.893216,-0.000390,2.891697,-0.067570,0.02000000000000,0.020000
2024-07-16 18:58:55.1307326,2024-07-16 18:58:55.1308676,-0.853055,-0.000384,-0.000378,-2.893213,-0.000391,2.891698,-0.067572,0.02000000000000,0.020000
2024-07-16 18:58:55.1408600,2024-07-16 18:58:55.1410660,-0.853052,-0.000379,-0.000373,-2.893216,-0.000392,2.891697,-0.067569,0.02000000000000,0.020000
2024-07-16 18:58:55.1510031,2024-07-16 18:58:55.1511627,-0.853054,-0.000379,-0.000383,-2.893216,-0.000394,2.891697,-0.067569,0.02000000000000,0.020000
2024-07-16 18:58:55.1822106,2024-07-16 18:58:55.1823151,-0.853053,-0.000384,-0.000378,-2.893216,-0.000395,2.891698,-0.067570,0.02000000000000,0.020000
2024-07-16 18:58:55.1830320,2024-07-16 18:58:55.1831789,-0.853052,-0.000384,-0.000378,-2.893216,-0.000389,2.891700,-0.067570,0.02000000000000,0.020000
2024-07-16 18:58:55.1840247,2024-07-16 18:58:55.1841594,-0.853053,-0.000382,-0.000380,-2.893211,-0.000388,2.891699,-0.067568,0.02000000000000,0.020000
2024-07-16 18:58:55.1904685,2024-07-16 18:58:55.1905925,-0.853051,-0.000387,-0.000378,-2.893218,-0.000389,2.891699,-0.067570,0.02000000000000,0.020000
2024-07-16 18:58:55.2006074,2024-07-16 18:58:55.2007590,-0.853055,-0.000379,-0.000378,-2.893211,-0.000389,2.891698,-0.067569,0.02000000000000,0.020000
2024-07-16 18:58:55.2107154,2024-07-16 18:58:55.2108467,-0.853055,-0.000387,-0.000380,-2.893216,-0.000392,2.891699,-0.067570,0.02000000000000,0.020000
2024-07-16 18:58:55.2208273,2024-07-16 18:58:55.2209638,-0.853051,-0.000392,-0.000380,-2.893213,-0.000392,2.891700,-0.067568,0.02000000000000,0.020000
2024-07-16 18:58:55.2542234,2024-07-16 18:58:55.2543992,-0.853048,-0.000384,-0.000380,-2.893216,-0.000389,2.891697,-0.067570,0.02000000000000,0.020000
2024-07-16 18:58:55.2550516,2024-07-16 18:58:55.2551953,-0.853053,-0.000387,-0.000375,-2.893216,-0.000392,2.891701,-0.067567,0.02000000000000,0.020000
2024-07-16 18:58:55.2560443,2024-07-16 18:58:55.2561842,-0.853053,-0.000388,-0.000378,-2.893211,-0.000390,2.891699,-0.067566,0.02000000000000,0.020000
2024-07-16 18:58:55.2583116,2024-07-16 18:58:55.2584412,-0.853051,-0.000382,-0.000378,-2.893213,-0.000390,2.891695,-0.067573,0.02000000000000,0.020000
2024-07-16 18:58:55.2705341,2024-07-16 18:58:55.2706614,-0.853055,-0.000383,-0.000380,-2.893216,-0.000388,2.891701,-0.067571,0.02000000000000,0.020000
2024-07-16 18:58:55.2806933,2024-07-16 18:58:55.2808325,-0.853056,-0.000384,-0.000375,-2.893213,-0.000389,2.891699,-0.067568,0.02000000000000,0.020000
2024-07-16 18:58:55.2908480,2024-07-16 18:58:55.2909852,-0.853050,-0.000390,-0.000375,-2.893213,-0.000390,2.891700,-0.067570,0.02000000000000,0.020000
2024-07-16 18:58:55.3011177,2024-07-16 18:58:55.3012548,-0.853056,-0.000390,-0.000375,-2.893213,-0.000388,2.891700,-0.067567,0.02000000000000,0.020000
2024-07-16 18:58:55.3342437,2024-07-16 18:58:55.3343885,-0.853055,-0.000390,-0.000378,-2.893216,-0.000387,2.891696,-0.067565,0.02000000000000,0.020000
2024-07-16 18:58:55.3351548,2024-07-16 18:58:55.3367984,-0.853050,-0.000400,-0.000375,-2.893211,-0.000388,2.891701,-0.067568,0.02000000000000,0.020000
2024-07-16 18:58:55.3367491,2024-07-16 18:58:55.3368999,-0.853050,-0.000400,-0.000375,-2.893211,-0.000388,2.891701,-0.067568,0.02000000000000,0.020000
2024-07-16 18:58:55.3408059,2024-07-16 18:58:55.3409400,-0.853050,-0.000395,-0.000378,-2.893215,-0.000387,2.891698,-0.067566,0.02000000000000,0.020000
2024-07-16 18:58:55.3509628,2024-07-16 18:58:55.3510969,-0.853052,-0.000393,-0.000378,-2.893217,-0.000388,2.891700,-0.067566,0.02000000000000,0.020000
2024-07-16 18:58:55.3611471,2024-07-16 18:58:55.3612978,-0.853056,-0.000397,-0.000375,-2.893216,-0.000390,2.891698,-0.067569,0.02000000000000,0.020000
2024-07-16 18:58:55.3712773,2024-07-16 18:58:55.3714120,-0.853050,-0.000404,-0.000378,-2.893213,-0.000389,2.891699,-0.067569,0.02000000000000,0.020000
2024-07-16 18:58:55.3783603,2024-07-16 18:58:55.3784995,-0.853048,-0.000403,-0.000378,-2.893213,-0.000389,2.891700,-0.067570,0.02000000000000,0.020000
2024-07-16 18:58:55.4142474,2024-07-16 18:58:55.4143920,-0.853048,-0.000412,-0.000376,-2.893211,-0.000389,2.891698,-0.067566,0.02000000000000,0.020000
2024-07-16 18:58:55.4150214,2024-07-16 18:58:55.4151637,-0.853053,-0.000557,-0.000378,-2.893213,-0.000388,2.891668,-0.067570,0.02000000000000,0.020000
2024-07-16 18:58:55.4160647,2024-07-16 18:58:55.4162058,-0.853053,-0.000562,-0.000375,-2.893211,-0.000393,2.891669,-0.067567,0.02000000000000,0.020000
2024-07-16 18:58:55.4212541,2024-07-16 18:58:55.4213906,-0.853053,-0.000573,-0.000378,-2.893216,-0.000391,2.891667,-0.067567,0.02000000000000,0.020000
2024-07-16 18:58:55.4307159,2024-07-16 18:58:55.4308516,-0.853053,-0.000583,-0.000378,-2.893216,-0.000388,2.891666,-0.067570,0.02000000000000,0.020000
2024-07-16 18:58:55.4409653,2024-07-16 18:58:55.4410995,-0.853053,-0.000612,-0.000378,-2.893216,-0.000388,2.891657,-0.067575,0.02000000000000,0.020000
2024-07-16 18:58:55.4512226,2024-07-16 18:58:55.4514422,-0.853056,-0.000672,-0.000378,-2.893219,-0.000388,2.891624,-0.067572,0.02000000000000,0.020000
2024-07-16 18:58:55.4583524,2024-07-16 18:58:55.4584519,-0.853055,-0.000766,-0.000380,-2.893214,-0.000387,2.891538,-0.067566,0.02000000000000,0.020000
2024-07-16 18:58:55.4705614,2024-07-16 18:58:55.4706430,-0.853050,-0.000868,-0.000375,-2.893211,-0.000386,2.891476,-0.067571,0.02000000000000,0.020000
2024-07-16 18:58:55.4806740,2024-07-16 18:58:55.4807873,-0.853055,-0.000930,-0.000380,-2.893219,-0.000391,2.891453,-0.067567,0.02000000000000,0.020000
2024-07-16 18:58:55.4907903,2024-07-16 18:58:55.4908720,-0.853056,-0.001040,-0.000375,-2.893214,-0.000389,2.891387,-0.067571,0.02000000000000,0.020000
2024-07-16 18:58:55.5009110,2024-07-16 18:58:55.5009970,-0.853048,-0.001121,-0.000378,-2.893211,-0.000391,2.891309,-0.067565,0.02000000000000,0.020000
2024-07-16 18:58:55.5341955,2024-07-16 18:58:55.5342837,-0.853053,-0.001214,-0.000380,-2.893214,-0.000388,2.891227,-0.067569,0.02000000000000,0.020000
2024-07-16 18:58:55.5350448,2024-07-16 18:58:55.5351942,-0.853056,-0.001642,-0.000373,-2.893217,-0.000389,2.890836,-0.067569,0.02000000000000,0.020000
2024-07-16 18:58:55.5360541,2024-07-16 18:58:55.5361971,-0.853056,-0.001662,-0.000378,-2.893214,-0.000387,2.890831,-0.067572,0.02000000000000,0.020000
2024-07-16 18:58:55.5403298,2024-07-16 18:58:55.5404636,-0.853054,-0.001664,-0.000375,-2.893214,-0.000385,2.890822,-0.067572,0.02000000000000,0.020000
2024-07-16 18:58:55.5505054,2024-07-16 18:58:55.5506375,-0.853050,-0.001684,-0.000375,-2.893212,-0.000387,2.890810,-0.067568,0.02000000000000,0.020000
2024-07-16 18:58:55.5606598,2024-07-16 18:58:55.5608275,-0.853054,-0.001706,-0.000378,-2.893212,-0.000389,2.890777,-0.067571,0.02000000000000,0.020000
2024-07-16 18:58:55.5707660,2024-07-16 18:58:55.5708771,-0.853053,-0.001823,-0.000378,-2.893212,-0.000388,2.890677,-0.067569,0.02000000000000,0.020000
2024-07-16 18:58:55.6022167,2024-07-16 18:58:55.6023574,-0.853050,-0.001940,-0.000378,-2.893212,-0.000389,2.890562,-0.067570,0.02000000000000,0.020000
2024-07-16 18:58:55.6030917,2024-07-16 18:58:55.6031880,-0.853053,-0.002597,-0.000373,-2.893230,-0.000388,2.889999,-0.067572,0.02000000000000,0.020000
2024-07-16 18:58:55.6040396,2024-07-16 18:58:55.6041789,-0.853056,-0.002619,-0.000378,-2.893230,-0.000387,2.889985,-0.067569,0.02000000000000,0.020000
2024-07-16 18:58:55.6112612,2024-07-16 18:58:55.6113957,-0.853053,-0.002631,-0.000380,-2.893226,-0.000388,2.889967,-0.067571,0.02000000000000,0.020000
2024-07-16 18:58:55.6183241,2024-07-16 18:58:55.6184573,-0.853053,-0.002653,-0.000380,-2.893228,-0.000388,2.889950,-0.067573,0.02000000000000,0.020000
2024-07-16 18:58:55.6305599,2024-07-16 18:58:55.6306988,-0.853059,-0.002777,-0.000375,-2.893231,-0.000388,2.889853,-0.067567,0.02000000000000,0.020000
2024-07-16 18:58:55.6406741,2024-07-16 18:58:55.6408124,-0.853052,-0.002924,-0.000375,-2.893234,-0.000390,2.889727,-0.067567,0.02000000000000,0.020000
2024-07-16 18:58:55.6508061,2024-07-16 18:58:55.6509502,-0.853054,-0.003210,-0.000375,-2.893237,-0.000388,2.889493,-0.067566,0.02000000000000,0.020000
2024-07-16 18:58:55.6609160,2024-07-16 18:58:55.6610610,-0.853060,-0.003472,-0.000375,-2.893238,-0.000387,2.889303,-0.067567,0.02000000000000,0.020000
2024-07-16 18:58:55.6942106,2024-07-16 18:58:55.6943168,-0.853051,-0.003739,-0.000378,-2.893244,-0.000388,2.889091,-0.067569,0.02000000000000,0.020000
2024-07-16 18:58:55.6949741,2024-07-16 18:58:55.6950739,-0.853056,-0.005051,-0.000375,-2.893281,-0.000389,2.888023,-0.067567,0.02000000000000,0.020000
2024-07-16 18:58:55.6960102,2024-07-16 18:58:55.6962156,-0.853054,-0.005083,-0.000373,-2.893280,-0.000389,2.887993,-0.067572,0.02000000000000,0.020000
2024-07-16 18:58:55.7003284,2024-07-16 18:58:55.7004628,-0.853050,-0.005115,-0.000375,-2.893287,-0.000388,2.887965,-0.067567,0.02000000000000,0.020000
2024-07-16 18:58:55.7104436,2024-07-16 18:58:55.7105796,-0.853050,-0.005149,-0.000379,-2.893290,-0.000389,2.887934,-0.067570,0.02000000000000,0.020000
2024-07-16 18:58:55.7205860,2024-07-16 18:58:55.7207231,-0.853050,-0.005248,-0.000378,-2.893291,-0.000384,2.887851,-0.067568,0.02000000000000,0.020000
2024-07-16 18:58:55.7307375,2024-07-16 18:58:55.7308995,-0.853054,-0.005573,-0.000375,-2.893326,-0.000389,2.887560,-0.067569,0.02000000000000,0.020000
2024-07-16 18:58:55.7622616,2024-07-16 18:58:55.7623869,-0.853050,-0.005901,-0.000378,-2.893359,-0.000389,2.887268,-0.067567,0.02000000000000,0.020000
2024-07-16 18:58:55.7630087,2024-07-16 18:58:55.7631201,-0.853053,-0.007443,-0.000377,-2.893550,-0.000386,2.885770,-0.067567,0.02000000000000,0.020000
2024-07-16 18:58:55.7640120,2024-07-16 18:58:55.7641730,-0.853053,-0.007488,-0.000375,-2.893559,-0.000389,2.885733,-0.067570,0.02000000000000,0.020000
2024-07-16 18:58:55.7703086,2024-07-16 18:58:55.7704472,-0.853053,-0.007526,-0.000375,-2.893568,-0.000385,2.885694,-0.067573,0.02000000000000,0.020000
2024-07-16 18:58:55.7804209,2024-07-16 18:58:55.7805493,-0.853053,-0.007582,-0.000380,-2.893575,-0.000387,2.885653,-0.067570,0.02000000000000,0.020000
2024-07-16 18:58:55.7905567,2024-07-16 18:58:55.7907002,-0.853050,-0.007795,-0.000378,-2.893598,-0.000389,2.885455,-0.067565,0.02000000000000,0.020000
2024-07-16 18:58:55.8342469,2024-07-16 18:58:55.8343576,-0.853053,-0.008709,-0.000378,-2.893727,-0.000387,2.884645,-0.067565,0.02000000000000,0.020000
2024-07-16 18:58:55.8350000,2024-07-16 18:58:55.8351628,-0.853050,-0.010968,-0.000373,-2.893919,-0.000390,2.882570,-0.067567,0.02000000000000,0.020000
2024-07-16 18:58:55.8360038,2024-07-16 18:58:55.8361989,-0.853056,-0.011022,-0.000374,-2.893926,-0.000388,2.882521,-0.067570,0.02000000000000,0.020000
2024-07-16 18:58:55.8411621,2024-07-16 18:58:55.8412995,-0.853048,-0.011090,-0.000377,-2.893929,-0.000389,2.882475,-0.067568,0.02000000000000,0.020000
2024-07-16 18:58:55.8502111,2024-07-16 18:58:55.8503489,-0.853053,-0.011132,-0.000373,-2.893937,-0.000391,2.882426,-0.067567,0.02000000000000,0.020000
2024-07-16 18:58:55.8603360,2024-07-16 18:58:55.8604795,-0.853050,-0.011367,-0.000375,-2.893947,-0.000387,2.882223,-0.067568,0.02000000000000,0.020000
2024-07-16 18:58:55.8704656,2024-07-16 18:58:55.8706190,-0.853048,-0.011889,-0.000377,-2.893986,-0.000391,2.881723,-0.067567,0.02000000000000,0.020000
2024-07-16 18:58:55.8805726,2024-07-16 18:58:55.8807066,-0.853059,-0.012497,-0.000375,-2.894036,-0.000388,2.881157,-0.067571,0.02000000000000,0.020000
2024-07-16 18:58:55.9142472,2024-07-16 18:58:55.9144017,-0.853053,-0.013138,-0.000375,-2.894090,-0.000388,2.880590,-0.067570,0.02000000000000,0.020000
2024-07-16 18:58:55.9150135,2024-07-16 18:58:55.9151216,-0.853053,-0.016161,-0.000371,-2.894391,-0.000387,2.877846,-0.067574,0.02000000000000,0.020000
2024-07-16 18:58:55.9160315,2024-07-16 18:58:55.9161703,-0.853051,-0.016238,-0.000370,-2.894400,-0.000388,2.877779,-0.067572,0.02000000000000,0.020000
2024-07-16 18:58:55.9211006,2024-07-16 18:58:55.9212514,-0.853048,-0.016314,-0.000374,-2.894404,-0.000385,2.877709,-0.067572,0.02000000000000,0.020000
2024-07-16 18:58:55.9312231,2024-07-16 18:58:55.9313256,-0.853055,-0.016398,-0.000375,-2.894415,-0.000388,2.877647,-0.067567,0.02000000000000,0.020000
2024-07-16 18:58:55.9382790,2024-07-16 18:58:55.9383672,-0.853051,-0.016686,-0.000369,-2.894442,-0.000389,2.877395,-0.067567,0.02000000000000,0.020000
2024-07-16 18:58:55.9506246,2024-07-16 18:58:55.9507301,-0.853056,-0.017463,-0.000380,-2.894525,-0.000387,2.876693,-0.067567,0.02000000000000,0.020000
2024-07-16 18:58:55.9607829,2024-07-16 18:58:55.9608760,-0.853053,-0.018019,-0.000378,-2.894577,-0.000389,2.876204,-0.067569,0.02000000000000,0.020000
2024-07-16 18:58:55.9709219,2024-07-16 18:58:55.9710341,-0.853053,-0.018996,-0.000380,-2.894668,-0.000388,2.875300,-0.067570,0.02000000000000,0.020000
2024-07-16 18:58:55.9810326,2024-07-16 18:58:55.9811223,-0.853061,-0.019821,-0.000375,-2.894735,-0.000385,2.874582,-0.067568,0.02000000000000,0.020000
2024-07-16 18:58:55.9911635,2024-07-16 18:58:55.9912717,-0.853053,-0.020671,-0.000370,-2.894805,-0.000387,2.873791,-0.067568,0.02000000000000,0.020000
2024-07-16 18:58:55.9982000,2024-07-16 18:58:55.9982923,-0.853052,-0.021644,-0.000369,-2.894878,-0.000387,2.872879,-0.067569,0.02000000000000,0.020000
2024-07-16 18:58:56.0104556,2024-07-16 18:58:56.0105771,-0.853054,-0.022556,-0.000372,-2.894951,-0.000386,2.872051,-0.067569,0.02000000000000,0.020000
2024-07-16 18:58:56.0205632,2024-07-16 18:58:56.0206386,-0.853054,-0.023209,-0.000374,-2.895004,-0.000389,2.871439,-0.067566,0.02000000000000,0.020000
2024-07-16 18:58:56.0307064,2024-07-16 18:58:56.0308364,-0.853059,-0.024357,-0.000383,-2.895099,-0.000384,2.870392,-0.067569,0.02000000000000,0.020000
2024-07-16 18:58:56.0408219,2024-07-16 18:58:56.0409256,-0.853056,-0.025340,-0.000378,-2.895182,-0.000384,2.869507,-0.067565,0.02000000000000,0.020000
2024-07-16 18:58:56.0742021,2024-07-16 18:58:56.0743230,-0.853053,-0.026364,-0.000378,-2.895267,-0.000384,2.868572,-0.067575,0.02000000000000,0.020000
2024-07-16 18:58:56.0750018,2024-07-16 18:58:56.0751934,-0.853053,-0.031147,-0.000375,-2.895664,-0.000383,2.864220,-0.067567,0.02000000000000,0.020000
2024-07-16 18:58:56.0758504,2024-07-16 18:58:56.0760122,-0.853059,-0.031253,-0.000377,-2.895676,-0.000381,2.864120,-0.067567,0.02000000000000,0.020000
2024-07-16 18:58:56.0783136,2024-07-16 18:58:56.0784521,-0.853059,-0.031376,-0.000383,-2.895684,-0.000384,2.864023,-0.067567,0.02000000000000,0.020000
2024-07-16 18:58:56.0905785,2024-07-16 18:58:56.0907199,-0.853059,-0.031487,-0.000377,-2.895693,-0.000384,2.863926,-0.067575,0.02000000000000,0.020000
2024-07-16 18:58:56.1008558,2024-07-16 18:58:56.1009932,-0.853053,-0.031600,-0.000375,-2.895708,-0.000387,2.863828,-0.067568,0.02000000000000,0.020000
2024-07-16 18:58:56.1109812,2024-07-16 18:58:56.1111265,-0.853058,-0.032977,-0.000378,-2.895806,-0.000384,2.862566,-0.067567,0.02000000000000,0.020000
2024-07-16 18:58:56.1210835,2024-07-16 18:58:56.1212266,-0.853059,-0.034153,-0.000378,-2.895887,-0.000384,2.861461,-0.067567,0.02000000000000,0.020000
2024-07-16 18:58:56.1542205,2024-07-16 18:58:56.1543531,-0.853053,-0.035364,-0.000375,-2.895980,-0.000386,2.860323,-0.067568,0.02000000000000,0.020000
2024-07-16 18:58:56.1550353,2024-07-16 18:58:56.1551781,-0.853056,-0.040990,-0.000380,-2.896397,-0.000383,2.855046,-0.067572,0.02000000000000,0.020000
2024-07-16 18:58:56.1560364,2024-07-16 18:58:56.1561793,-0.853053,-0.041113,-0.000373,-2.896410,-0.000384,2.854919,-0.067569,0.02000000000000,0.020000
2024-07-16 18:58:56.1606653,2024-07-16 18:58:56.1607951,-0.853053,-0.041249,-0.000378,-2.896421,-0.000384,2.854785,-0.067569,0.02000000000000,0.020000
2024-07-16 18:58:56.1707866,2024-07-16 18:58:56.1709198,-0.853053,-0.041382,-0.000378,-2.896427,-0.000382,2.854650,-0.067572,0.02000000000000,0.020000
2024-07-16 18:58:56.1809067,2024-07-16 18:58:56.1810476,-0.853056,-0.041512,-0.000378,-2.896436,-0.000385,2.854511,-0.067571,0.02000000000000,0.020000
2024-07-16 18:58:56.1910688,2024-07-16 18:58:56.1912188,-0.853053,-0.043169,-0.000370,-2.896566,-0.000387,2.852974,-0.067568,0.02000000000000,0.020000
2024-07-16 18:58:56.2012195,2024-07-16 18:58:56.2013627,-0.853056,-0.044594,-0.000374,-2.896660,-0.000384,2.851660,-0.067571,0.02000000000000,0.020000
2024-07-16 18:58:56.2103502,2024-07-16 18:58:56.2105013,-0.853053,-0.046160,-0.000373,-2.896770,-0.000387,2.850200,-0.067573,0.02000000000000,0.020000
2024-07-16 18:58:56.2205151,2024-07-16 18:58:56.2206653,-0.853059,-0.047658,-0.000372,-2.896866,-0.000384,2.848829,-0.067569,0.02000000000000,0.020000
2024-07-16 18:58:56.2306529,2024-07-16 18:58:56.2308086,-0.853051,-0.049030,-0.000374,-2.896955,-0.000386,2.847577,-0.067568,0.02000000000000,0.020000
2024-07-16 18:58:56.2407731,2024-07-16 18:58:56.2408825,-0.853059,-0.050559,-0.000373,-2.897043,-0.000385,2.846152,-0.067568,0.02000000000000,0.020000
2024-07-16 18:58:56.2742665,2024-07-16 18:58:56.2743730,-0.853051,-0.052136,-0.000373,-2.897137,-0.000388,2.844703,-0.067572,0.02000000000000,0.020000
2024-07-16 18:58:56.2749837,2024-07-16 18:58:56.2750824,-0.853051,-0.059332,-0.000373,-2.897559,-0.000386,2.838028,-0.067574,0.02000000000000,0.020000
2024-07-16 18:58:56.2759874,2024-07-16 18:58:56.2761317,-0.853059,-0.059510,-0.000370,-2.897570,-0.000385,2.837883,-0.067572,0.02000000000000,0.020000
2024-07-16 18:58:56.2782102,2024-07-16 18:58:56.2783385,-0.853056,-0.059664,-0.000374,-2.897581,-0.000385,2.837729,-0.067567,0.02000000000000,0.020000
2024-07-16 18:58:56.2904443,2024-07-16 18:58:56.2905840,-0.853053,-0.059838,-0.000372,-2.897590,-0.000387,2.837562,-0.067569,0.02000000000000,0.020000
2024-07-16 18:58:56.3005731,2024-07-16 18:58:56.3006760,-0.853053,-0.060007,-0.000370,-2.897603,-0.000386,2.837397,-0.067572,0.02000000000000,0.020000
2024-07-16 18:58:56.3106894,2024-07-16 18:58:56.3107735,-0.853056,-0.062068,-0.000365,-2.897731,-0.000385,2.835504,-0.067569,0.02000000000000,0.020000
2024-07-16 18:58:56.3208007,2024-07-16 18:58:56.3208831,-0.853056,-0.063770,-0.000370,-2.897821,-0.000386,2.833852,-0.067573,0.02000000000000,0.020000
2024-07-16 18:58:56.3542191,2024-07-16 18:58:56.3543763,-0.853051,-0.065530,-0.000372,-2.897920,-0.000386,2.832137,-0.067566,0.02000000000000,0.020000
2024-07-16 18:58:56.3549498,2024-07-16 18:58:56.3550435,-0.853061,-0.073514,-0.000376,-2.898372,-0.000385,2.824485,-0.067569,0.02000000000000,0.020000
2024-07-16 18:58:56.3559875,2024-07-16 18:58:56.3561302,-0.853059,-0.073719,-0.000378,-2.898384,-0.000381,2.824324,-0.067567,0.02000000000000,0.020000
2024-07-16 18:58:56.3582067,2024-07-16 18:58:56.3583364,-0.853059,-0.073913,-0.000378,-2.898397,-0.000382,2.824152,-0.067564,0.02000000000000,0.020000
2024-07-16 18:58:56.3704393,2024-07-16 18:58:56.3705805,-0.853059,-0.074102,-0.000375,-2.898412,-0.000384,2.823972,-0.067567,0.02000000000000,0.020000
2024-07-16 18:58:56.3805650,2024-07-16 18:58:56.3807081,-0.853053,-0.074305,-0.000375,-2.898424,-0.000386,2.823783,-0.067571,0.02000000000000,0.020000
2024-07-16 18:58:56.3907168,2024-07-16 18:58:56.3908600,-0.853057,-0.076415,-0.000373,-2.898527,-0.000384,2.821825,-0.067566,0.02000000000000,0.020000
2024-07-16 18:58:56.4008414,2024-07-16 18:58:56.4010100,-0.853053,-0.078585,-0.000370,-2.898627,-0.000384,2.819775,-0.067573,0.02000000000000,0.020000
2024-07-16 18:58:56.4342194,2024-07-16 18:58:56.4343594,-0.853056,-0.080575,-0.000370,-2.898709,-0.000383,2.817927,-0.067568,0.02000000000000,0.020000
2024-07-16 18:58:56.4349789,2024-07-16 18:58:56.4350843,-0.853053,-0.089589,-0.000370,-2.899101,-0.000387,2.809277,-0.067574,0.02000000000000,0.020000
2024-07-16 18:58:56.4360000,2024-07-16 18:58:56.4361459,-0.853056,-0.089794,-0.000373,-2.899108,-0.000384,2.809069,-0.067569,0.02000000000000,0.020000
2024-07-16 18:58:56.4382800,2024-07-16 18:58:56.4384140,-0.853053,-0.089997,-0.000373,-2.899118,-0.000385,2.808864,-0.067568,0.02000000000000,0.020000
2024-07-16 18:58:56.4505257,2024-07-16 18:58:56.4506792,-0.853051,-0.090210,-0.000367,-2.899125,-0.000388,2.808669,-0.067567,0.02000000000000,0.020000
2024-07-16 18:58:56.4606417,2024-07-16 18:58:56.4607927,-0.853053,-0.090422,-0.000365,-2.899136,-0.000390,2.808471,-0.067572,0.02000000000000,0.020000
2024-07-16 18:58:56.4707572,2024-07-16 18:58:56.4708947,-0.853051,-0.092928,-0.000369,-2.899247,-0.000386,2.806040,-0.067571,0.02000000000000,0.020000
2024-07-16 18:58:56.4808776,2024-07-16 18:58:56.4810136,-0.853059,-0.095031,-0.000367,-2.899351,-0.000387,2.804002,-0.067572,0.02000000000000,0.020000
2024-07-16 18:58:56.4910011,2024-07-16 18:58:56.4911427,-0.853056,-0.097171,-0.000374,-2.899445,-0.000386,2.801914,-0.067567,0.02000000000000,0.020000
2024-07-16 18:58:56.5011253,2024-07-16 18:58:56.5012629,-0.853053,-0.099556,-0.000372,-2.899530,-0.000388,2.799564,-0.067572,0.02000000000000,0.020000
2024-07-16 18:58:56.5112376,2024-07-16 18:58:56.5113700,-0.853057,-0.101789,-0.000373,-2.899614,-0.000385,2.797446,-0.067567,0.02000000000000,0.020000
2024-07-16 18:58:56.5422092,2024-07-16 18:58:56.5423171,-0.853054,-0.104026,-0.000378,-2.899695,-0.000386,2.795306,-0.067570,0.02000000000000,0.020000
2024-07-16 18:58:56.5430011,2024-07-16 18:58:56.5431083,-0.853053,-0.113512,-0.000370,-2.899900,-0.000386,2.786187,-0.067566,0.02000000000000,0.020000
2024-07-16 18:58:56.5439801,2024-07-16 18:58:56.5441220,-0.853056,-0.113739,-0.000367,-2.899902,-0.000386,2.785965,-0.067567,0.02000000000000,0.020000
2024-07-16 18:58:56.5507869,2024-07-16 18:58:56.5509175,-0.853056,-0.113971,-0.000365,-2.899900,-0.000388,2.785727,-0.067573,0.02000000000000,0.020000
2024-07-16 18:58:56.5609115,2024-07-16 18:58:56.5610577,-0.853058,-0.114200,-0.000367,-2.899903,-0.000383,2.785500,-0.067573,0.02000000000000,0.020000
2024-07-16 18:58:56.5710342,2024-07-16 18:58:56.5711762,-0.853053,-0.115369,-0.000373,-2.899924,-0.000383,2.784398,-0.067568,0.02000000000000,0.020000
2024-07-16 18:58:56.5811588,2024-07-16 18:58:56.5813079,-0.853056,-0.117701,-0.000367,-2.899948,-0.000385,2.782130,-0.067569,0.02000000000000,0.020000
2024-07-16 18:58:56.5902178,2024-07-16 18:58:56.5903572,-0.853053,-0.120253,-0.000372,-2.899958,-0.000389,2.779550,-0.067569,0.02000000000000,0.020000
2024-07-16 18:58:56.6104371,2024-07-16 18:58:56.6105516,-0.853058,-0.124732,-0.000370,-2.900021,-0.000386,2.775072,-0.067574,0.02000000000000,0.020000
2024-07-16 18:58:56.6205452,2024-07-16 18:58:56.6206449,-0.853052,-0.127154,-0.000372,-2.900044,-0.000387,2.772710,-0.067570,0.02000000000000,0.020000
2024-07-16 18:58:56.6542053,2024-07-16 18:58:56.6543229,-0.853056,-0.129592,-0.000370,-2.900072,-0.000384,2.770294,-0.067573,0.02000000000000,0.020000
2024-07-16 18:58:56.6549995,2024-07-16 18:58:56.6551087,-0.853056,-0.140577,-0.000363,-2.900106,-0.000384,2.759550,-0.067570,0.02000000000000,0.020000
2024-07-16 18:58:56.6560044,2024-07-16 18:58:56.6561055,-0.853056,-0.140824,-0.000364,-2.900106,-0.000385,2.759311,-0.067574,0.02000000000000,0.020000
2024-07-16 18:58:56.6610252,2024-07-16 18:58:56.6611251,-0.853058,-0.141079,-0.000357,-2.900104,-0.000385,2.759063,-0.067574,0.02000000000000,0.020000
2024-07-16 18:58:56.6711286,2024-07-16 18:58:56.6712125,-0.853059,-0.141326,-0.000363,-2.900104,-0.000384,2.758804,-0.067571,0.02000000000000,0.020000
2024-07-16 18:58:56.6812518,2024-07-16 18:58:56.6813573,-0.853053,-0.142070,-0.000362,-2.900106,-0.000385,2.758077,-0.067572,0.02000000000000,0.020000
2024-07-16 18:58:56.6903021,2024-07-16 18:58:56.6903875,-0.853051,-0.144800,-0.000362,-2.900122,-0.000387,2.755318,-0.067567,0.02000000000000,0.020000
2024-07-16 18:58:56.7004329,2024-07-16 18:58:56.7005758,-0.853058,-0.147263,-0.000367,-2.900127,-0.000385,2.752753,-0.067573,0.02000000000000,0.020000
2024-07-16 18:58:56.7105461,2024-07-16 18:58:56.7106449,-0.853054,-0.149517,-0.000367,-2.900136,-0.000386,2.750453,-0.067569,0.02000000000000,0.020000
2024-07-16 18:58:56.7206490,2024-07-16 18:58:56.7207391,-0.853054,-0.152002,-0.000370,-2.900133,-0.000386,2.747883,-0.067572,0.02000000000000,0.020000
2024-07-16 18:58:56.7542144,2024-07-16 18:58:56.7543391,-0.853061,-0.154560,-0.000367,-2.900138,-0.000385,2.745322,-0.067567,0.02000000000000,0.020000
2024-07-16 18:58:56.7550339,2024-07-16 18:58:56.7551391,-0.853054,-0.166059,-0.000362,-2.900103,-0.000385,2.733949,-0.067570,0.02000000000000,0.020000
2024-07-16 18:58:56.7560763,2024-07-16 18:58:56.7561745,-0.853054,-0.166318,-0.000362,-2.900103,-0.000385,2.733687,-0.067570,0.02000000000000,0.020000
2024-07-16 18:58:56.7611406,2024-07-16 18:58:56.7612283,-0.853051,-0.166596,-0.000362,-2.900102,-0.000385,2.733426,-0.067571,0.02000000000000,0.020000
2024-07-16 18:58:56.7703664,2024-07-16 18:58:56.7704549,-0.853059,-0.166849,-0.000360,-2.900099,-0.000384,2.733158,-0.067574,0.02000000000000,0.020000
2024-07-16 18:58:56.7804763,2024-07-16 18:58:56.7805613,-0.853053,-0.167891,-0.000365,-2.900088,-0.000385,2.732086,-0.067570,0.02000000000000,0.020000
2024-07-16 18:58:56.7906117,2024-07-16 18:58:56.7907240,-0.853053,-0.170226,-0.000361,-2.900067,-0.000385,2.729662,-0.067567,0.02000000000000,0.020000
2024-07-16 18:58:56.8007154,2024-07-16 18:58:56.8008161,-0.853053,-0.172794,-0.000359,-2.900032,-0.000386,2.726979,-0.067570,0.02000000000000,0.020000
2024-07-16 18:58:56.8342050,2024-07-16 18:58:56.8343270,-0.853051,-0.175374,-0.000360,-2.900013,-0.000387,2.724333,-0.067572,0.02000000000000,0.020000
2024-07-16 18:58:56.8349682,2024-07-16 18:58:56.8350693,-0.853062,-0.186823,-0.000370,-2.899775,-0.000386,2.712466,-0.067564,0.02000000000000,0.020000
2024-07-16 18:58:56.8359693,2024-07-16 18:58:56.8360710,-0.853062,-0.187090,-0.000370,-2.899766,-0.000386,2.712178,-0.067571,0.02000000000000,0.020000
2024-07-16 18:58:56.8411904,2024-07-16 18:58:56.8412751,-0.853057,-0.187353,-0.000363,-2.899752,-0.000387,2.711903,-0.067571,0.02000000000000,0.020000
2024-07-16 18:58:56.8502598,2024-07-16 18:58:56.8503650,-0.853057,-0.187629,-0.000362,-2.899741,-0.000386,2.711630,-0.067566,0.02000000000000,0.020000
2024-07-16 18:58:56.8603654,2024-07-16 18:58:56.8604502,-0.853056,-0.188694,-0.000357,-2.899700,-0.000390,2.710525,-0.067567,0.02000000000000,0.020000
2024-07-16 18:58:56.8704854,2024-07-16 18:58:56.8705879,-0.853053,-0.191056,-0.000354,-2.899612,-0.000387,2.708079,-0.067568,0.02000000000000,0.020000
2024-07-16 18:58:56.8806045,2024-07-16 18:58:56.8807077,-0.853051,-0.193718,-0.000356,-2.899508,-0.000388,2.705420,-0.067572,0.02000000000000,0.020000
2024-07-16 18:58:56.9142121,2024-07-16 18:58:56.9143263,-0.853051,-0.196324,-0.000354,-2.899397,-0.000387,2.702731,-0.067570,0.02000000000000,0.020000
2024-07-16 18:58:56.9149658,2024-07-16 18:58:56.9150793,-0.853062,-0.207766,-0.000368,-2.898948,-0.000389,2.690548,-0.067570,0.02000000000000,0.020000
2024-07-16 18:58:56.9159611,2024-07-16 18:58:56.9160618,-0.853059,-0.208019,-0.000370,-2.898930,-0.000390,2.690270,-0.067572,0.02000000000000,0.020000
2024-07-16 18:58:56.9210750,2024-07-16 18:58:56.9211744,-0.853059,-0.208288,-0.000368,-2.898922,-0.000388,2.689991,-0.067567,0.02000000000000,0.020000
2024-07-16 18:58:56.9312068,2024-07-16 18:58:56.9313242,-0.853059,-0.208540,-0.000368,-2.898912,-0.000387,2.689716,-0.067569,0.02000000000000,0.020000
2024-07-16 18:58:56.9382657,2024-07-16 18:58:56.9383716,-0.853062,-0.209608,-0.000370,-2.898865,-0.000384,2.688608,-0.067569,0.02000000000000,0.020000
2024-07-16 18:58:56.9504732,2024-07-16 18:58:56.9505612,-0.853057,-0.212249,-0.000364,-2.898748,-0.000390,2.685883,-0.067572,0.02000000000000,0.020000
2024-07-16 18:58:56.9605926,2024-07-16 18:58:56.9606858,-0.853057,-0.214109,-0.000357,-2.898660,-0.000385,2.683993,-0.067565,0.02000000000000,0.020000
2024-07-16 18:58:56.9707110,2024-07-16 18:58:56.9708141,-0.853058,-0.217272,-0.000355,-2.898480,-0.000389,2.680708,-0.067570,0.02000000000000,0.020000
2024-07-16 18:58:56.9808226,2024-07-16 18:58:56.9809206,-0.853046,-0.219893,-0.000356,-2.898331,-0.000389,2.677979,-0.067572,0.02000000000000,0.020000
2024-07-16 18:58:57.0142083,2024-07-16 18:58:57.0143269,-0.853056,-0.222466,-0.000359,-2.898176,-0.000390,2.675208,-0.067567,0.02000000000000,0.020000
2024-07-16 18:58:57.0147675,2024-07-16 18:58:57.0148692,-0.853059,-0.233578,-0.000368,-2.897485,-0.000390,2.663104,-0.067570,0.02000000000000,0.020000
2024-07-16 18:58:57.0159160,2024-07-16 18:58:57.0160155,-0.853059,-0.233822,-0.000363,-2.897466,-0.000391,2.662823,-0.067571,0.02000000000000,0.020000
2024-07-16 18:58:57.0181986,2024-07-16 18:58:57.0182828,-0.853057,-0.234075,-0.000368,-2.897452,-0.000394,2.662551,-0.067572,0.02000000000000,0.020000
2024-07-16 18:58:57.0304302,2024-07-16 18:58:57.0305299,-0.853059,-0.234336,-0.000368,-2.897428,-0.000387,2.662289,-0.067568,0.02000000000000,0.020000
2024-07-16 18:58:57.0405494,2024-07-16 18:58:57.0406566,-0.853060,-0.234588,-0.000368,-2.897410,-0.000386,2.662006,-0.067568,0.02000000000000,0.020000
2024-07-16 18:58:57.0506592,2024-07-16 18:58:57.0507450,-0.853057,-0.237660,-0.000363,-2.897208,-0.000393,2.658752,-0.067573,0.02000000000000,0.020000
2024-07-16 18:58:57.0607689,2024-07-16 18:58:57.0608562,-0.853053,-0.240223,-0.000356,-2.896997,-0.000391,2.656030,-0.067569,0.02000000000000,0.020000
2024-07-16 18:58:57.0942026,2024-07-16 18:58:57.0943254,-0.853049,-0.242768,-0.000359,-2.896770,-0.000389,2.653266,-0.067570,0.02000000000000,0.020000
2024-07-16 18:58:57.0949492,2024-07-16 18:58:57.0950414,-0.853056,-0.253603,-0.000359,-2.895763,-0.000386,2.641392,-0.067569,0.02000000000000,0.020000
2024-07-16 18:58:57.0959593,2024-07-16 18:58:57.0960639,-0.853053,-0.253833,-0.000357,-2.895740,-0.000384,2.641116,-0.067567,0.02000000000000,0.020000
2024-07-16 18:58:57.1012434,2024-07-16 18:58:57.1013300,-0.853053,-0.254074,-0.000359,-2.895715,-0.000385,2.640839,-0.067566,0.02000000000000,0.020000
2024-07-16 18:58:57.1104754,2024-07-16 18:58:57.1105808,-0.853059,-0.254327,-0.000359,-2.895696,-0.000387,2.640575,-0.067573,0.02000000000000,0.020000
2024-07-16 18:58:57.1205856,2024-07-16 18:58:57.1206920,-0.853059,-0.255273,-0.000357,-2.895615,-0.000385,2.639504,-0.067573,0.02000000000000,0.020000
2024-07-16 18:58:57.1307116,2024-07-16 18:58:57.1315492,-0.853056,-0.257418,-0.000363,-2.895424,-0.000386,2.637105,-0.067569,0.02000000000000,0.020000
2024-07-16 18:58:57.1408217,2024-07-16 18:58:57.1409123,-0.853054,-0.259847,-0.000365,-2.895183,-0.000387,2.634425,-0.067565,0.02000000000000,0.020000
2024-07-16 18:58:57.1742047,2024-07-16 18:58:57.1743217,-0.853059,-0.262267,-0.000362,-2.894933,-0.000387,2.631753,-0.067569,0.02000000000000,0.020000
2024-07-16 18:58:57.1749773,2024-07-16 18:58:57.1750738,-0.853051,-0.272759,-0.000357,-2.893753,-0.000387,2.620265,-0.067571,0.02000000000000,0.020000
2024-07-16 18:58:57.1759756,2024-07-16 18:58:57.1760751,-0.853051,-0.272987,-0.000357,-2.893724,-0.000389,2.619997,-0.067571,0.02000000000000,0.020000
2024-07-16 18:58:57.1782059,2024-07-16 18:58:57.1783023,-0.853058,-0.273224,-0.000357,-2.893696,-0.000388,2.619743,-0.067574,0.02000000000000,0.020000
2024-07-16 18:58:57.1904400,2024-07-16 18:58:57.1905934,-0.853059,-0.273446,-0.000359,-2.893662,-0.000389,2.619497,-0.067570,0.02000000000000,0.020000
2024-07-16 18:58:57.2005469,2024-07-16 18:58:57.2006906,-0.853056,-0.273682,-0.000357,-2.893640,-0.000387,2.619242,-0.067571,0.02000000000000,0.020000
2024-07-16 18:58:57.2106811,2024-07-16 18:58:57.2108423,-0.853056,-0.276432,-0.000352,-2.893301,-0.000388,2.616159,-0.067568,0.02000000000000,0.020000
2024-07-16 18:58:57.2207808,2024-07-16 18:58:57.2209008,-0.853056,-0.278662,-0.000357,-2.893021,-0.000389,2.613583,-0.067572,0.02000000000000,0.020000
2024-07-16 18:58:57.2542144,2024-07-16 18:58:57.2543256,-0.853056,-0.280903,-0.000354,-2.892740,-0.000391,2.610990,-0.067566,0.02000000000000,0.020000
2024-07-16 18:58:57.2550314,2024-07-16 18:58:57.2551251,-0.853054,-0.290629,-0.000354,-2.891532,-0.000388,2.600023,-0.067570,0.02000000000000,0.020000
2024-07-16 18:58:57.2558146,2024-07-16 18:58:57.2559156,-0.853057,-0.290851,-0.000357,-2.891503,-0.000389,2.599785,-0.067568,0.02000000000000,0.020000
2024-07-16 18:58:57.2612394,2024-07-16 18:58:57.2613265,-0.853059,-0.291061,-0.000354,-2.891474,-0.000391,2.599541,-0.067570,0.02000000000000,0.020000
2024-07-16 18:58:57.2703000,2024-07-16 18:58:57.2703897,-0.853057,-0.291282,-0.000357,-2.891443,-0.000390,2.599281,-0.067569,0.02000000000000,0.020000
2024-07-16 18:58:57.2804147,2024-07-16 18:58:57.2804925,-0.853051,-0.292160,-0.000352,-2.891327,-0.000388,2.598311,-0.067572,0.02000000000000,0.020000
2024-07-16 18:58:57.2905384,2024-07-16 18:58:57.2906458,-0.853057,-0.294117,-0.000352,-2.891041,-0.000387,2.596102,-0.067569,0.02000000000000,0.020000
2024-07-16 18:58:57.3006715,2024-07-16 18:58:57.3007827,-0.853057,-0.296237,-0.000350,-2.890728,-0.000390,2.593664,-0.067568,0.02000000000000,0.020000
2024-07-16 18:58:57.3342111,2024-07-16 18:58:57.3343361,-0.853054,-0.298350,-0.000352,-2.890410,-0.000389,2.591258,-0.067570,0.02000000000000,0.020000
2024-07-16 18:58:57.3349512,2024-07-16 18:58:57.3350487,-0.853056,-0.307181,-0.000359,-2.889048,-0.000387,2.580923,-0.067571,0.02000000000000,0.020000
2024-07-16 18:58:57.3359454,2024-07-16 18:58:57.3360425,-0.853052,-0.307378,-0.000354,-2.889015,-0.000388,2.580686,-0.067568,0.02000000000000,0.020000
2024-07-16 18:58:57.3411532,2024-07-16 18:58:57.3412411,-0.853058,-0.307570,-0.000357,-2.888988,-0.000389,2.580464,-0.067568,0.02000000000000,0.020000
2024-07-16 18:58:57.3502036,2024-07-16 18:58:57.3502908,-0.853057,-0.307767,-0.000354,-2.888951,-0.000390,2.580242,-0.067567,0.02000000000000,0.020000
2024-07-16 18:58:57.3603409,2024-07-16 18:58:57.3604505,-0.853057,-0.308537,-0.000354,-2.888827,-0.000390,2.579313,-0.067569,0.02000000000000,0.020000
2024-07-16 18:58:57.3704522,2024-07-16 18:58:57.3705406,-0.853057,-0.310320,-0.000358,-2.888545,-0.000387,2.577254,-0.067568,0.02000000000000,0.020000
2024-07-16 18:58:57.3805862,2024-07-16 18:58:57.3806956,-0.853059,-0.312283,-0.000352,-2.888219,-0.000389,2.574967,-0.067569,0.02000000000000,0.020000
2024-07-16 18:58:57.3906830,2024-07-16 18:58:57.3907730,-0.853056,-0.314045,-0.000357,-2.887917,-0.000390,2.572936,-0.067567,0.02000000000000,0.020000
2024-07-16 18:58:57.4229469,2024-07-16 18:58:57.4230440,-0.853059,-0.323957,-0.000358,-2.886127,-0.000388,2.561572,-0.067571,0.02000000000000,0.020000
2024-07-16 18:58:57.4239401,2024-07-16 18:58:57.4240355,-0.853056,-0.324128,-0.000355,-2.886094,-0.000386,2.561361,-0.067570,0.02000000000000,0.020000
2024-07-16 18:58:57.4311520,2024-07-16 18:58:57.4312352,-0.853056,-0.324308,-0.000357,-2.886062,-0.000384,2.561143,-0.067572,0.02000000000000,0.020000
2024-07-16 18:58:57.4392820,2024-07-16 18:58:57.4393765,-0.853054,-0.324487,-0.000357,-2.886030,-0.000389,2.560931,-0.067570,0.02000000000000,0.020000
2024-07-16 18:58:57.4504355,2024-07-16 18:58:57.4505215,-0.853051,-0.325521,-0.000358,-2.885839,-0.000388,2.559698,-0.067567,0.02000000000000,0.020000
2024-07-16 18:58:57.4605589,2024-07-16 18:58:57.4606543,-0.853054,-0.326908,-0.000355,-2.885582,-0.000386,2.558047,-0.067565,0.02000000000000,0.020000
2024-07-16 18:58:57.4706769,2024-07-16 18:58:57.4708005,-0.853051,-0.328780,-0.000349,-2.885242,-0.000389,2.555773,-0.067570,0.02000000000000,0.020000
2024-07-16 18:58:57.4807778,2024-07-16 18:58:57.4808673,-0.853051,-0.330443,-0.000354,-2.884937,-0.000386,2.553717,-0.067566,0.02000000000000,0.020000
2024-07-16 18:58:57.5142092,2024-07-16 18:58:57.5143331,-0.853054,-0.332094,-0.000352,-2.884652,-0.000388,2.551722,-0.067569,0.02000000000000,0.020000
2024-07-16 18:58:57.5149342,2024-07-16 18:58:57.5150379,-0.853056,-0.339114,-0.000352,-2.883349,-0.000386,2.543312,-0.067569,0.02000000000000,0.020000
2024-07-16 18:58:57.5159299,2024-07-16 18:58:57.5160268,-0.853057,-0.339275,-0.000349,-2.883323,-0.000386,2.543129,-0.067572,0.02000000000000,0.020000
2024-07-16 18:58:57.5212400,2024-07-16 18:58:57.5213190,-0.853058,-0.339437,-0.000349,-2.883291,-0.000387,2.542939,-0.067567,0.02000000000000,0.020000
2024-07-16 18:58:57.5302939,2024-07-16 18:58:57.5303701,-0.853054,-0.339592,-0.000352,-2.883258,-0.000388,2.542742,-0.067564,0.02000000000000,0.020000
2024-07-16 18:58:57.5404109,2024-07-16 18:58:57.5404990,-0.853054,-0.340216,-0.000349,-2.883135,-0.000386,2.542027,-0.067568,0.02000000000000,0.020000
2024-07-16 18:58:57.5505902,2024-07-16 18:58:57.5506934,-0.853053,-0.341590,-0.000349,-2.882856,-0.000387,2.540394,-0.067569,0.02000000000000,0.020000
2024-07-16 18:58:57.5607233,2024-07-16 18:58:57.5608324,-0.853051,-0.343082,-0.000349,-2.882555,-0.000389,2.538614,-0.067567,0.02000000000000,0.020000
2024-07-16 18:58:57.5942083,2024-07-16 18:58:57.5943239,-0.853053,-0.344578,-0.000355,-2.882241,-0.000388,2.536862,-0.067569,0.02000000000000,0.020000
2024-07-16 18:58:57.5949267,2024-07-16 18:58:57.5950217,-0.853056,-0.350731,-0.000349,-2.880868,-0.000389,2.529367,-0.067568,0.02000000000000,0.020000
2024-07-16 18:58:57.5959160,2024-07-16 18:58:57.5960151,-0.853059,-0.350866,-0.000349,-2.880836,-0.000389,2.529195,-0.067567,0.02000000000000,0.020000
2024-07-16 18:58:57.6012050,2024-07-16 18:58:57.6012869,-0.853054,-0.350988,-0.000349,-2.880805,-0.000390,2.529040,-0.067566,0.02000000000000,0.020000
2024-07-16 18:58:57.6102774,2024-07-16 18:58:57.6103704,-0.853057,-0.351119,-0.000349,-2.880778,-0.000389,2.528893,-0.067572,0.02000000000000,0.020000
2024-07-16 18:58:57.6203984,2024-07-16 18:58:57.6204944,-0.853053,-0.351636,-0.000352,-2.880653,-0.000390,2.528265,-0.067569,0.02000000000000,0.020000
2024-07-16 18:58:57.6305190,2024-07-16 18:58:57.6306222,-0.853051,-0.352796,-0.000349,-2.880389,-0.000391,2.526813,-0.067573,0.02000000000000,0.020000
2024-07-16 18:58:57.6406245,2024-07-16 18:58:57.6407191,-0.853053,-0.354053,-0.000352,-2.880115,-0.000389,2.525234,-0.067570,0.02000000000000,0.020000
2024-07-16 18:58:57.6742062,2024-07-16 18:58:57.6743218,-0.853056,-0.355278,-0.000352,-2.879839,-0.000387,2.523722,-0.067571,0.02000000000000,0.020000
2024-07-16 18:58:57.6748460,2024-07-16 18:58:57.6749475,-0.853059,-0.360450,-0.000347,-2.878697,-0.000390,2.517329,-0.067570,0.02000000000000,0.020000
2024-07-16 18:58:57.6758479,2024-07-16 18:58:57.6759472,-0.853054,-0.360560,-0.000347,-2.878668,-0.000391,2.517179,-0.067566,0.02000000000000,0.020000
2024-07-16 18:58:57.6811154,2024-07-16 18:58:57.6812065,-0.853054,-0.360675,-0.000349,-2.878648,-0.000392,2.517035,-0.067571,0.02000000000000,0.020000
2024-07-16 18:58:57.6912234,2024-07-16 18:58:57.6913075,-0.853054,-0.360784,-0.000354,-2.878618,-0.000390,2.516891,-0.067566,0.02000000000000,0.020000
2024-07-16 18:58:57.6982804,2024-07-16 18:58:57.6983700,-0.853056,-0.361231,-0.000349,-2.878520,-0.000388,2.516388,-0.067564,0.02000000000000,0.020000
2024-07-16 18:58:57.7105119,2024-07-16 18:58:57.7106111,-0.853054,-0.362349,-0.000352,-2.878258,-0.000390,2.515038,-0.067574,0.02000000000000,0.020000
2024-07-16 18:58:57.7206466,2024-07-16 18:58:57.7207540,-0.853059,-0.363099,-0.000352,-2.878073,-0.000390,2.514116,-0.067568,0.02000000000000,0.020000
2024-07-16 18:58:57.7307556,2024-07-16 18:58:57.7308372,-0.853059,-0.364354,-0.000352,-2.877776,-0.000390,2.512561,-0.067570,0.02000000000000,0.020000
2024-07-16 18:58:57.7409789,2024-07-16 18:58:57.7411848,-0.853054,-0.365374,-0.000350,-2.877516,-0.000391,2.511318,-0.067571,0.02000000000000,0.020000
2024-07-16 18:58:57.7742096,2024-07-16 18:58:57.7743297,-0.853054,-0.366378,-0.000354,-2.877264,-0.000390,2.510117,-0.067568,0.02000000000000,0.020000
2024-07-16 18:58:57.7749832,2024-07-16 18:58:57.7750927,-0.853053,-0.370393,-0.000344,-2.876276,-0.000392,2.505138,-0.067569,0.02000000000000,0.020000
2024-07-16 18:58:57.7759592,2024-07-16 18:58:57.7760620,-0.853053,-0.370486,-0.000347,-2.876253,-0.000393,2.505023,-0.067571,0.02000000000000,0.020000
2024-07-16 18:58:57.7806719,2024-07-16 18:58:57.7807719,-0.853055,-0.370570,-0.000349,-2.876228,-0.000387,2.504912,-0.067571,0.02000000000000,0.020000
2024-07-16 18:58:57.7908038,2024-07-16 18:58:57.7909121,-0.853056,-0.370656,-0.000347,-2.876215,-0.000390,2.504797,-0.067569,0.02000000000000,0.020000
2024-07-16 18:58:57.8009205,2024-07-16 18:58:57.8010156,-0.853051,-0.370909,-0.000349,-2.876151,-0.000390,2.504477,-0.067575,0.02000000000000,0.020000
2024-07-16 18:58:57.8110368,2024-07-16 18:58:57.8111400,-0.853053,-0.371732,-0.000352,-2.875955,-0.000390,2.503470,-0.067564,0.02000000000000,0.020000
2024-07-16 18:58:57.8422073,2024-07-16 18:58:57.8423188,-0.853051,-0.372535,-0.000349,-2.875755,-0.000389,2.502509,-0.067567,0.02000000000000,0.020000
2024-07-16 18:58:57.8429388,2024-07-16 18:58:57.8430372,-0.853051,-0.375558,-0.000352,-2.874940,-0.000388,2.498655,-0.067572,0.02000000000000,0.020000
2024-07-16 18:58:57.8439782,2024-07-16 18:58:57.8441212,-0.853048,-0.375620,-0.000349,-2.874923,-0.000391,2.498563,-0.067570,0.02000000000000,0.020000
2024-07-16 18:58:57.8505409,2024-07-16 18:58:57.8506897,-0.853056,-0.375690,-0.000344,-2.874910,-0.000389,2.498482,-0.067567,0.02000000000000,0.020000
2024-07-16 18:58:57.8606973,2024-07-16 18:58:57.8608448,-0.853053,-0.375754,-0.000349,-2.874893,-0.000391,2.498402,-0.067571,0.02000000000000,0.020000
2024-07-16 18:58:57.8708658,2024-07-16 18:58:57.8710194,-0.853054,-0.376082,-0.000349,-2.874811,-0.000390,2.498007,-0.067573,0.02000000000000,0.020000
2024-07-16 18:58:57.8810179,2024-07-16 18:58:57.8811586,-0.853054,-0.376699,-0.000354,-2.874646,-0.000390,2.497178,-0.067570,0.02000000000000,0.020000
2024-07-16 18:58:57.8911767,2024-07-16 18:58:57.8913200,-0.853054,-0.377347,-0.000357,-2.874481,-0.000385,2.496337,-0.067573,0.02000000000000,0.020000
2024-07-16 18:58:57.8982436,2024-07-16 18:58:57.8983800,-0.853056,-0.377923,-0.000353,-2.874326,-0.000392,2.495617,-0.067567,0.02000000000000,0.020000
2024-07-16 18:58:57.9342462,2024-07-16 18:58:57.9343796,-0.853053,-0.378455,-0.000350,-2.874173,-0.000385,2.494905,-0.067566,0.02000000000000,0.020000
2024-07-16 18:58:57.9349276,2024-07-16 18:58:57.9350289,-0.853056,-0.380530,-0.000349,-2.873641,-0.000390,2.492332,-0.067562,0.02000000000000,0.020000
2024-07-16 18:58:57.9359606,2024-07-16 18:58:57.9360958,-0.853057,-0.380566,-0.000351,-2.873628,-0.000390,2.492282,-0.067568,0.02000000000000,0.020000
2024-07-16 18:58:57.9409205,2024-07-16 18:58:57.9410614,-0.853053,-0.380605,-0.000358,-2.873618,-0.000388,2.492237,-0.067563,0.02000000000000,0.020000
2024-07-16 18:58:57.9511010,2024-07-16 18:58:57.9512819,-0.853054,-0.380644,-0.000352,-2.873606,-0.000387,2.492189,-0.067566,0.02000000000000,0.020000
2024-07-16 18:58:57.9612528,2024-07-16 18:58:57.9614299,-0.853054,-0.380766,-0.000350,-2.873571,-0.000386,2.492045,-0.067574,0.02000000000000,0.020000
2024-07-16 18:58:57.9703535,2024-07-16 18:58:57.9705209,-0.853056,-0.381197,-0.000346,-2.873440,-0.000392,2.491503,-0.067568,0.02000000000000,0.020000
2024-07-16 18:58:57.9805116,2024-07-16 18:58:57.9806855,-0.853053,-0.381546,-0.000349,-2.873328,-0.000386,2.491058,-0.067568,0.02000000000000,0.020000
2024-07-16 18:58:57.9906765,2024-07-16 18:58:57.9908525,-0.853056,-0.381816,-0.000349,-2.873242,-0.000390,2.490743,-0.067572,0.02000000000000,0.020000
2024-07-16 18:58:58.0008242,2024-07-16 18:58:58.0010018,-0.853056,-0.382143,-0.000352,-2.873124,-0.000391,2.490293,-0.067567,0.02000000000000,0.020000
2024-07-16 18:58:58.0342535,2024-07-16 18:58:58.0343978,-0.853054,-0.382426,-0.000347,-2.873038,-0.000386,2.489921,-0.067569,0.02000000000000,0.020000
2024-07-16 18:58:58.0349172,2024-07-16 18:58:58.0350453,-0.853054,-0.383387,-0.000347,-2.872690,-0.000388,2.488733,-0.067570,0.02000000000000,0.020000
2024-07-16 18:58:58.0359580,2024-07-16 18:58:58.0361315,-0.853054,-0.383399,-0.000347,-2.872685,-0.000387,2.488716,-0.067572,0.02000000000000,0.020000
2024-07-16 18:58:58.0383364,2024-07-16 18:58:58.0385063,-0.853058,-0.383420,-0.000347,-2.872678,-0.000387,2.488697,-0.067572,0.02000000000000,0.020000
2024-07-16 18:58:58.0506278,2024-07-16 18:58:58.0508268,-0.853056,-0.383433,-0.000347,-2.872675,-0.000385,2.488682,-0.067575,0.02000000000000,0.020000
2024-07-16 18:58:58.0607703,2024-07-16 18:58:58.0609415,-0.853052,-0.383457,-0.000351,-2.872666,-0.000386,2.488663,-0.067571,0.02000000000000,0.020000
2024-07-16 18:58:58.0709195,2024-07-16 18:58:58.0710766,-0.853053,-0.383630,-0.000352,-2.872620,-0.000389,2.488487,-0.067569,0.02000000000000,0.020000
2024-07-16 18:58:58.0810675,2024-07-16 18:58:58.0812065,-0.853059,-0.383750,-0.000349,-2.872601,-0.000387,2.488369,-0.067569,0.02000000000000,0.020000
2024-07-16 18:58:58.0912248,2024-07-16 18:58:58.0913680,-0.853056,-0.383856,-0.000352,-2.872599,-0.000389,2.488245,-0.067569,0.02000000000000,0.020000
2024-07-16 18:58:58.0983151,2024-07-16 18:58:58.0984529,-0.853051,-0.383924,-0.000350,-2.872602,-0.000392,2.488148,-0.067563,0.02000000000000,0.020000
2024-07-16 18:58:58.1105676,2024-07-16 18:58:58.1107114,-0.853054,-0.383966,-0.000351,-2.872598,-0.000387,2.488071,-0.067569,0.02000000000000,0.020000
2024-07-16 18:58:58.1207155,2024-07-16 18:58:58.1208546,-0.853052,-0.383973,-0.000352,-2.872606,-0.000386,2.488069,-0.067564,0.02000000000000,0.020000
2024-07-16 18:58:58.1308801,2024-07-16 18:58:58.1310262,-0.853049,-0.384006,-0.000347,-2.872605,-0.000391,2.488069,-0.067566,0.02000000000000,0.020000
2024-07-16 18:58:58.1410336,2024-07-16 18:58:58.1411743,-0.853051,-0.384000,-0.000349,-2.872604,-0.000387,2.488069,-0.067570,0.02000000000000,0.020000
2024-07-16 18:58:58.1512348,2024-07-16 18:58:58.1513796,-0.853053,-0.384000,-0.000341,-2.872605,-0.000391,2.488069,-0.067568,0.02000000000000,0.020000
2024-07-16 18:58:58.1583340,2024-07-16 18:58:58.1584719,-0.853057,-0.383998,-0.000349,-2.872602,-0.000387,2.488069,-0.067568,0.02000000000000,0.020000
2024-07-16 18:58:58.1942108,2024-07-16 18:58:58.1943194,-0.853057,-0.384003,-0.000352,-2.872601,-0.000387,2.488069,-0.067568,0.02000000000000,0.020000
2024-07-16 18:58:58.1944282,2024-07-16 18:58:58.1945252,-0.853062,-0.384001,-0.000349,-2.872601,-0.000384,2.488065,-0.067570,0.02000000000000,0.020000
2024-07-16 18:58:58.1950359,2024-07-16 18:58:58.1951801,-0.853056,-0.383998,-0.000349,-2.872604,-0.000385,2.488069,-0.067570,0.02000000000000,0.020000
2024-07-16 18:58:58.2111134,2024-07-16 18:58:58.2112021,-0.853054,-0.383998,-0.000349,-2.872609,-0.000388,2.488069,-0.067570,0.02000000000000,0.020000
2024-07-16 18:58:58.2212263,2024-07-16 18:58:58.2213056,-0.853056,-0.384001,-0.000347,-2.872606,-0.000389,2.488063,-0.067569,0.02000000000000,0.020000
2024-07-16 18:58:58.2302917,2024-07-16 18:58:58.2303860,-0.853056,-0.384006,-0.000349,-2.872601,-0.000387,2.488065,-0.067569,0.02000000000000,0.020000
2024-07-16 18:58:58.2622084,2024-07-16 18:58:58.2623289,-0.853053,-0.384001,-0.000349,-2.872601,-0.000388,2.488063,-0.067570,0.02000000000000,0.020000
2024-07-16 18:58:58.2629513,2024-07-16 18:58:58.2630437,-0.853055,-0.384025,-0.000352,-2.872601,-0.000387,2.488043,-0.067570,0.02000000000000,0.020000
2024-07-16 18:58:58.2639548,2024-07-16 18:58:58.2640468,-0.853055,-0.384031,-0.000352,-2.872601,-0.000391,2.488043,-0.067571,0.02000000000000,0.020000
2024-07-16 18:58:58.2707197,2024-07-16 18:58:58.2708212,-0.853050,-0.384033,-0.000349,-2.872604,-0.000391,2.488041,-0.067568,0.02000000000000,0.020000
2024-07-16 18:58:58.2808514,2024-07-16 18:58:58.2809662,-0.853053,-0.384039,-0.000352,-2.872599,-0.000388,2.488041,-0.067567,0.02000000000000,0.020000
2024-07-16 18:58:58.2909580,2024-07-16 18:58:58.2910430,-0.853055,-0.384049,-0.000349,-2.872604,-0.000388,2.488032,-0.067566,0.02000000000000,0.020000
2024-07-16 18:58:58.3010855,2024-07-16 18:58:58.3011866,-0.853055,-0.384082,-0.000349,-2.872601,-0.000386,2.488009,-0.067574,0.02000000000000,0.020000
2024-07-16 18:58:58.3112010,2024-07-16 18:58:58.3113001,-0.853057,-0.384126,-0.000352,-2.872601,-0.000387,2.487977,-0.067565,0.02000000000000,0.020000
2024-07-16 18:58:58.3422051,2024-07-16 18:58:58.3423256,-0.853054,-0.384178,-0.000351,-2.872599,-0.000387,2.487936,-0.067567,0.02000000000000,0.020000
2024-07-16 18:58:58.3429168,2024-07-16 18:58:58.3430193,-0.853028,-0.384531,-0.000346,-2.872604,-0.000387,2.487706,-0.067560,0.02000000000000,0.020000
2024-07-16 18:58:58.3439456,2024-07-16 18:58:58.3440931,-0.853023,-0.384538,-0.000348,-2.872602,-0.000387,2.487702,-0.067558,0.02000000000000,0.020000
2024-07-16 18:58:58.3508334,2024-07-16 18:58:58.3509879,-0.853026,-0.384550,-0.000348,-2.872607,-0.000388,2.487693,-0.067558,0.02000000000000,0.020000
2024-07-16 18:58:58.3609878,2024-07-16 18:58:58.3611418,-0.853019,-0.384563,-0.000351,-2.872602,-0.000387,2.487689,-0.067561,0.02000000000000,0.020000
2024-07-16 18:58:58.3711344,2024-07-16 18:58:58.3712765,-0.853016,-0.384607,-0.000346,-2.872607,-0.000388,2.487660,-0.067559,0.02000000000000,0.020000
2024-07-16 18:58:58.3812878,2024-07-16 18:58:58.3814327,-0.852982,-0.384709,-0.000354,-2.872607,-0.000386,2.487585,-0.067546,0.02000000000000,0.020000
2024-07-16 18:58:58.3903763,2024-07-16 18:58:58.3905163,-0.852933,-0.384799,-0.000351,-2.872602,-0.000389,2.487505,-0.067538,0.02000000000000,0.020000
2024-07-16 18:58:58.4222454,2024-07-16 18:58:58.4223479,-0.852893,-0.384904,-0.000348,-2.872603,-0.000388,2.487417,-0.067522,0.02000000000000,0.020000
2024-07-16 18:58:58.4229065,2024-07-16 18:58:58.4230141,-0.852600,-0.385345,-0.000332,-2.872603,-0.000390,2.486974,-0.067244,0.02000000000000,0.020000
2024-07-16 18:58:58.4239276,2024-07-16 18:58:58.4240673,-0.852593,-0.385358,-0.000332,-2.872609,-0.000390,2.486962,-0.067240,0.02000000000000,0.020000
2024-07-16 18:58:58.4309369,2024-07-16 18:58:58.4310753,-0.852587,-0.385376,-0.000335,-2.872603,-0.000387,2.486949,-0.067229,0.02000000000000,0.020000
2024-07-16 18:58:58.4411060,2024-07-16 18:58:58.4412752,-0.852583,-0.385381,-0.000332,-2.872603,-0.000389,2.486931,-0.067225,0.02000000000000,0.020000
2024-07-16 18:58:58.4503561,2024-07-16 18:58:58.4504814,-0.852524,-0.385461,-0.000332,-2.872609,-0.000390,2.486845,-0.067185,0.02000000000000,0.020000
2024-07-16 18:58:58.4604837,2024-07-16 18:58:58.4605974,-0.852444,-0.385607,-0.000324,-2.872609,-0.000386,2.486698,-0.067102,0.02000000000000,0.020000
2024-07-16 18:58:58.4706021,2024-07-16 18:58:58.4707039,-0.852366,-0.385759,-0.000328,-2.872612,-0.000384,2.486540,-0.067017,0.02000000000000,0.020000
2024-07-16 18:58:58.4807133,2024-07-16 18:58:58.4808189,-0.852268,-0.385939,-0.000320,-2.872618,-0.000384,2.486348,-0.066931,0.02000000000000,0.020000
2024-07-16 18:58:58.5142079,2024-07-16 18:58:58.5143187,-0.852175,-0.386147,-0.000317,-2.872622,-0.000384,2.486152,-0.066831,0.02000000000000,0.020000
2024-07-16 18:58:58.5148569,2024-07-16 18:58:58.5149563,-0.851696,-0.387417,-0.000256,-2.872677,-0.000369,2.485018,-0.066254,0.02000000000000,0.020000
