ziyutum/ubuntu/plot/csc.csv
ts_in,ts_out,JointPosition1,JointPosition2,JointPosition3,JointPosition4,JointPosition5,JointPosition6,JointPosition7,GripperData_Width,GripperData_Speed
2024-08-12 20:05:25.6477495,2024-08-12 20:05:25.6520431,5.8E-05,-0.785319,6E-06,-2.355979,7.5E-05,1.571081,0.785601,0.01,0.01
2024-08-12 20:05:25.6401035,2024-08-12 20:05:25.6520645,5.8E-05,-0.785319,6E-06,-2.355979,7.5E-05,1.571081,0.785601,0.01,0.01
2024-08-12 20:05:25.6598517,2024-08-12 20:05:25.6600201,5.4E-05,-0.785318,9E-06,-2.355974,7.3E-05,1.571081,0.785599,0.01,0.01
2024-08-12 20:05:25.6679072,2024-08-12 20:05:25.6680989,5.5E-05,-0.78532,1.1E-05,-2.355974,7.3E-05,1.57108,0.7856,0.01,0.01
2024-08-12 20:05:25.6800170,2024-08-12 20:05:25.6801698,5.5E-05,-0.785316,6E-06,-2.355979,7.1E-05,1.57108,0.785603,0.01,0.01
2024-08-12 20:05:25.6880834,2024-08-12 20:05:25.6882474,5.8E-05,-0.785323,1.1E-05,-2.355977,7.4E-05,1.571081,0.785603,0.01,0.01
2024-08-12 20:05:25.7002038,2024-08-12 20:05:25.7003845,5.7E-05,-0.785316,1.1E-05,-2.355971,7.3E-05,1.57108,0.7856,0.01,0.01
2024-08-12 20:05:25.7082659,2024-08-12 20:05:25.7084409,5.3E-05,-0.785318,9E-06,-2.355977,7.3E-05,1.571079,0.785597,0.01,0.01
2024-08-12 20:05:25.7203823,2024-08-12 20:05:25.7205502,5.3E-05,-0.785318,9E-06,-2.355971,7.4E-05,1.571081,0.7856,0.01,0.01
2024-08-12 20:05:25.7284353,2024-08-12 20:05:25.7285863,5.5E-05,-0.785318,9E-06,-2.355977,7.3E-05,1.571078,0.785601,0.01,0.01
2024-08-12 20:05:25.7405503,2024-08-12 20:05:25.7407272,5.8E-05,-0.78532,1.1E-05,-2.355971,7.3E-05,1.571079,0.785601,0.01,0.01
2024-08-12 20:05:25.7486093,2024-08-12 20:05:25.7487669,6E-05,-0.78532,1.1E-05,-2.355971,7.3E-05,1.571081,0.785603,0.01,0.01
2024-08-12 20:05:25.7586728,2024-08-12 20:05:25.7588488,5.5E-05,-0.785321,7E-06,-2.355974,7.4E-05,1.57108,0.785603,0.01,0.01
2024-08-12 20:05:25.7667291,2024-08-12 20:05:25.7669001,5.8E-05,-0.78532,9E-06,-2.355974,7.3E-05,1.571079,0.7856,0.01,0.01
2024-08-12 20:05:25.7788517,2024-08-12 20:05:25.7790260,5.8E-05,-0.785315,6E-06,-2.355974,7.5E-05,1.57108,0.785603,0.01,0.01
2024-08-12 20:05:25.7869103,2024-08-12 20:05:25.7870942,5.3E-05,-0.785318,9E-06,-2.355977,7.4E-05,1.57108,0.7856,0.01,0.01
2024-08-12 20:05:25.7990235,2024-08-12 20:05:25.7991931,5.2E-05,-0.785318,1.1E-05,-2.355977,7.1E-05,1.571081,0.785599,0.01,0.01
2024-08-12 20:05:25.8070885,2024-08-12 20:05:25.8072772,5.4E-05,-0.785318,1.1E-05,-2.355971,7.2E-05,1.57108,0.785605,0.01,0.01
2024-08-12 20:05:25.8192001,2024-08-12 20:05:25.8193662,5.5E-05,-0.785315,1.1E-05,-2.355974,7.3E-05,1.571081,0.7856,0.01,0.01
2024-08-12 20:05:25.8272643,2024-08-12 20:05:25.8274700,5.2E-05,-0.78532,1.1E-05,-2.355974,7.4E-05,1.571079,0.7856,0.01,0.01
2024-08-12 20:05:25.8393927,2024-08-12 20:05:25.8396777,5.5E-05,-0.785323,9E-06,-2.355977,7.2E-05,1.571082,0.785597,0.01,0.01
2024-08-12 20:05:25.8474440,2024-08-12 20:05:25.8476056,5.5E-05,-0.785318,1.1E-05,-2.355977,7.4E-05,1.571079,0.785598,0.01,0.01
2024-08-12 20:05:25.8595600,2024-08-12 20:05:25.8597451,5.8E-05,-0.785318,9E-06,-2.355974,7.2E-05,1.571079,0.785602,0.01,0.01
2024-08-12 20:05:25.8676201,2024-08-12 20:05:25.8677976,5.3E-05,-0.785316,9E-06,-2.355974,7.3E-05,1.57108,0.785602,0.01,0.01
2024-08-12 20:05:25.8797421,2024-08-12 20:05:25.8799170,5.5E-05,-0.785318,1.4E-05,-2.355974,7.3E-05,1.571078,0.785603,0.01,0.01
2024-08-12 20:05:25.8877971,2024-08-12 20:05:25.8879601,5.5E-05,-0.785318,1.1E-05,-2.355974,7.3E-05,1.571079,0.785603,0.01,0.01
2024-08-12 20:05:25.8999248,2024-08-12 20:05:25.9001367,5.5E-05,-0.785318,9E-06,-2.355971,7.4E-05,1.571082,0.785603,0.01,0.01
2024-08-12 20:05:25.9079766,2024-08-12 20:05:25.9081532,5.3E-05,-0.78532,6E-06,-2.355974,7.4E-05,1.571079,0.785604,0.01,0.01
2024-08-12 20:05:25.9200909,2024-08-12 20:05:25.9202615,5.8E-05,-0.785318,1.1E-05,-2.355969,7.3E-05,1.571078,0.785603,0.01,0.01
2024-08-12 20:05:25.9281483,2024-08-12 20:05:25.9283079,5.8E-05,-0.785318,9E-06,-2.355969,7.4E-05,1.571078,0.785603,0.01,0.01
2024-08-12 20:05:25.9402643,2024-08-12 20:05:25.9404381,5.6E-05,-0.785318,9E-06,-2.355971,7.4E-05,1.571081,0.785604,0.01,0.01
2024-08-12 20:05:25.9483215,2024-08-12 20:05:25.9484777,5.8E-05,-0.78532,1.1E-05,-2.355977,7.4E-05,1.57108,0.785603,0.01,0.01
2024-08-12 20:05:25.9604391,2024-08-12 20:05:25.9606025,5.5E-05,-0.785316,7E-06,-2.355977,7.4E-05,1.571077,0.785598,0.01,0.01
2024-08-12 20:05:25.9686328,2024-08-12 20:05:25.9688296,5.5E-05,-0.785323,9E-06,-2.355979,7.3E-05,1.571079,0.7856,0.01,0.01
2024-08-12 20:05:25.9786714,2024-08-12 20:05:25.9788253,5.5E-05,-0.78532,9E-06,-2.355971,7.3E-05,1.57108,0.7856,0.01,0.01
2024-08-12 20:05:25.9867440,2024-08-12 20:05:25.9869201,5.5E-05,-0.785316,1.1E-05,-2.355976,7.4E-05,1.571079,0.785597,0.01,0.01
2024-08-12 20:05:25.9988784,2024-08-12 20:05:25.9990932,5.6E-05,-0.785318,1.1E-05,-2.355971,7.4E-05,1.57108,0.7856,0.01,0.01
2024-08-12 20:05:26.0069230,2024-08-12 20:05:26.0070743,5.8E-05,-0.785318,9E-06,-2.355977,7.4E-05,1.57108,0.785601,0.01,0.01
2024-08-12 20:05:26.0190332,2024-08-12 20:05:26.0192048,5.3E-05,-0.78532,9E-06,-2.355977,7.5E-05,1.571081,0.785603,0.01,0.01
2024-08-12 20:05:26.0270941,2024-08-12 20:05:26.0272533,5.5E-05,-0.785323,1.1E-05,-2.355979,7.2E-05,1.571079,0.785604,0.01,0.01
2024-08-12 20:05:26.0392112,2024-08-12 20:05:26.0393820,6E-05,-0.785316,1.1E-05,-2.355977,7.3E-05,1.57108,0.785603,0.01,0.01
2024-08-12 20:05:26.0472933,2024-08-12 20:05:26.0474686,5.5E-05,-0.78532,9E-06,-2.355971,7.5E-05,1.571079,0.785603,0.01,0.01
2024-08-12 20:05:26.0594040,2024-08-12 20:05:26.0595701,6.1E-05,-0.785318,1.1E-05,-2.355979,7.4E-05,1.57108,0.785602,0.01,0.01
2024-08-12 20:05:26.0674597,2024-08-12 20:05:26.0676494,5.5E-05,-0.78532,3E-06,-2.355973,7.3E-05,1.571081,0.785599,0.01,0.01
2024-08-12 20:05:26.0795726,2024-08-12 20:05:26.0797359,6.3E-05,-0.78532,1.1E-05,-2.355971,7.2E-05,1.571078,0.7856,0.01,0.01
2024-08-12 20:05:26.0876357,2024-08-12 20:05:26.0878151,5.5E-05,-0.785323,1.1E-05,-2.355971,7.3E-05,1.57108,0.7856,0.01,0.01
2024-08-12 20:05:26.0997463,2024-08-12 20:05:26.0999123,5.1E-05,-0.785318,1.1E-05,-2.355971,7.4E-05,1.57108,0.785598,0.01,0.01
2024-08-12 20:05:26.1078051,2024-08-12 20:05:26.1079638,5.5E-05,-0.78532,6E-06,-2.355969,7.2E-05,1.57108,0.785597,0.01,0.01
2024-08-12 20:05:26.1199302,2024-08-12 20:05:26.1201202,5.5E-05,-0.78532,1.1E-05,-2.355974,7.5E-05,1.571079,0.785597,0.01,0.01
2024-08-12 20:05:26.1279834,2024-08-12 20:05:26.1281446,5.5E-05,-0.785321,1.1E-05,-2.355977,7.5E-05,1.571081,0.785602,0.01,0.01
2024-08-12 20:05:26.1401007,2024-08-12 20:05:26.1402800,5.3E-05,-0.785315,9E-06,-2.355974,7.3E-05,1.571079,0.785603,0.01,0.01
2024-08-12 20:05:26.1481569,2024-08-12 20:05:26.1483182,6E-05,-0.78532,1.1E-05,-2.355971,7.2E-05,1.571079,0.785603,0.01,0.01
2024-08-12 20:05:26.1602707,2024-08-12 20:05:26.1604317,5.5E-05,-0.785316,1.1E-05,-2.355974,7.3E-05,1.571079,0.785603,0.01,0.01
2024-08-12 20:05:26.1683253,2024-08-12 20:05:26.1684818,5.8E-05,-0.785313,9E-06,-2.355969,7.3E-05,1.571079,0.785603,0.01,0.01
2024-08-12 20:05:26.1804409,2024-08-12 20:05:26.1806055,5.1E-05,-0.78532,6E-06,-2.355969,7.4E-05,1.571081,0.785601,0.01,0.01
2024-08-12 20:05:26.1884995,2024-08-12 20:05:26.1886653,5.5E-05,-0.785324,1.4E-05,-2.355974,7.4E-05,1.57108,0.785602,0.01,0.01
2024-08-12 20:05:26.2006100,2024-08-12 20:05:26.2007841,5.8E-05,-0.785323,9E-06,-2.355971,7.4E-05,1.571078,0.785602,0.01,0.01
2024-08-12 20:05:26.2086716,2024-08-12 20:05:26.2088360,6.1E-05,-0.785326,9E-06,-2.355971,7.3E-05,1.571079,0.785603,0.01,0.01
2024-08-12 20:05:26.2187326,2024-08-12 20:05:26.2189111,5.5E-05,-0.785318,9E-06,-2.355971,7.2E-05,1.571077,0.785602,0.01,0.01
2024-08-12 20:05:26.2267936,2024-08-12 20:05:26.2269611,5.5E-05,-0.785315,9E-06,-2.355977,7.2E-05,1.57108,0.785603,0.01,0.01
2024-08-12 20:05:26.2389033,2024-08-12 20:05:26.2390780,5.6E-05,-0.785319,1.1E-05,-2.355974,7.3E-05,1.571081,0.785602,0.01,0.01
2024-08-12 20:05:26.2469609,2024-08-12 20:05:26.2471265,5.8E-05,-0.785315,9E-06,-2.355971,7.4E-05,1.571079,0.785603,0.01,0.01
2024-08-12 20:05:26.2590820,2024-08-12 20:05:26.2592587,5.7E-05,-0.785319,6E-06,-2.355974,7.5E-05,1.571081,0.785603,0.01,0.01
2024-08-12 20:05:26.2671389,2024-08-12 20:05:26.2673369,5.5E-05,-0.78532,1.1E-05,-2.355977,7.5E-05,1.571078,0.785603,0.01,0.01
2024-08-12 20:05:26.2792601,2024-08-12 20:05:26.2794444,5.7E-05,-0.785313,9E-06,-2.355979,7.2E-05,1.571076,0.785603,0.01,0.01
2024-08-12 20:05:26.2873192,2024-08-12 20:05:26.2874933,5.3E-05,-0.785318,6E-06,-2.355974,7.3E-05,1.571079,0.785603,0.01,0.01
2024-08-12 20:05:26.2994299,2024-08-12 20:05:26.2996114,5.3E-05,-0.78532,1.1E-05,-2.355971,7.4E-05,1.571082,0.7856,0.01,0.01
2024-08-12 20:05:26.3074924,2024-08-12 20:05:26.3076706,5.5E-05,-0.785315,6E-06,-2.355977,7.4E-05,1.571079,0.785599,0.01,0.01
2024-08-12 20:05:26.3196103,2024-08-12 20:05:26.3198009,5.5E-05,-0.78532,1.1E-05,-2.355974,7.1E-05,1.57108,0.785597,0.01,0.01
2024-08-12 20:05:26.3276656,2024-08-12 20:05:26.3278366,5.6E-05,-0.785321,9E-06,-2.355969,7.3E-05,1.571081,0.785598,0.01,0.01
2024-08-12 20:05:26.3397816,2024-08-12 20:05:26.3399728,5.8E-05,-0.785326,6E-06,-2.355971,7.2E-05,1.571081,0.785597,0.01,0.01
2024-08-12 20:05:26.3478393,2024-08-12 20:05:26.3480097,5.4E-05,-0.785318,1.4E-05,-2.355977,7.3E-05,1.571079,0.785598,0.01,0.01
2024-08-12 20:05:26.3599511,2024-08-12 20:05:26.3601273,5.5E-05,-0.785315,1.1E-05,-2.355971,7.5E-05,1.571079,0.785598,0.01,0.01
2024-08-12 20:05:26.3680116,2024-08-12 20:05:26.3681885,5.5E-05,-0.785315,1.1E-05,-2.355974,7.4E-05,1.571079,0.785598,0.01,0.01
2024-08-12 20:05:26.3801284,2024-08-12 20:05:26.3803378,5.5E-05,-0.785315,9E-06,-2.355974,7.3E-05,1.571079,0.785598,0.01,0.01
2024-08-12 20:05:26.3881887,2024-08-12 20:05:26.3883638,5.8E-05,-0.785321,1.1E-05,-2.355977,7.3E-05,1.57108,0.785597,0.01,0.01
2024-08-12 20:05:26.4003084,2024-08-12 20:05:26.4004915,5.5E-05,-0.785319,9E-06,-2.355974,7.3E-05,1.57108,0.785597,0.01,0.01
2024-08-12 20:05:26.4083628,2024-08-12 20:05:26.4085362,5.8E-05,-0.78532,1.1E-05,-2.355979,7.5E-05,1.57108,0.785597,0.01,0.01
2024-08-12 20:05:26.4204856,2024-08-12 20:05:26.4206820,5.3E-05,-0.785323,9E-06,-2.355974,7.3E-05,1.571081,0.785604,0.01,0.01
2024-08-12 20:05:26.4386087,2024-08-12 20:05:26.4388771,5.8E-05,-0.785321,9E-06,-2.355977,7.5E-05,1.571079,0.785603,0.01,0.01
2024-08-12 20:05:26.4470486,2024-08-12 20:05:26.4472694,5.3E-05,-0.785315,1.4E-05,-2.355974,7.2E-05,1.57108,0.785602,0.01,0.01
2024-08-12 20:05:26.4591393,2024-08-12 20:05:26.4593543,5.3E-05,-0.785315,1.1E-05,-2.355974,7.3E-05,1.57108,0.785597,0.01,0.01
2024-08-12 20:05:26.4672346,2024-08-12 20:05:26.4674259,5.8E-05,-0.785315,9E-06,-2.355974,7.6E-05,1.571081,0.785597,0.01,0.01
2024-08-12 20:05:26.4794052,2024-08-12 20:05:26.4795925,5.5E-05,-0.785319,1.1E-05,-2.355974,7.3E-05,1.571079,0.785596,0.01,0.01
2024-08-12 20:05:26.4874662,2024-08-12 20:05:26.4876456,5.8E-05,-0.785318,9E-06,-2.355969,7.3E-05,1.57108,0.785603,0.01,0.01
2024-08-12 20:05:26.4996323,2024-08-12 20:05:26.4998663,5.5E-05,-0.785323,9E-06,-2.355977,7.2E-05,1.571081,0.785604,0.01,0.01
2024-08-12 20:05:26.5077384,2024-08-12 20:05:26.5079306,5.8E-05,-0.785318,6E-06,-2.355977,7.3E-05,1.571081,0.785603,0.01,0.01
2024-08-12 20:05:26.5199517,2024-08-12 20:05:26.5201511,5.8E-05,-0.785315,1.1E-05,-2.355979,7.3E-05,1.57108,0.785604,0.01,0.01
2024-08-12 20:05:26.5280653,2024-08-12 20:05:26.5282902,5.5E-05,-0.785318,1.1E-05,-2.355974,7.2E-05,1.571079,0.785604,0.01,0.01
2024-08-12 20:05:26.5403390,2024-08-12 20:05:26.5405336,5.5E-05,-0.785315,6E-06,-2.355971,7.4E-05,1.571081,0.785601,0.01,0.01
2024-08-12 20:05:26.5484478,2024-08-12 20:05:26.5486482,5.3E-05,-0.78532,1.1E-05,-2.355977,7.4E-05,1.57108,0.785603,0.01,0.01
2024-08-12 20:05:26.5606631,2024-08-12 20:05:26.5608693,5.5E-05,-0.785315,1.1E-05,-2.355974,7.2E-05,1.57108,0.785598,0.01,0.01
2024-08-12 20:05:26.5687767,2024-08-12 20:05:26.5689698,5.2E-05,-0.785318,9E-06,-2.355974,7.3E-05,1.57108,0.785602,0.01,0.01
2024-08-12 20:05:26.5788406,2024-08-12 20:05:26.5790241,5.5E-05,-0.785326,1.1E-05,-2.355971,7.2E-05,1.571081,0.785602,0.01,0.01
2024-08-12 20:05:26.5869178,2024-08-12 20:05:26.5871340,5.2E-05,-0.785321,1.4E-05,-2.355974,7.2E-05,1.57108,0.7856,0.01,0.01
2024-08-12 20:05:26.5990262,2024-08-12 20:05:26.5992236,5.8E-05,-0.785323,9E-06,-2.355974,7.5E-05,1.57108,0.785598,0.01,0.01
2024-08-12 20:05:26.6070873,2024-08-12 20:05:26.6072993,5.8E-05,-0.785318,1.1E-05,-2.355971,7.5E-05,1.571079,0.7856,0.01,0.01
2024-08-12 20:05:26.6192036,2024-08-12 20:05:26.6194337,5.6E-05,-0.785318,1.1E-05,-2.355974,7.4E-05,1.57108,0.785602,0.01,0.01
2024-08-12 20:05:26.6272625,2024-08-12 20:05:26.6274579,5.7E-05,-0.785324,9E-06,-2.355977,7.2E-05,1.571081,0.785602,0.01,0.01
2024-08-12 20:05:26.6394850,2024-08-12 20:05:26.6396974,5.8E-05,-0.78532,9E-06,-2.355974,7.4E-05,1.571082,0.785602,0.01,0.01
2024-08-12 20:05:26.6475494,2024-08-12 20:05:26.6477424,5.4E-05,-0.785318,9E-06,-2.355974,7.4E-05,1.571081,0.7856,0.01,0.01
2024-08-12 20:05:26.6596585,2024-08-12 20:05:26.6598657,5.3E-05,-0.785318,1.4E-05,-2.355977,7.3E-05,1.57108,0.785598,0.01,0.01
2024-08-12 20:05:26.6677203,2024-08-12 20:05:26.6679252,5.3E-05,-0.785318,1.1E-05,-2.355979,7.4E-05,1.57108,0.785599,0.01,0.01
2024-08-12 20:05:26.6798355,2024-08-12 20:05:26.6800532,5.5E-05,-0.785314,1.1E-05,-2.355977,7.3E-05,1.57108,0.7856,0.01,0.01
2024-08-12 20:05:26.6878970,2024-08-12 20:05:26.6880896,5.5E-05,-0.785316,1.4E-05,-2.355974,7.5E-05,1.57108,0.785598,0.01,0.01
2024-08-12 20:05:26.7000171,2024-08-12 20:05:26.7002386,5.8E-05,-0.785321,6E-06,-2.355974,7.5E-05,1.571081,0.785602,0.01,0.01
2024-08-12 20:05:26.7080780,2024-08-12 20:05:26.7082863,5.3E-05,-0.785313,6E-06,-2.355969,7.4E-05,1.571079,0.785602,0.01,0.01
2024-08-12 20:05:26.7201879,2024-08-12 20:05:26.7203871,5.3E-05,-0.785321,1.4E-05,-2.355974,7.4E-05,1.571079,0.7856,0.01,0.01
2024-08-12 20:05:26.7282434,2024-08-12 20:05:26.7284402,5.7E-05,-0.785315,1.1E-05,-2.355974,7.3E-05,1.571081,0.785603,0.01,0.01
2024-08-12 20:05:26.7403591,2024-08-12 20:05:26.7405429,5.5E-05,-0.785318,1.1E-05,-2.355974,7.3E-05,1.57108,0.785603,0.01,0.01
2024-08-12 20:05:26.7484169,2024-08-12 20:05:26.7486268,5.8E-05,-0.785323,1.1E-05,-2.355974,7.5E-05,1.57108,0.7856,0.01,0.01
2024-08-12 20:05:26.7605262,2024-08-12 20:05:26.7607041,5.3E-05,-0.785318,6E-06,-2.355974,7.4E-05,1.571081,0.785598,0.01,0.01
2024-08-12 20:05:26.7685866,2024-08-12 20:05:26.7687916,5.3E-05,-0.785323,1.1E-05,-2.355969,7.1E-05,1.571079,0.785597,0.01,0.01
2024-08-12 20:05:26.7786448,2024-08-12 20:05:26.7788067,5.8E-05,-0.785323,1.1E-05,-2.355974,7.4E-05,1.57108,0.785597,0.01,0.01
2024-08-12 20:05:26.7867045,2024-08-12 20:05:26.7868790,5.8E-05,-0.785315,6E-06,-2.355971,7.2E-05,1.57108,0.785596,0.01,0.01
2024-08-12 20:05:26.7988192,2024-08-12 20:05:26.7989974,5.7E-05,-0.78532,9E-06,-2.355974,7.4E-05,1.571079,0.7856,0.01,0.01
2024-08-12 20:05:26.8068796,2024-08-12 20:05:26.8070577,5.6E-05,-0.78531,1.1E-05,-2.355974,7.3E-05,1.571081,0.7856,0.01,0.01
2024-08-12 20:05:26.8189903,2024-08-12 20:05:26.8191817,5.5E-05,-0.785323,1.1E-05,-2.355971,7.3E-05,1.571078,0.7856,0.01,0.01
2024-08-12 20:05:26.8270483,2024-08-12 20:05:26.8272175,5.8E-05,-0.785321,9E-06,-2.355971,7.3E-05,1.57108,0.785599,0.01,0.01
2024-08-12 20:05:26.8391639,2024-08-12 20:05:26.8393275,5.2E-05,-0.78532,1.1E-05,-2.355979,7.4E-05,1.571081,0.7856,0.01,0.01
2024-08-12 20:05:26.8472215,2024-08-12 20:05:26.8473837,4.9E-05,-0.785315,9E-06,-2.355969,7.4E-05,1.57108,0.785596,0.01,0.01
2024-08-12 20:05:26.8593382,2024-08-12 20:05:26.8595087,5.8E-05,-0.785321,1.1E-05,-2.355974,7.3E-05,1.571081,0.785604,0.01,0.01
2024-08-12 20:05:26.8673964,2024-08-12 20:05:26.8675764,5.5E-05,-0.785319,6E-06,-2.355977,7.4E-05,1.571081,0.785604,0.01,0.01
2024-08-12 20:05:26.8795218,2024-08-12 20:05:26.8797179,5.3E-05,-0.785321,1.4E-05,-2.355977,7.3E-05,1.571079,0.785601,0.01,0.01
2024-08-12 20:05:26.8875713,2024-08-12 20:05:26.8877357,6.1E-05,-0.785318,1.1E-05,-2.355969,7.3E-05,1.57108,0.785602,0.01,0.01
2024-08-12 20:05:26.8996952,2024-08-12 20:05:26.8998769,5.5E-05,-0.785321,1.1E-05,-2.355974,7.4E-05,1.57108,0.785603,0.01,0.01
2024-08-12 20:05:26.9077555,2024-08-12 20:05:26.9079670,5.5E-05,-0.78532,6E-06,-2.355971,7.5E-05,1.571079,0.7856,0.01,0.01
2024-08-12 20:05:26.9198663,2024-08-12 20:05:26.9200343,5.8E-05,-0.785318,1.1E-05,-2.355977,7.4E-05,1.57108,0.785603,0.01,0.01
2024-08-12 20:05:26.9279322,2024-08-12 20:05:26.9281246,6.1E-05,-0.78532,6E-06,-2.355979,7.4E-05,1.571079,0.7856,0.01,0.01
2024-08-12 20:05:26.9400369,2024-08-12 20:05:26.9402142,5.8E-05,-0.785321,1.1E-05,-2.355977,7.3E-05,1.57108,0.785599,0.01,0.01
2024-08-12 20:05:26.9480941,2024-08-12 20:05:26.9482619,5.5E-05,-0.785315,1.1E-05,-2.355974,7.4E-05,1.57108,0.7856,0.01,0.01
2024-08-12 20:05:26.9602173,2024-08-12 20:05:26.9603946,5.5E-05,-0.785324,6E-06,-2.355974,7.5E-05,1.571081,0.785597,0.01,0.01
2024-08-12 20:05:26.9683572,2024-08-12 20:05:26.9685387,5.8E-05,-0.78532,1.1E-05,-2.355974,7.4E-05,1.57108,0.785598,0.01,0.01
2024-08-12 20:05:26.9786413,2024-08-12 20:05:26.9788496,6.1E-05,-0.785321,9E-06,-2.355974,7.3E-05,1.571079,0.785603,0.01,0.01
2024-08-12 20:05:26.9866942,2024-08-12 20:05:26.9868663,6E-05,-0.785321,1.1E-05,-2.355971,7.6E-05,1.571081,0.785603,0.01,0.01
2024-08-12 20:05:26.9988008,2024-08-12 20:05:26.9989592,5.5E-05,-0.785321,9E-06,-2.355974,7.4E-05,1.57108,0.7856,0.01,0.01
2024-08-12 20:05:27.0068606,2024-08-12 20:05:27.0070204,5.2E-05,-0.785318,6E-06,-2.355974,7.6E-05,1.57108,0.785602,0.01,0.01
2024-08-12 20:05:27.0189892,2024-08-12 20:05:27.0192040,5.3E-05,-0.785326,1.1E-05,-2.355974,7.3E-05,1.571079,0.7856,0.01,0.01
2024-08-12 20:05:27.0270449,2024-08-12 20:05:27.0272249,5E-05,-0.785318,9E-06,-2.355974,7.2E-05,1.571079,0.7856,0.01,0.01
2024-08-12 20:05:27.0391618,2024-08-12 20:05:27.0393448,5.3E-05,-0.785324,9E-06,-2.355974,7.4E-05,1.571079,0.785599,0.01,0.01
2024-08-12 20:05:27.0472201,2024-08-12 20:05:27.0474041,5.7E-05,-0.785319,1.7E-05,-2.355971,7.4E-05,1.571079,0.7856,0.01,0.01
2024-08-12 20:05:27.0593260,2024-08-12 20:05:27.0594881,5.5E-05,-0.785318,9E-06,-2.355977,7.5E-05,1.571081,0.7856,0.01,0.01
2024-08-12 20:05:27.0673904,2024-08-12 20:05:27.0675669,5.5E-05,-0.785321,1.1E-05,-2.355974,7.3E-05,1.571079,0.785602,0.01,0.01
2024-08-12 20:05:27.0795020,2024-08-12 20:05:27.0796730,6E-05,-0.785323,9E-06,-2.355971,7.5E-05,1.57108,0.785601,0.01,0.01
2024-08-12 20:05:27.0875566,2024-08-12 20:05:27.0877186,5.8E-05,-0.785315,1.4E-05,-2.355971,7.3E-05,1.571079,0.785604,0.01,0.01
2024-08-12 20:05:27.0996722,2024-08-12 20:05:27.0998458,5.3E-05,-0.785318,9E-06,-2.355977,7.3E-05,1.571079,0.785603,0.01,0.01
2024-08-12 20:05:27.1077310,2024-08-12 20:05:27.1079084,5.5E-05,-0.78532,1.1E-05,-2.355977,7.4E-05,1.571079,0.785603,0.01,0.01
2024-08-12 20:05:27.1198466,2024-08-12 20:05:27.1200247,5.5E-05,-0.785313,9E-06,-2.355977,7.5E-05,1.571081,0.785604,0.01,0.01
2024-08-12 20:05:27.1279042,2024-08-12 20:05:27.1280760,5.3E-05,-0.785318,1.4E-05,-2.355969,7.4E-05,1.571079,0.785604,0.01,0.01
2024-08-12 20:05:27.1400278,2024-08-12 20:05:27.1402083,6E-05,-0.785318,6E-06,-2.355971,7.4E-05,1.571079,0.785603,0.01,0.01
2024-08-12 20:05:27.1480761,2024-08-12 20:05:27.1482442,5.6E-05,-0.785318,9E-06,-2.355974,7.2E-05,1.57108,0.785605,0.01,0.01
2024-08-12 20:05:27.1601900,2024-08-12 20:05:27.1603585,5.3E-05,-0.785318,1.4E-05,-2.355971,7.3E-05,1.57108,0.785605,0.01,0.01
2024-08-12 20:05:27.1682529,2024-08-12 20:05:27.1684097,6.1E-05,-0.78532,1.1E-05,-2.355971,7.3E-05,1.57108,0.785605,0.01,0.01
2024-08-12 20:05:27.1803724,2024-08-12 20:05:27.1805404,5.5E-05,-0.785318,6E-06,-2.355974,7.3E-05,1.571079,0.7856,0.01,0.01
2024-08-12 20:05:27.1884298,2024-08-12 20:05:27.1886050,5.8E-05,-0.785321,1.1E-05,-2.355971,7.3E-05,1.571078,0.785597,0.01,0.01
2024-08-12 20:05:27.2005581,2024-08-12 20:05:27.2007632,5.8E-05,-0.785315,1.1E-05,-2.355977,7.3E-05,1.571081,0.785596,0.01,0.01
2024-08-12 20:05:27.2086046,2024-08-12 20:05:27.2087691,5.5E-05,-0.785313,1.1E-05,-2.355974,7.4E-05,1.57108,0.785596,0.01,0.01
2024-08-12 20:05:27.2186468,2024-08-12 20:05:27.2188130,5.6E-05,-0.78532,1.4E-05,-2.355979,7.4E-05,1.57108,0.785599,0.01,0.01
2024-08-12 20:05:27.2389087,2024-08-12 20:05:27.2390985,5.8E-05,-0.785316,9E-06,-2.355971,7.4E-05,1.57108,0.7856,0.01,0.01
2024-08-12 20:05:27.2469580,2024-08-12 20:05:27.2471291,5.5E-05,-0.785318,1.1E-05,-2.355977,7.5E-05,1.571081,0.785601,0.01,0.01
2024-08-12 20:05:27.2590731,2024-08-12 20:05:27.2592491,6E-05,-0.78532,9E-06,-2.355974,7.4E-05,1.57108,0.7856,0.01,0.01
2024-08-12 20:05:27.2671315,2024-08-12 20:05:27.2673098,5.7E-05,-0.785313,1.4E-05,-2.355974,7.5E-05,1.57108,0.785598,0.01,0.01
2024-08-12 20:05:27.2792554,2024-08-12 20:05:27.2794266,5.7E-05,-0.785318,1.1E-05,-2.355971,7.4E-05,1.571081,0.7856,0.01,0.01
2024-08-12 20:05:27.2873165,2024-08-12 20:05:27.2874867,5.5E-05,-0.785318,9E-06,-2.355974,7.5E-05,1.571079,0.7856,0.01,0.01
2024-08-12 20:05:27.2994447,2024-08-12 20:05:27.2996295,5.5E-05,-0.785315,9E-06,-2.355971,7.3E-05,1.571081,0.785602,0.01,0.01
2024-08-12 20:05:27.3075651,2024-08-12 20:05:27.3077529,5.2E-05,-0.785318,6E-06,-2.355974,7.4E-05,1.571079,0.785601,0.01,0.01
2024-08-12 20:05:27.3196809,2024-08-12 20:05:27.3198516,5.4E-05,-0.785318,1.4E-05,-2.355977,7.5E-05,1.571079,0.785601,0.01,0.01
2024-08-12 20:05:27.3277477,2024-08-12 20:05:27.3279182,5.2E-05,-0.785318,1.4E-05,-2.355974,7.5E-05,1.571079,0.785599,0.01,0.01
2024-08-12 20:05:27.3398667,2024-08-12 20:05:27.3400479,5.8E-05,-0.785318,1.1E-05,-2.355977,7.3E-05,1.571082,0.785598,0.01,0.01
2024-08-12 20:05:27.3479428,2024-08-12 20:05:27.3481304,5.3E-05,-0.78532,1.4E-05,-2.355977,7.5E-05,1.571081,0.785599,0.01,0.01
2024-08-12 20:05:27.3600621,2024-08-12 20:05:27.3602156,5.5E-05,-0.78532,1.1E-05,-2.355974,7.5E-05,1.57108,0.785601,0.01,0.01
2024-08-12 20:05:27.3681317,2024-08-12 20:05:27.3682921,5.2E-05,-0.78532,9E-06,-2.355974,7.2E-05,1.571078,0.785597,0.01,0.01
2024-08-12 20:05:27.3802546,2024-08-12 20:05:27.3804058,5.6E-05,-0.78532,1.1E-05,-2.355971,7.4E-05,1.571081,0.7856,0.01,0.01
2024-08-12 20:05:27.3883175,2024-08-12 20:05:27.3884510,6E-05,-0.785325,1.1E-05,-2.355971,7.4E-05,1.571081,0.785603,0.01,0.01
2024-08-12 20:05:27.4004392,2024-08-12 20:05:27.4006064,5.7E-05,-0.785321,6E-06,-2.355974,7.4E-05,1.571081,0.785601,0.01,0.01
2024-08-12 20:05:27.4085032,2024-08-12 20:05:27.4086149,5.5E-05,-0.785323,6E-06,-2.355971,7.5E-05,1.57108,0.785597,0.01,0.01
2024-08-12 20:05:27.4206344,2024-08-12 20:05:27.4207541,5.6E-05,-0.785318,1.1E-05,-2.355971,7.4E-05,1.571081,0.7856,0.01,0.01
2024-08-12 20:05:27.4286924,2024-08-12 20:05:27.4287974,5.5E-05,-0.785318,9E-06,-2.355974,7.3E-05,1.571079,0.7856,0.01,0.01
2024-08-12 20:05:27.4387641,2024-08-12 20:05:27.4388968,5.8E-05,-0.785321,1.1E-05,-2.355977,7.3E-05,1.571081,0.7856,0.01,0.01
2024-08-12 20:05:27.4475231,2024-08-12 20:05:27.4476250,6E-05,-0.785315,6E-06,-2.355971,7.3E-05,1.57108,0.785601,0.01,0.01
2024-08-12 20:05:27.4596496,2024-08-12 20:05:27.4597750,5.3E-05,-0.785323,9E-06,-2.355973,7.2E-05,1.571081,0.785597,0.01,0.01
2024-08-12 20:05:27.4677172,2024-08-12 20:05:27.4678401,5.5E-05,-0.785324,1.1E-05,-2.355971,7.3E-05,1.571079,0.785603,0.01,0.01
2024-08-12 20:05:27.4798318,2024-08-12 20:05:27.4799492,5.8E-05,-0.785318,1.1E-05,-2.355979,7.4E-05,1.571081,0.785603,0.01,0.01
2024-08-12 20:05:27.4879037,2024-08-12 20:05:27.4880235,5.6E-05,-0.785323,1.1E-05,-2.355974,7.3E-05,1.571081,0.785603,0.01,0.01
2024-08-12 20:05:27.5000192,2024-08-12 20:05:27.5001253,5.2E-05,-0.785318,1.1E-05,-2.355974,7.4E-05,1.571079,0.785601,0.01,0.01
2024-08-12 20:05:27.5080972,2024-08-12 20:05:27.5082164,5.2E-05,-0.785319,9E-06,-2.355969,7.3E-05,1.57108,0.7856,0.01,0.01
2024-08-12 20:05:27.5202163,2024-08-12 20:05:27.5203361,5.5E-05,-0.785318,9E-06,-2.355974,7.4E-05,1.571082,0.785597,0.01,0.01
2024-08-12 20:05:27.5282727,2024-08-12 20:05:27.5283717,6E-05,-0.785321,9E-06,-2.355976,7.4E-05,1.571081,0.785598,0.01,0.01
2024-08-12 20:05:27.5404010,2024-08-12 20:05:27.5405263,5.5E-05,-0.78532,1.1E-05,-2.355977,7.4E-05,1.57108,0.785603,0.01,0.01
2024-08-12 20:05:27.5484574,2024-08-12 20:05:27.5485579,5.9E-05,-0.785323,9E-06,-2.355977,7.4E-05,1.571081,0.7856,0.01,0.01
2024-08-12 20:05:27.5605859,2024-08-12 20:05:27.5606988,5.5E-05,-0.78532,6E-06,-2.355974,7.3E-05,1.57108,0.785602,0.01,0.01
2024-08-12 20:05:27.5686430,2024-08-12 20:05:27.5687524,5.8E-05,-0.785315,1.1E-05,-2.355974,7.4E-05,1.571081,0.785602,0.01,0.01
2024-08-12 20:05:27.5787181,2024-08-12 20:05:27.5788320,5.6E-05,-0.785321,1.4E-05,-2.355974,7.3E-05,1.571079,0.785605,0.01,0.01
2024-08-12 20:05:27.5867747,2024-08-12 20:05:27.5868859,5.5E-05,-0.785313,9E-06,-2.355974,7.4E-05,1.571081,0.785603,0.01,0.01
2024-08-12 20:05:27.5989041,2024-08-12 20:05:27.5990118,5.6E-05,-0.785324,1.1E-05,-2.355969,7.5E-05,1.571079,0.7856,0.01,0.01
2024-08-12 20:05:27.6069699,2024-08-12 20:05:27.6070696,5E-05,-0.78532,9E-06,-2.355971,7.4E-05,1.57108,0.785602,0.01,0.01
2024-08-12 20:05:27.6190835,2024-08-12 20:05:27.6191740,5.6E-05,-0.785318,6E-06,-2.355974,7.6E-05,1.57108,0.7856,0.01,0.01
2024-08-12 20:05:27.6271568,2024-08-12 20:05:27.6272542,5.3E-05,-0.785323,1.1E-05,-2.355974,7.5E-05,1.57108,0.7856,0.01,0.01
2024-08-12 20:05:27.6392701,2024-08-12 20:05:27.6393603,6E-05,-0.785321,1.1E-05,-2.355971,7.3E-05,1.57108,0.785599,0.01,0.01
2024-08-12 20:05:27.6474577,2024-08-12 20:05:27.6475612,5.8E-05,-0.78532,9E-06,-2.355974,7.3E-05,1.57108,0.785602,0.01,0.01
2024-08-12 20:05:27.6595873,2024-08-12 20:05:27.6596868,5.5E-05,-0.785321,9E-06,-2.355974,7.3E-05,1.571081,0.785601,0.01,0.01
2024-08-12 20:05:27.6676391,2024-08-12 20:05:27.6677140,5.5E-05,-0.785316,9E-06,-2.355977,7.3E-05,1.57108,0.785603,0.01,0.01
2024-08-12 20:05:27.6797676,2024-08-12 20:05:27.6798677,5.8E-05,-0.785321,9E-06,-2.355974,7.4E-05,1.57108,0.785604,0.01,0.01
2024-08-12 20:05:27.6878213,2024-08-12 20:05:27.6879119,5.3E-05,-0.785318,1.4E-05,-2.355971,7.5E-05,1.571081,0.785598,0.01,0.01
2024-08-12 20:05:27.6999484,2024-08-12 20:05:27.7000479,5.3E-05,-0.785318,1.1E-05,-2.355971,7.4E-05,1.57108,0.7856,0.01,0.01
2024-08-12 20:05:27.7080074,2024-08-12 20:05:27.7080957,5.5E-05,-0.785315,1.7E-05,-2.355974,7.4E-05,1.571079,0.785597,0.01,0.01
2024-08-12 20:05:27.7201336,2024-08-12 20:05:27.7202434,5.2E-05,-0.785323,1.1E-05,-2.355977,7.3E-05,1.571081,0.785597,0.01,0.01
2024-08-12 20:05:27.7281915,2024-08-12 20:05:27.7282864,5.8E-05,-0.785318,9E-06,-2.355974,7.2E-05,1.57108,0.785596,0.01,0.01
2024-08-12 20:05:27.7403107,2024-08-12 20:05:27.7403927,5.2E-05,-0.78532,1.1E-05,-2.355971,7.1E-05,1.57108,0.785603,0.01,0.01
2024-08-12 20:05:27.7483727,2024-08-12 20:05:27.7484632,6E-05,-0.785316,1.1E-05,-2.355971,7.4E-05,1.57108,0.785599,0.01,0.01
2024-08-12 20:05:27.7604911,2024-08-12 20:05:27.7605858,5.5E-05,-0.78532,6E-06,-2.355974,7.4E-05,1.571081,0.7856,0.01,0.01
2024-08-12 20:05:27.7685553,2024-08-12 20:05:27.7686498,5.5E-05,-0.785318,1.4E-05,-2.355974,7.2E-05,1.571081,0.785602,0.01,0.01
2024-08-12 20:05:27.7785817,2024-08-12 20:05:27.7786668,5.5E-05,-0.785318,9E-06,-2.355974,7.3E-05,1.571079,0.785602,0.01,0.01
2024-08-12 20:05:27.7866454,2024-08-12 20:05:27.7867301,5.5E-05,-0.785315,9E-06,-2.355971,7.1E-05,1.57108,0.7856,0.01,0.01
2024-08-12 20:05:27.7987679,2024-08-12 20:05:27.7988647,5E-05,-0.785324,1.1E-05,-2.355971,7.2E-05,1.571082,0.7856,0.01,0.01
2024-08-12 20:05:27.8068284,2024-08-12 20:05:27.8069172,5.3E-05,-0.785315,6E-06,-2.355974,7.2E-05,1.571079,0.785603,0.01,0.01
2024-08-12 20:05:27.8189489,2024-08-12 20:05:27.8190307,6E-05,-0.785323,9E-06,-2.355971,7.3E-05,1.571081,0.785603,0.01,0.01
2024-08-12 20:05:27.8270111,2024-08-12 20:05:27.8270981,6.1E-05,-0.785316,6E-06,-2.355974,7.5E-05,1.57108,0.785602,0.01,0.01
2024-08-12 20:05:27.8391287,2024-08-12 20:05:27.8392132,5.8E-05,-0.78532,1.4E-05,-2.355974,7.2E-05,1.57108,0.785602,0.01,0.01
2024-08-12 20:05:27.8471920,2024-08-12 20:05:27.8472784,5.7E-05,-0.785316,9E-06,-2.355974,7.4E-05,1.571081,0.785601,0.01,0.01
2024-08-12 20:05:27.8593101,2024-08-12 20:05:27.8594089,5.5E-05,-0.785318,1.1E-05,-2.355971,7.3E-05,1.571082,0.785597,0.01,0.01
2024-08-12 20:05:27.8673739,2024-08-12 20:05:27.8674982,5E-05,-0.78532,9E-06,-2.355974,7.3E-05,1.57108,0.785603,0.01,0.01
2024-08-12 20:05:27.8794911,2024-08-12 20:05:27.8795895,5.7E-05,-0.785318,1.1E-05,-2.355969,7.4E-05,1.571079,0.785603,0.01,0.01
2024-08-12 20:05:27.8875565,2024-08-12 20:05:27.8876427,5.5E-05,-0.78532,1.1E-05,-2.355974,7.3E-05,1.571081,0.785599,0.01,0.01
2024-08-12 20:05:27.8996753,2024-08-12 20:05:27.8997640,6.1E-05,-0.785315,6E-06,-2.355971,7.4E-05,1.571079,0.785597,0.01,0.01
2024-08-12 20:05:27.9077405,2024-08-12 20:05:27.9078377,5.7E-05,-0.785318,6E-06,-2.355974,7.2E-05,1.57108,0.785596,0.01,0.01
2024-08-12 20:05:27.9198614,2024-08-12 20:05:27.9199520,5.4E-05,-0.78532,9E-06,-2.355974,7.1E-05,1.571079,0.785597,0.01,0.01
2024-08-12 20:05:27.9279227,2024-08-12 20:05:27.9280065,5.8E-05,-0.785318,1.1E-05,-2.355974,7.4E-05,1.57108,0.785599,0.01,0.01
2024-08-12 20:05:27.9400418,2024-08-12 20:05:27.9401284,5.6E-05,-0.785316,3E-06,-2.355971,7.5E-05,1.571079,0.7856,0.01,0.01
2024-08-12 20:05:27.9481041,2024-08-12 20:05:27.9481915,5.8E-05,-0.785326,1.1E-05,-2.355974,7.3E-05,1.571083,0.785599,0.01,0.01
2024-08-12 20:05:27.9602233,2024-08-12 20:05:27.9603138,5.5E-05,-0.78532,9E-06,-2.355971,7.2E-05,1.57108,0.7856,0.01,0.01
2024-08-12 20:05:27.9682894,2024-08-12 20:05:27.9683900,5.5E-05,-0.785316,1.7E-05,-2.355971,7.3E-05,1.571081,0.7856,0.01,0.01
2024-08-12 20:05:27.9804080,2024-08-12 20:05:27.9804972,6E-05,-0.785318,1.1E-05,-2.355971,7.3E-05,1.571079,0.785605,0.01,0.01
2024-08-12 20:05:27.9884862,2024-08-12 20:05:27.9885950,5.8E-05,-0.785315,1.4E-05,-2.355977,7.6E-05,1.57108,0.785602,0.01,0.01
2024-08-12 20:05:28.0006013,2024-08-12 20:05:28.0007047,5.5E-05,-0.785321,1.1E-05,-2.355974,7.3E-05,1.571081,0.785604,0.01,0.01
2024-08-12 20:05:28.0086620,2024-08-12 20:05:28.0087561,5.3E-05,-0.785315,1.1E-05,-2.355971,7.5E-05,1.57108,0.7856,0.01,0.01
2024-08-12 20:05:28.0187424,2024-08-12 20:05:28.0188565,5.5E-05,-0.785326,1.1E-05,-2.355971,7.3E-05,1.57108,0.785602,0.01,0.01
2024-08-12 20:05:28.0389977,2024-08-12 20:05:28.0391152,6E-05,-0.785323,1.1E-05,-2.355974,7.4E-05,1.571079,0.785602,0.01,0.01
2024-08-12 20:05:28.0470600,2024-08-12 20:05:28.0471563,5.8E-05,-0.785319,6E-06,-2.355974,7.2E-05,1.571081,0.785603,0.01,0.01
2024-08-12 20:05:28.0591796,2024-08-12 20:05:28.0592952,5.8E-05,-0.785316,9E-06,-2.355974,7.4E-05,1.571081,0.7856,0.01,0.01
2024-08-12 20:05:28.0672371,2024-08-12 20:05:28.0673194,5.3E-05,-0.785313,1.1E-05,-2.355974,7.2E-05,1.57108,0.7856,0.01,0.01
2024-08-12 20:05:28.0793532,2024-08-12 20:05:28.0794374,5.5E-05,-0.785318,6E-06,-2.355971,7.5E-05,1.57108,0.785602,0.01,0.01
2024-08-12 20:05:28.0874148,2024-08-12 20:05:28.0874985,5.6E-05,-0.785321,1.1E-05,-2.355974,7.4E-05,1.57108,0.785602,0.01,0.01
2024-08-12 20:05:28.0995335,2024-08-12 20:05:28.0996202,5.5E-05,-0.785318,9E-06,-2.355977,7.4E-05,1.57108,0.7856,0.01,0.01
2024-08-12 20:05:28.1075976,2024-08-12 20:05:28.1076839,5.7E-05,-0.785319,1.1E-05,-2.355979,7.2E-05,1.57108,0.7856,0.01,0.01
2024-08-12 20:05:28.1197186,2024-08-12 20:05:28.1198127,5.8E-05,-0.78532,9E-06,-2.355977,7.2E-05,1.571079,0.7856,0.01,0.01
2024-08-12 20:05:28.1277806,2024-08-12 20:05:28.1278518,5.5E-05,-0.78532,1.1E-05,-2.355977,7.5E-05,1.571081,0.7856,0.01,0.01
2024-08-12 20:05:28.1399027,2024-08-12 20:05:28.1399993,5.8E-05,-0.785318,9E-06,-2.355971,7.3E-05,1.571081,0.785597,0.01,0.01
2024-08-12 20:05:28.1479651,2024-08-12 20:05:28.1480580,5.5E-05,-0.785315,9E-06,-2.355974,7.2E-05,1.571079,0.785597,0.01,0.01
2024-08-12 20:05:28.1600821,2024-08-12 20:05:28.1601638,5.7E-05,-0.785318,6E-06,-2.355974,7.4E-05,1.571079,0.785595,0.01,0.01
2024-08-12 20:05:28.1681487,2024-08-12 20:05:28.1682362,5.8E-05,-0.785315,1.1E-05,-2.355977,7.3E-05,1.571078,0.7856,0.01,0.01
2024-08-12 20:05:28.1802656,2024-08-12 20:05:28.1803464,5.8E-05,-0.785323,9E-06,-2.355979,7.4E-05,1.571078,0.785597,0.01,0.01
2024-08-12 20:05:28.1883301,2024-08-12 20:05:28.1884172,5.8E-05,-0.785319,1.1E-05,-2.355974,7.3E-05,1.571081,0.785602,0.01,0.01
2024-08-12 20:05:28.2004483,2024-08-12 20:05:28.2005350,5.5E-05,-0.78532,1.4E-05,-2.355974,7.2E-05,1.57108,0.785601,0.01,0.01
2024-08-12 20:05:28.2085136,2024-08-12 20:05:28.2085980,5.5E-05,-0.785323,1.1E-05,-2.355979,7.3E-05,1.571079,0.785598,0.01,0.01
2024-08-12 20:05:28.2206357,2024-08-12 20:05:28.2207358,5.3E-05,-0.785321,6E-06,-2.355977,7.4E-05,1.57108,0.785597,0.01,0.01
2024-08-12 20:05:28.2286979,2024-08-12 20:05:28.2287850,5.5E-05,-0.785313,1.1E-05,-2.355974,7.5E-05,1.57108,0.785597,0.01,0.01
2024-08-12 20:05:28.2387615,2024-08-12 20:05:28.2388588,5.3E-05,-0.785313,1.4E-05,-2.355977,7.3E-05,1.57108,0.785601,0.01,0.01
2024-08-12 20:05:28.2468241,2024-08-12 20:05:28.2469096,5.8E-05,-0.785316,1.1E-05,-2.355977,7.2E-05,1.57108,0.785602,0.01,0.01
2024-08-12 20:05:28.2589465,2024-08-12 20:05:28.2590397,5.5E-05,-0.78532,1.1E-05,-2.355971,7.4E-05,1.571079,0.785598,0.01,0.01
2024-08-12 20:05:28.2670094,2024-08-12 20:05:28.2670939,5.6E-05,-0.785323,6E-06,-2.355971,7.3E-05,1.57108,0.7856,0.01,0.01
2024-08-12 20:05:28.2801584,2024-08-12 20:05:28.2802677,5.8E-05,-0.785318,9E-06,-2.355971,7.4E-05,1.571081,0.785603,0.01,0.01
2024-08-12 20:05:28.2882142,2024-08-12 20:05:28.2882983,5.3E-05,-0.785313,1.1E-05,-2.355971,7.6E-05,1.571081,0.785606,0.01,0.01
2024-08-12 20:05:28.3003296,2024-08-12 20:05:28.3004196,5.4E-05,-0.785318,9E-06,-2.355974,7.4E-05,1.571081,0.7856,0.01,0.01
2024-08-12 20:05:28.3083986,2024-08-12 20:05:28.3084859,5.3E-05,-0.78532,9E-06,-2.355977,7.4E-05,1.571078,0.785597,0.01,0.01
2024-08-12 20:05:28.3206375,2024-08-12 20:05:28.3207665,5.5E-05,-0.785321,9E-06,-2.355979,7.3E-05,1.57108,0.7856,0.01,0.01
2024-08-12 20:05:28.3286920,2024-08-12 20:05:28.3287768,5.3E-05,-0.785318,9E-06,-2.355977,7.4E-05,1.571081,0.7856,0.01,0.01
2024-08-12 20:05:28.3387569,2024-08-12 20:05:28.3388475,5.5E-05,-0.785316,9E-06,-2.355977,7.5E-05,1.57108,0.7856,0.01,0.01
2024-08-12 20:05:28.3468159,2024-08-12 20:05:28.3468977,5.3E-05,-0.785318,9E-06,-2.355977,7.2E-05,1.57108,0.785601,0.01,0.01
2024-08-12 20:05:28.3589376,2024-08-12 20:05:28.3590329,5.8E-05,-0.78532,1.1E-05,-2.355971,7.3E-05,1.571079,0.785603,0.01,0.01
2024-08-12 20:05:28.3670027,2024-08-12 20:05:28.3670989,5.5E-05,-0.78532,1.1E-05,-2.355977,7.4E-05,1.571079,0.785598,0.01,0.01
2024-08-12 20:05:28.3791168,2024-08-12 20:05:28.3792023,5.8E-05,-0.785315,1.1E-05,-2.355969,7E-05,1.571081,0.785598,0.01,0.01
2024-08-12 20:05:28.3871807,2024-08-12 20:05:28.3872689,6E-05,-0.785325,1.1E-05,-2.355977,7.2E-05,1.571079,0.7856,0.01,0.01
2024-08-12 20:05:28.3993025,2024-08-12 20:05:28.3993945,5.8E-05,-0.785318,1.1E-05,-2.355971,7.4E-05,1.571079,0.785603,0.01,0.01
2024-08-12 20:05:28.4073620,2024-08-12 20:05:28.4074532,5.5E-05,-0.785315,6E-06,-2.355974,7.3E-05,1.571079,0.785602,0.01,0.01
2024-08-12 20:05:28.4194799,2024-08-12 20:05:28.4195701,5.3E-05,-0.78532,9E-06,-2.355974,7.3E-05,1.57108,0.785602,0.01,0.01
2024-08-12 20:05:28.4275430,2024-08-12 20:05:28.4276369,5.4E-05,-0.785315,1.1E-05,-2.355974,7.6E-05,1.571081,0.785598,0.01,0.01
2024-08-12 20:05:28.4396605,2024-08-12 20:05:28.4397457,5.3E-05,-0.785323,1.4E-05,-2.355974,7.3E-05,1.57108,0.7856,0.01,0.01
2024-08-12 20:05:28.4477239,2024-08-12 20:05:28.4478105,5.8E-05,-0.785321,6E-06,-2.355974,7.2E-05,1.57108,0.785597,0.01,0.01
2024-08-12 20:05:28.4598445,2024-08-12 20:05:28.4599359,6E-05,-0.785318,9E-06,-2.355974,7.3E-05,1.571081,0.785599,0.01,0.01
2024-08-12 20:05:28.4679119,2024-08-12 20:05:28.4680061,5.5E-05,-0.785318,1.1E-05,-2.355969,7.5E-05,1.571081,0.785598,0.01,0.01
2024-08-12 20:05:28.4800295,2024-08-12 20:05:28.4801173,5.7E-05,-0.785313,9E-06,-2.355977,7.3E-05,1.57108,0.785601,0.01,0.01
2024-08-12 20:05:28.4880961,2024-08-12 20:05:28.4881867,5.3E-05,-0.785323,1.1E-05,-2.355977,7.2E-05,1.571081,0.785597,0.01,0.01
2024-08-12 20:05:28.5002124,2024-08-12 20:05:28.5003066,5.6E-05,-0.785313,9E-06,-2.355974,7.3E-05,1.57108,0.785601,0.01,0.01
2024-08-12 20:05:28.5082714,2024-08-12 20:05:28.5083640,5.8E-05,-0.78532,9E-06,-2.355974,7.4E-05,1.571081,0.785604,0.01,0.01
2024-08-12 20:05:28.5203844,2024-08-12 20:05:28.5204734,5.7E-05,-0.785323,1.4E-05,-2.355977,7.4E-05,1.571081,0.785599,0.01,0.01
2024-08-12 20:05:28.5284419,2024-08-12 20:05:28.5285304,5.5E-05,-0.785323,9E-06,-2.355977,7.4E-05,1.571081,0.785601,0.01,0.01
2024-08-12 20:05:28.5405596,2024-08-12 20:05:28.5406614,5.5E-05,-0.785318,1.1E-05,-2.355971,7.5E-05,1.571082,0.785598,0.01,0.01
2024-08-12 20:05:28.5486158,2024-08-12 20:05:28.5487015,5.5E-05,-0.78532,1.1E-05,-2.355974,7.3E-05,1.57108,0.785598,0.01,0.01
2024-08-12 20:05:28.5586743,2024-08-12 20:05:28.5587621,5.5E-05,-0.785321,8E-06,-2.355974,7.3E-05,1.57108,0.785601,0.01,0.01
2024-08-12 20:05:28.5667390,2024-08-12 20:05:28.5668312,5.7E-05,-0.785318,1.1E-05,-2.355974,7.4E-05,1.571081,0.785598,0.01,0.01
2024-08-12 20:05:28.5788468,2024-08-12 20:05:28.5789306,5.3E-05,-0.785318,1.1E-05,-2.355977,7.3E-05,1.571079,0.785603,0.01,0.01
2024-08-12 20:05:28.5869079,2024-08-12 20:05:28.5870007,5.3E-05,-0.785315,6E-06,-2.355974,7.2E-05,1.57108,0.785605,0.01,0.01
2024-08-12 20:05:28.5990255,2024-08-12 20:05:28.5991179,5.8E-05,-0.785323,9E-06,-2.355974,7.3E-05,1.571081,0.7856,0.01,0.01
2024-08-12 20:05:28.6070877,2024-08-12 20:05:28.6071871,5.7E-05,-0.785325,1.1E-05,-2.355977,7.5E-05,1.571081,0.785598,0.01,0.01
2024-08-12 20:05:28.6191981,2024-08-12 20:05:28.6192864,5.8E-05,-0.785318,9E-06,-2.355974,7.4E-05,1.571082,0.785599,0.01,0.01
2024-08-12 20:05:28.6272571,2024-08-12 20:05:28.6273432,5.8E-05,-0.785315,1.1E-05,-2.355977,7.3E-05,1.571081,0.785602,0.01,0.01
2024-08-12 20:05:28.6393695,2024-08-12 20:05:28.6394655,5.5E-05,-0.785318,1.1E-05,-2.355979,7.3E-05,1.571079,0.785602,0.01,0.01
2024-08-12 20:05:28.6474247,2024-08-12 20:05:28.6475099,5.7E-05,-0.785323,9E-06,-2.355971,7.4E-05,1.571077,0.785604,0.01,0.01
2024-08-12 20:05:28.6596555,2024-08-12 20:05:28.6597599,5.6E-05,-0.785321,9E-06,-2.355971,7.4E-05,1.571079,0.785602,0.01,0.01
2024-08-12 20:05:28.6677094,2024-08-12 20:05:28.6677940,5.7E-05,-0.785323,9E-06,-2.355977,7.3E-05,1.571079,0.785603,0.01,0.01
2024-08-12 20:05:28.6798195,2024-08-12 20:05:28.6799018,5.8E-05,-0.785318,1.1E-05,-2.355977,7.3E-05,1.571079,0.785603,0.01,0.01
2024-08-12 20:05:28.6878834,2024-08-12 20:05:28.6879693,5.6E-05,-0.785313,1.1E-05,-2.355974,7.4E-05,1.571081,0.785603,0.01,0.01
2024-08-12 20:05:28.6999956,2024-08-12 20:05:28.7000826,5.5E-05,-0.785313,9E-06,-2.355977,7.6E-05,1.57108,0.7856,0.01,0.01
2024-08-12 20:05:28.7080555,2024-08-12 20:05:28.7081422,5.5E-05,-0.785316,6E-06,-2.355974,7.4E-05,1.57108,0.7856,0.01,0.01
2024-08-12 20:05:28.7201687,2024-08-12 20:05:28.7202689,5.7E-05,-0.785316,1.6E-05,-2.355977,7.2E-05,1.57108,0.785603,0.01,0.01
2024-08-12 20:05:28.7282268,2024-08-12 20:05:28.7283108,5.5E-05,-0.785315,9E-06,-2.355974,7.2E-05,1.57108,0.7856,0.01,0.01
2024-08-12 20:05:28.7403434,2024-08-12 20:05:28.7404464,5.7E-05,-0.785315,9E-06,-2.355971,7.1E-05,1.57108,0.785601,0.01,0.01
2024-08-12 20:05:28.7483996,2024-08-12 20:05:28.7484889,5.8E-05,-0.78532,9E-06,-2.355974,7.3E-05,1.571079,0.785597,0.01,0.01
2024-08-12 20:05:28.7605117,2024-08-12 20:05:28.7605987,5.8E-05,-0.785321,1.1E-05,-2.355974,7.5E-05,1.571079,0.7856,0.01,0.01
2024-08-12 20:05:28.7685682,2024-08-12 20:05:28.7686502,5.3E-05,-0.785321,1.1E-05,-2.355974,7.5E-05,1.571079,0.785597,0.01,0.01
2024-08-12 20:05:28.7785783,2024-08-12 20:05:28.7786631,5.5E-05,-0.785314,9E-06,-2.355974,7.4E-05,1.57108,0.7856,0.01,0.01
2024-08-12 20:05:28.7866381,2024-08-12 20:05:28.7867241,5.5E-05,-0.785318,1.4E-05,-2.355971,7.4E-05,1.57108,0.785601,0.01,0.01
2024-08-12 20:05:28.7987517,2024-08-12 20:05:28.7988410,5.3E-05,-0.785318,1.1E-05,-2.355971,7.2E-05,1.57108,0.785602,0.01,0.01
2024-08-12 20:05:28.8068096,2024-08-12 20:05:28.8068939,5.1E-05,-0.785318,1.1E-05,-2.355974,7.4E-05,1.571079,0.785604,0.01,0.01
2024-08-12 20:05:28.8189273,2024-08-12 20:05:28.8190243,5.6E-05,-0.785326,1.4E-05,-2.355977,7.5E-05,1.57108,0.785602,0.01,0.01
2024-08-12 20:05:28.8391896,2024-08-12 20:05:28.8393009,5.7E-05,-0.785318,1.1E-05,-2.355974,7.4E-05,1.57108,0.785603,0.01,0.01
2024-08-12 20:05:28.8473083,2024-08-12 20:05:28.8473948,5.7E-05,-0.785323,9E-06,-2.355979,7.5E-05,1.571082,0.785603,0.01,0.01
2024-08-12 20:05:28.8595016,2024-08-12 20:05:28.8595883,5.5E-05,-0.785316,1.1E-05,-2.355974,7.3E-05,1.57108,0.785601,0.01,0.01
2024-08-12 20:05:28.8676027,2024-08-12 20:05:28.8676862,6E-05,-0.785321,1.1E-05,-2.355977,7.4E-05,1.571081,0.785596,0.01,0.01
2024-08-12 20:05:28.8797321,2024-08-12 20:05:28.8798190,5.7E-05,-0.785321,1.7E-05,-2.355969,7.4E-05,1.57108,0.785597,0.01,0.01
2024-08-12 20:05:28.8877903,2024-08-12 20:05:28.8878751,5.3E-05,-0.785318,1.1E-05,-2.355974,7.5E-05,1.57108,0.785597,0.01,0.01
2024-08-12 20:05:28.8999028,2024-08-12 20:05:28.8999954,6.1E-05,-0.785316,1.1E-05,-2.355976,7.2E-05,1.571079,0.785597,0.01,0.01
2024-08-12 20:05:28.9079627,2024-08-12 20:05:28.9080524,5.8E-05,-0.785323,1.4E-05,-2.355966,7.4E-05,1.571078,0.785598,0.01,0.01
2024-08-12 20:05:28.9200748,2024-08-12 20:05:28.9201700,5.5E-05,-0.78532,1.4E-05,-2.355974,7.3E-05,1.571078,0.7856,0.01,0.01
2024-08-12 20:05:28.9281356,2024-08-12 20:05:28.9282274,5.5E-05,-0.785313,1.1E-05,-2.355974,7.5E-05,1.57108,0.785601,0.01,0.01
2024-08-12 20:05:28.9402575,2024-08-12 20:05:28.9403467,5.5E-05,-0.785318,1.1E-05,-2.355969,7.4E-05,1.57108,0.785605,0.01,0.01
2024-08-12 20:05:28.9483224,2024-08-12 20:05:28.9484083,5.5E-05,-0.785315,9E-06,-2.355971,7.3E-05,1.571081,0.7856,0.01,0.01
2024-08-12 20:05:28.9604399,2024-08-12 20:05:28.9605255,5.2E-05,-0.785318,1.1E-05,-2.355974,7.4E-05,1.57108,0.785602,0.01,0.01
2024-08-12 20:05:28.9685080,2024-08-12 20:05:28.9686005,5.6E-05,-0.78532,9E-06,-2.355979,7.2E-05,1.57108,0.785602,0.01,0.01
2024-08-12 20:05:28.9806283,2024-08-12 20:05:28.9807240,5E-05,-0.785323,6E-06,-2.355974,7.4E-05,1.571076,0.785601,0.01,0.01
2024-08-12 20:05:28.9866945,2024-08-12 20:05:28.9867897,5.8E-05,-0.785316,1.1E-05,-2.355971,7.4E-05,1.571081,0.785599,0.01,0.01
2024-08-12 20:05:28.9988175,2024-08-12 20:05:28.9989099,5.4E-05,-0.785313,9E-06,-2.355971,7.3E-05,1.571081,0.785598,0.01,0.01
2024-08-12 20:05:29.0068824,2024-08-12 20:05:29.0069804,5.3E-05,-0.78532,6E-06,-2.355974,7.2E-05,1.57108,0.785602,0.01,0.01
2024-08-12 20:05:29.0190038,2024-08-12 20:05:29.0190896,5.1E-05,-0.785316,1.4E-05,-2.355977,7.1E-05,1.571081,0.7856,0.01,0.01
2024-08-12 20:05:29.0270723,2024-08-12 20:05:29.0271765,5.5E-05,-0.785318,9E-06,-2.355969,7.4E-05,1.571081,0.785602,0.01,0.01
2024-08-12 20:05:29.0391898,2024-08-12 20:05:29.0392809,5.8E-05,-0.785316,9E-06,-2.355971,7.3E-05,1.571081,0.785603,0.01,0.01
2024-08-12 20:05:29.0472882,2024-08-12 20:05:29.0473715,5.5E-05,-0.785313,9E-06,-2.355971,7.3E-05,1.571078,0.785597,0.01,0.01
2024-08-12 20:05:29.0594790,2024-08-12 20:05:29.0595664,5.6E-05,-0.785326,1.1E-05,-2.355974,7.3E-05,1.571079,0.785599,0.01,0.01
2024-08-12 20:05:29.0675769,2024-08-12 20:05:29.0676639,5.5E-05,-0.785318,1.1E-05,-2.355974,7.3E-05,1.571079,0.785602,0.01,0.01
2024-08-12 20:05:29.0797365,2024-08-12 20:05:29.0798230,5.7E-05,-0.785323,1.1E-05,-2.355974,7.3E-05,1.57108,0.785601,0.01,0.01
2024-08-12 20:05:29.0878037,2024-08-12 20:05:29.0878896,5.5E-05,-0.78532,1.1E-05,-2.355974,7.3E-05,1.571081,0.785602,0.01,0.01
2024-08-12 20:05:29.1000010,2024-08-12 20:05:29.1000964,5.8E-05,-0.78532,1.1E-05,-2.355974,7.2E-05,1.571081,0.785603,0.01,0.01
2024-08-12 20:05:29.1081081,2024-08-12 20:05:29.1082054,5.6E-05,-0.785313,9E-06,-2.355974,7.4E-05,1.57108,0.785601,0.01,0.01
2024-08-12 20:05:29.1202959,2024-08-12 20:05:29.1203829,6.1E-05,-0.785325,1.4E-05,-2.355969,7.3E-05,1.571077,0.7856,0.01,0.01
2024-08-12 20:05:29.1284361,2024-08-12 20:05:29.1285220,5.7E-05,-0.785315,9E-06,-2.355974,7.3E-05,1.57108,0.785597,0.01,0.01
2024-08-12 20:05:29.1405641,2024-08-12 20:05:29.1406600,6E-05,-0.785315,1.1E-05,-2.355974,7.1E-05,1.57108,0.7856,0.01,0.01
2024-08-12 20:05:29.1486266,2024-08-12 20:05:29.1487100,5.5E-05,-0.785318,1.1E-05,-2.355971,7.3E-05,1.571079,0.7856,0.01,0.01
2024-08-12 20:05:29.1586958,2024-08-12 20:05:29.1587803,5.5E-05,-0.785315,1.1E-05,-2.355969,7.4E-05,1.571081,0.785601,0.01,0.01
2024-08-12 20:05:29.1667591,2024-08-12 20:05:29.1668427,5.2E-05,-0.785316,6E-06,-2.355971,7.4E-05,1.57108,0.785601,0.01,0.01
2024-08-12 20:05:29.1788773,2024-08-12 20:05:29.1789612,5.8E-05,-0.785315,1.1E-05,-2.355974,7.4E-05,1.57108,0.785604,0.01,0.01
2024-08-12 20:05:29.1869403,2024-08-12 20:05:29.1870227,5.5E-05,-0.785326,9E-06,-2.355974,7.4E-05,1.57108,0.785603,0.01,0.01
2024-08-12 20:05:29.1990637,2024-08-12 20:05:29.1991623,5.8E-05,-0.785321,1.1E-05,-2.355977,7.2E-05,1.571079,0.785603,0.01,0.01
2024-08-12 20:05:29.2071262,2024-08-12 20:05:29.2081307,6E-05,-0.785321,1.1E-05,-2.355969,7.3E-05,1.571081,0.785603,0.01,0.01
2024-08-12 20:05:29.2192580,2024-08-12 20:05:29.2193466,5.6E-05,-0.785318,1.4E-05,-2.355971,7.4E-05,1.57108,0.785603,0.01,0.01
2024-08-12 20:05:29.2273117,2024-08-12 20:05:29.2273956,5.5E-05,-0.785318,9E-06,-2.355971,7.3E-05,1.571079,0.7856,0.01,0.01
2024-08-12 20:05:29.2394331,2024-08-12 20:05:29.2395277,5.8E-05,-0.785319,9E-06,-2.355974,7.4E-05,1.571078,0.785601,0.01,0.01
2024-08-12 20:05:29.2474959,2024-08-12 20:05:29.2475880,5.3E-05,-0.785324,1.1E-05,-2.355977,7.3E-05,1.571079,0.785603,0.01,0.01
2024-08-12 20:05:29.2596123,2024-08-12 20:05:29.2596998,5.5E-05,-0.785315,1.1E-05,-2.355971,7.6E-05,1.57108,0.785602,0.01,0.01
2024-08-12 20:05:29.2676781,2024-08-12 20:05:29.2677658,5.6E-05,-0.785316,9E-06,-2.355974,7.4E-05,1.571081,0.7856,0.01,0.01
2024-08-12 20:05:29.2798673,2024-08-12 20:05:29.2799726,5.5E-05,-0.785323,6E-06,-2.355974,7.4E-05,1.571079,0.785601,0.01,0.01
2024-08-12 20:05:29.2879302,2024-08-12 20:05:29.2880240,5.5E-05,-0.785313,1.1E-05,-2.355974,7.2E-05,1.571082,0.7856,0.01,0.01
2024-08-12 20:05:29.3000885,2024-08-12 20:05:29.3001842,5.4E-05,-0.785318,9E-06,-2.355971,7.3E-05,1.571079,0.7856,0.01,0.01
2024-08-12 20:05:29.3082087,2024-08-12 20:05:29.3083116,5E-05,-0.785318,1.6E-05,-2.355977,7.1E-05,1.571082,0.785601,0.01,0.01
2024-08-12 20:05:29.3204584,2024-08-12 20:05:29.3205502,5.5E-05,-0.785318,7E-06,-2.355979,7.3E-05,1.57108,0.785601,0.01,0.01
2024-08-12 20:05:29.3266639,2024-08-12 20:05:29.3267763,6E-05,-0.785323,9E-06,-2.355971,7.5E-05,1.571081,0.785598,0.01,0.01
2024-08-12 20:05:29.3388465,2024-08-12 20:05:29.3389355,5.5E-05,-0.785315,6E-06,-2.355974,7.5E-05,1.571081,0.785598,0.01,0.01
2024-08-12 20:05:29.3469803,2024-08-12 20:05:29.3470663,5.5E-05,-0.78532,1.1E-05,-2.355971,7.4E-05,1.571079,0.7856,0.01,0.01
2024-08-12 20:05:29.3591070,2024-08-12 20:05:29.3591926,6E-05,-0.785326,1.1E-05,-2.355973,7.3E-05,1.57108,0.785595,0.01,0.01
2024-08-12 20:05:29.3905838,2024-08-12 20:05:29.3906989,5.4E-05,-0.785321,6E-06,-2.355972,7.5E-05,1.57108,0.7856,0.01,0.01
2024-08-12 20:05:29.3910609,2024-08-12 20:05:29.3911516,5.5E-05,-0.785318,9E-06,-2.355974,7.2E-05,1.571079,0.785603,0.01,0.01
2024-08-12 20:05:29.3920597,2024-08-12 20:05:29.3921566,5.5E-05,-0.785315,1.1E-05,-2.355977,7.4E-05,1.571081,0.7856,0.01,0.01
2024-08-12 20:05:29.4000748,2024-08-12 20:05:29.4001688,5.3E-05,-0.785318,1.1E-05,-2.355971,7.2E-05,1.571081,0.785597,0.01,0.01
2024-08-12 20:05:29.4082054,2024-08-12 20:05:29.4082956,5.5E-05,-0.785318,1.4E-05,-2.355971,7.3E-05,1.571081,0.785602,0.01,0.01
2024-08-12 20:05:29.4203947,2024-08-12 20:05:29.4204808,5.2E-05,-0.785326,1.1E-05,-2.355974,7.3E-05,1.571079,0.785599,0.01,0.01
2024-08-12 20:05:29.4284967,2024-08-12 20:05:29.4285812,5.8E-05,-0.785326,1.1E-05,-2.355971,7.2E-05,1.571081,0.7856,0.01,0.01
2024-08-12 20:05:29.4386006,2024-08-12 20:05:29.4387041,5.5E-05,-0.785315,9E-06,-2.355977,7.4E-05,1.571081,0.785595,0.01,0.01
2024-08-12 20:05:29.4467131,2024-08-12 20:05:29.4467986,5.8E-05,-0.785321,9E-06,-2.355972,7.3E-05,1.57108,0.785599,0.01,0.01
2024-08-12 20:05:29.4588725,2024-08-12 20:05:29.4589585,5.7E-05,-0.785312,1.2E-05,-2.355974,7.4E-05,1.57108,0.785602,0.01,0.01
2024-08-12 20:05:29.4669357,2024-08-12 20:05:29.4670198,5.4E-05,-0.785313,1.1E-05,-2.355976,7.4E-05,1.57108,0.785601,0.01,0.01
2024-08-12 20:05:29.4790914,2024-08-12 20:05:29.4791790,5.8E-05,-0.785318,6E-06,-2.355974,7.2E-05,1.57108,0.785603,0.01,0.01
2024-08-12 20:05:29.4871957,2024-08-12 20:05:29.4872787,5.5E-05,-0.785323,9E-06,-2.355971,7.4E-05,1.571081,0.785603,0.01,0.01
2024-08-12 20:05:29.4993898,2024-08-12 20:05:29.4994807,5.5E-05,-0.785318,9E-06,-2.355977,7.4E-05,1.571081,0.7856,0.01,0.01
2024-08-12 20:05:29.5074688,2024-08-12 20:05:29.5075771,5.8E-05,-0.78532,1.1E-05,-2.355974,7.2E-05,1.571079,0.785597,0.01,0.01
2024-08-12 20:05:29.5197044,2024-08-12 20:05:29.5197921,5.2E-05,-0.785321,3E-06,-2.355971,7.4E-05,1.57108,0.7856,0.01,0.01
2024-08-12 20:05:29.5278092,2024-08-12 20:05:29.5278996,5.5E-05,-0.78532,9E-06,-2.355974,7.3E-05,1.571081,0.785599,0.01,0.01
2024-08-12 20:05:29.5400220,2024-08-12 20:05:29.5401161,5.2E-05,-0.785316,1.1E-05,-2.355971,7.4E-05,1.571079,0.785597,0.01,0.01
2024-08-12 20:05:29.5480822,2024-08-12 20:05:29.5481678,5.3E-05,-0.78532,9E-06,-2.355971,7.5E-05,1.571081,0.785599,0.01,0.01
2024-08-12 20:05:29.5602024,2024-08-12 20:05:29.5602941,5.3E-05,-0.785321,1.1E-05,-2.355971,7.5E-05,1.57108,0.785599,0.01,0.01
2024-08-12 20:05:29.5682662,2024-08-12 20:05:29.5683574,6.1E-05,-0.785318,1.3E-05,-2.355974,7.3E-05,1.571078,0.785604,0.01,0.01
2024-08-12 20:05:29.5803864,2024-08-12 20:05:29.5804728,5.5E-05,-0.785323,1.7E-05,-2.355969,7.4E-05,1.571079,0.785603,0.01,0.01
2024-08-12 20:05:29.5884504,2024-08-12 20:05:29.5885370,5.5E-05,-0.785316,6E-06,-2.355971,7.3E-05,1.57108,0.785601,0.01,0.01
2024-08-12 20:05:29.6005682,2024-08-12 20:05:29.6006703,5.5E-05,-0.785316,1.4E-05,-2.355971,7.4E-05,1.571082,0.785604,0.01,0.01
2024-08-12 20:05:29.6086297,2024-08-12 20:05:29.6087155,5.3E-05,-0.785315,6E-06,-2.355977,7.4E-05,1.57108,0.785605,0.01,0.01
2024-08-12 20:05:29.6186948,2024-08-12 20:05:29.6187847,5.5E-05,-0.785315,1.1E-05,-2.355971,7.4E-05,1.571079,0.785602,0.01,0.01
2024-08-12 20:05:29.6388879,2024-08-12 20:05:29.6390017,5.5E-05,-0.78532,1.1E-05,-2.355974,7.2E-05,1.571081,0.785602,0.01,0.01
2024-08-12 20:05:29.6469482,2024-08-12 20:05:29.6470357,5.8E-05,-0.785321,9E-06,-2.355971,7.3E-05,1.57108,0.785603,0.01,0.01
2024-08-12 20:05:29.6591050,2024-08-12 20:05:29.6591893,5.8E-05,-0.785323,1.1E-05,-2.355974,7.3E-05,1.571081,0.7856,0.01,0.01
2024-08-12 20:05:29.6672001,2024-08-12 20:05:29.6672861,5.8E-05,-0.785316,9E-06,-2.355974,7.4E-05,1.571081,0.785602,0.01,0.01
2024-08-12 20:05:29.6793873,2024-08-12 20:05:29.6794898,5.2E-05,-0.785316,1.1E-05,-2.355971,7.2E-05,1.571079,0.785598,0.01,0.01
2024-08-12 20:05:29.6874879,2024-08-12 20:05:29.6875766,5.3E-05,-0.785318,9E-06,-2.355974,7.4E-05,1.57108,0.7856,0.01,0.01
2024-08-12 20:05:29.6996717,2024-08-12 20:05:29.6997618,5.2E-05,-0.785318,9E-06,-2.355969,7.2E-05,1.57108,0.785602,0.01,0.01
2024-08-12 20:05:29.7077813,2024-08-12 20:05:29.7078773,5.8E-05,-0.785318,1.1E-05,-2.355974,7.3E-05,1.57108,0.7856,0.01,0.01
2024-08-12 20:05:29.7199837,2024-08-12 20:05:29.7200751,5.8E-05,-0.78532,9E-06,-2.355971,7.4E-05,1.57108,0.7856,0.01,0.01
2024-08-12 20:05:29.7280822,2024-08-12 20:05:29.7281787,6E-05,-0.785325,1.1E-05,-2.355977,7.3E-05,1.571079,0.785602,0.01,0.01
2024-08-12 20:05:29.7402886,2024-08-12 20:05:29.7403856,5.3E-05,-0.785326,1.1E-05,-2.355977,7.4E-05,1.571081,0.7856,0.01,0.01
2024-08-12 20:05:29.7483838,2024-08-12 20:05:29.7484695,5.8E-05,-0.785315,9E-06,-2.355974,7.3E-05,1.57108,0.785603,0.01,0.01
2024-08-12 20:05:29.7605774,2024-08-12 20:05:29.7606634,5.8E-05,-0.785318,9E-06,-2.355971,7.3E-05,1.571081,0.785603,0.01,0.01
2024-08-12 20:05:29.7686835,2024-08-12 20:05:29.7687729,5.8E-05,-0.785318,9E-06,-2.355974,7.3E-05,1.571081,0.785604,0.01,0.01
2024-08-12 20:05:29.7787917,2024-08-12 20:05:29.7788769,6E-05,-0.785323,9E-06,-2.355977,7.4E-05,1.57108,0.785603,0.01,0.01
2024-08-12 20:05:29.7869001,2024-08-12 20:05:29.7869907,5.8E-05,-0.78532,9E-06,-2.355971,7.4E-05,1.571081,0.785604,0.01,0.01
2024-08-12 20:05:29.7991043,2024-08-12 20:05:29.7991926,6.1E-05,-0.78531,1.4E-05,-2.355977,7.4E-05,1.57108,0.785598,0.01,0.01
2024-08-12 20:05:29.8072081,2024-08-12 20:05:29.8073103,5.2E-05,-0.785319,6E-06,-2.355974,7.4E-05,1.571082,0.785601,0.01,0.01
2024-08-12 20:05:29.8193901,2024-08-12 20:05:29.8194790,5.8E-05,-0.785321,9E-06,-2.355971,7.3E-05,1.57108,0.785599,0.01,0.01
2024-08-12 20:05:29.8274998,2024-08-12 20:05:29.8275947,5.5E-05,-0.785318,9E-06,-2.355974,7.4E-05,1.57108,0.785603,0.01,0.01
2024-08-12 20:05:29.8396993,2024-08-12 20:05:29.8397890,5.8E-05,-0.785323,6E-06,-2.355974,7.3E-05,1.57108,0.785597,0.01,0.01
2024-08-12 20:05:29.8478059,2024-08-12 20:05:29.8478905,5.1E-05,-0.785318,1.1E-05,-2.355974,7.5E-05,1.57108,0.7856,0.01,0.01
2024-08-12 20:05:29.8599999,2024-08-12 20:05:29.8600860,5.8E-05,-0.785318,1.1E-05,-2.355974,7.4E-05,1.57108,0.785599,0.01,0.01
2024-08-12 20:05:29.8681062,2024-08-12 20:05:29.8681921,5.3E-05,-0.785318,9E-06,-2.355974,7.4E-05,1.571081,0.7856,0.01,0.01
2024-08-12 20:05:29.8802995,2024-08-12 20:05:29.8803874,5.8E-05,-0.785315,9E-06,-2.355977,7.3E-05,1.57108,0.785602,0.01,0.01
2024-08-12 20:05:29.8884000,2024-08-12 20:05:29.8884932,5.6E-05,-0.785321,9E-06,-2.355971,7.4E-05,1.571082,0.785603,0.01,0.01
2024-08-12 20:05:29.9005930,2024-08-12 20:05:29.9006842,5.4E-05,-0.785316,1.1E-05,-2.355974,7.3E-05,1.57108,0.7856,0.01,0.01
2024-08-12 20:05:29.9086980,2024-08-12 20:05:29.9087889,5.7E-05,-0.78532,1.1E-05,-2.355969,7.3E-05,1.571079,0.785603,0.01,0.01
2024-08-12 20:05:29.9187626,2024-08-12 20:05:29.9188484,5.3E-05,-0.785318,9E-06,-2.355971,7.4E-05,1.571079,0.785599,0.01,0.01
2024-08-12 20:05:29.9268670,2024-08-12 20:05:29.9269603,5.5E-05,-0.785326,9E-06,-2.355974,7.3E-05,1.57108,0.7856,0.01,0.01
2024-08-12 20:05:29.9390300,2024-08-12 20:05:29.9391194,5.8E-05,-0.785323,1.1E-05,-2.355971,7.3E-05,1.57108,0.7856,0.01,0.01
2024-08-12 20:05:29.9471309,2024-08-12 20:05:29.9472133,5.8E-05,-0.785319,1.1E-05,-2.355974,7.3E-05,1.57108,0.785601,0.01,0.01
2024-08-12 20:05:29.9593202,2024-08-12 20:05:29.9594159,5.3E-05,-0.785315,9E-06,-2.355974,7.3E-05,1.57108,0.7856,0.01,0.01
2024-08-12 20:05:29.9674208,2024-08-12 20:05:29.9675051,5.5E-05,-0.78532,9E-06,-2.355974,7.4E-05,1.57108,0.785601,0.01,0.01
2024-08-12 20:05:29.9796070,2024-08-12 20:05:29.9796977,5E-05,-0.785315,1.1E-05,-2.355974,7.4E-05,1.571081,0.7856,0.01,0.01
2024-08-12 20:05:29.9877110,2024-08-12 20:05:29.9877928,5.3E-05,-0.785323,9E-06,-2.355966,7.3E-05,1.571081,0.785595,0.01,0.01
2024-08-12 20:05:30.0001121,2024-08-12 20:05:30.0002242,6.1E-05,-0.785318,1.1E-05,-2.355977,7.3E-05,1.57108,0.785598,0.01,0.01
2024-08-12 20:05:30.0082004,2024-08-12 20:05:30.0082890,5.5E-05,-0.785323,1.1E-05,-2.355974,7.3E-05,1.571079,0.785597,0.01,0.01
2024-08-12 20:05:30.0203938,2024-08-12 20:05:30.0204846,5.3E-05,-0.785318,1.1E-05,-2.355969,7.3E-05,1.571081,0.785601,0.01,0.01
2024-08-12 20:05:30.0284683,2024-08-12 20:05:30.0285709,5.6E-05,-0.78532,9E-06,-2.355977,7.3E-05,1.57108,0.7856,0.01,0.01
2024-08-12 20:05:30.0405939,2024-08-12 20:05:30.0407099,5.7E-05,-0.785321,1.1E-05,-2.355971,7.3E-05,1.571079,0.785602,0.01,0.01
2024-08-12 20:05:30.0486507,2024-08-12 20:05:30.0487364,5.7E-05,-0.785324,9E-06,-2.355971,7.2E-05,1.571078,0.7856,0.01,0.01
2024-08-12 20:05:30.0587149,2024-08-12 20:05:30.0588080,5.6E-05,-0.785315,9E-06,-2.355971,7.3E-05,1.571081,0.785599,0.01,0.01
2024-08-12 20:05:30.0667781,2024-08-12 20:05:30.0668666,5E-05,-0.785321,1.4E-05,-2.355977,7.4E-05,1.57108,0.785601,0.01,0.01
2024-08-12 20:05:30.0788970,2024-08-12 20:05:30.0789845,6E-05,-0.785315,1.1E-05,-2.355971,7.5E-05,1.57108,0.785605,0.01,0.01
2024-08-12 20:05:30.0869647,2024-08-12 20:05:30.0870581,5.6E-05,-0.785323,1.1E-05,-2.355979,7.3E-05,1.57108,0.785601,0.01,0.01
2024-08-12 20:05:30.0990805,2024-08-12 20:05:30.0991668,5.5E-05,-0.78532,1.4E-05,-2.355977,7.3E-05,1.571081,0.785598,0.01,0.01
2024-08-12 20:05:30.1071462,2024-08-12 20:05:30.1072419,5.6E-05,-0.785313,1.1E-05,-2.355976,7.3E-05,1.571081,0.785597,0.01,0.01
2024-08-12 20:05:30.1192663,2024-08-12 20:05:30.1193548,5.6E-05,-0.78532,1.1E-05,-2.355971,7.4E-05,1.57108,0.7856,0.01,0.01
2024-08-12 20:05:30.1273315,2024-08-12 20:05:30.1274260,5.8E-05,-0.785316,1.1E-05,-2.355971,7.5E-05,1.57108,0.785603,0.01,0.01
2024-08-12 20:05:30.1394867,2024-08-12 20:05:30.1395796,5.2E-05,-0.785318,9E-06,-2.355974,7.4E-05,1.571079,0.785605,0.01,0.01
2024-08-12 20:05:30.1475867,2024-08-12 20:05:30.1476736,5.8E-05,-0.785316,1.1E-05,-2.355971,7.3E-05,1.57108,0.785603,0.01,0.01
2024-08-12 20:05:30.1597891,2024-08-12 20:05:30.1598844,5.3E-05,-0.785318,1.1E-05,-2.355974,7.4E-05,1.571079,0.785604,0.01,0.01
2024-08-12 20:05:30.1678947,2024-08-12 20:05:30.1679858,5.5E-05,-0.785313,9E-06,-2.355977,7.3E-05,1.571079,0.7856,0.01,0.01
2024-08-12 20:05:30.1800933,2024-08-12 20:05:30.1801813,5.2E-05,-0.78532,6E-06,-2.355974,7.4E-05,1.571082,0.785598,0.01,0.01
2024-08-12 20:05:30.1881929,2024-08-12 20:05:30.1882866,5.3E-05,-0.785325,9E-06,-2.355977,7.3E-05,1.571079,0.785597,0.01,0.01
2024-08-12 20:05:30.2003802,2024-08-12 20:05:30.2004618,5.5E-05,-0.785315,9E-06,-2.355969,7.3E-05,1.571082,0.785603,0.01,0.01
2024-08-12 20:05:30.2084782,2024-08-12 20:05:30.2085638,5.6E-05,-0.785323,1.1E-05,-2.355974,7.4E-05,1.571082,0.785604,0.01,0.01
2024-08-12 20:05:30.2185815,2024-08-12 20:05:30.2186677,5.8E-05,-0.785318,9E-06,-2.355974,7.3E-05,1.57108,0.785602,0.01,0.01
2024-08-12 20:05:30.2266864,2024-08-12 20:05:30.2267824,5.5E-05,-0.785323,9E-06,-2.355974,7.4E-05,1.57108,0.785603,0.01,0.01
2024-08-12 20:05:30.2388492,2024-08-12 20:05:30.2389423,5.8E-05,-0.785318,9E-06,-2.355974,7.3E-05,1.571081,0.785597,0.01,0.01
2024-08-12 20:05:30.2469562,2024-08-12 20:05:30.2470501,5.3E-05,-0.78532,9E-06,-2.355974,7.3E-05,1.571081,0.785598,0.01,0.01
2024-08-12 20:05:30.2591613,2024-08-12 20:05:30.2592586,5.8E-05,-0.785323,1.1E-05,-2.355977,7.3E-05,1.571081,0.785602,0.01,0.01
2024-08-12 20:05:30.2672606,2024-08-12 20:05:30.2673496,5.2E-05,-0.78532,1.1E-05,-2.355977,7.3E-05,1.571081,0.785602,0.01,0.01
2024-08-12 20:05:30.2794476,2024-08-12 20:05:30.2795320,5.8E-05,-0.785318,9E-06,-2.355977,7.4E-05,1.571079,0.785601,0.01,0.01
2024-08-12 20:05:30.2875472,2024-08-12 20:05:30.2876349,5.4E-05,-0.785315,4E-06,-2.355974,7.3E-05,1.571081,0.785601,0.01,0.01
2024-08-12 20:05:30.2997421,2024-08-12 20:05:30.2998259,6E-05,-0.785321,1.1E-05,-2.355971,7.5E-05,1.57108,0.785601,0.01,0.01
2024-08-12 20:05:30.3078447,2024-08-12 20:05:30.3079297,6E-05,-0.785318,1.1E-05,-2.355974,7.3E-05,1.571079,0.7856,0.01,0.01
2024-08-12 20:05:30.3200423,2024-08-12 20:05:30.3201095,5.3E-05,-0.785318,6E-06,-2.355974,7.7E-05,1.571079,0.785603,0.01,0.01
2024-08-12 20:05:30.3281074,2024-08-12 20:05:30.3281885,5.1E-05,-0.785315,1.1E-05,-2.355974,7.2E-05,1.57108,0.7856,0.01,0.01
2024-08-12 20:05:30.3403381,2024-08-12 20:05:30.3404265,5.5E-05,-0.78532,6E-06,-2.355976,7.3E-05,1.571081,0.785601,0.01,0.01
2024-08-12 20:05:30.3484007,2024-08-12 20:05:30.3484907,5.3E-05,-0.785316,1.1E-05,-2.355982,7.3E-05,1.571078,0.785599,0.01,0.01
2024-08-12 20:05:30.3605179,2024-08-12 20:05:30.3606057,5.3E-05,-0.785316,1.4E-05,-2.355979,7.3E-05,1.57108,0.785598,0.01,0.01
2024-08-12 20:05:30.3685776,2024-08-12 20:05:30.3686604,5.8E-05,-0.785318,1.1E-05,-2.355971,7.2E-05,1.571079,0.785599,0.01,0.01
2024-08-12 20:05:30.3786426,2024-08-12 20:05:30.3787242,5.5E-05,-0.785315,1.4E-05,-2.355974,7.4E-05,1.571079,0.7856,0.01,0.01
2024-08-12 20:05:30.3867071,2024-08-12 20:05:30.3867884,5.5E-05,-0.785318,9E-06,-2.355969,7.4E-05,1.57108,0.7856,0.01,0.01
2024-08-12 20:05:30.3988251,2024-08-12 20:05:30.3989175,5.8E-05,-0.785318,6E-06,-2.355971,7.4E-05,1.571082,0.785599,0.01,0.01
2024-08-12 20:05:30.4068878,2024-08-12 20:05:30.4069736,5.2E-05,-0.785315,6E-06,-2.355977,7.3E-05,1.57108,0.7856,0.01,0.01
2024-08-12 20:05:30.4190082,2024-08-12 20:05:30.4190918,5.3E-05,-0.785318,1.1E-05,-2.355969,7.3E-05,1.571079,0.785597,0.01,0.01
2024-08-12 20:05:30.4391934,2024-08-12 20:05:30.4392998,6E-05,-0.785323,1.1E-05,-2.355974,7.4E-05,1.571079,0.785599,0.01,0.01
2024-08-12 20:05:30.4472486,2024-08-12 20:05:30.4473340,5.6E-05,-0.785323,9E-06,-2.355974,7.3E-05,1.571079,0.785602,0.01,0.01
2024-08-12 20:05:30.4593771,2024-08-12 20:05:30.4594770,5.8E-05,-0.785321,1.1E-05,-2.355979,7.3E-05,1.571078,0.785602,0.01,0.01
2024-08-12 20:05:30.4674285,2024-08-12 20:05:30.4675144,5.3E-05,-0.785321,6E-06,-2.355974,7.4E-05,1.57108,0.785601,0.01,0.01
2024-08-12 20:05:30.4795460,2024-08-12 20:05:30.4796277,5.5E-05,-0.78532,8E-06,-2.355971,7.3E-05,1.571079,0.785603,0.01,0.01
2024-08-12 20:05:30.4876098,2024-08-12 20:05:30.4876932,5.5E-05,-0.785318,9E-06,-2.355971,7.3E-05,1.571079,0.785603,0.01,0.01
2024-08-12 20:05:30.4997265,2024-08-12 20:05:30.4998128,5.8E-05,-0.785318,9E-06,-2.355969,7.2E-05,1.57108,0.785603,0.01,0.01
2024-08-12 20:05:30.5077891,2024-08-12 20:05:30.5078857,5.8E-05,-0.78532,9E-06,-2.355974,7.6E-05,1.571079,0.785603,0.01,0.01
2024-08-12 20:05:30.5199112,2024-08-12 20:05:30.5200079,5.1E-05,-0.785323,9E-06,-2.355974,7.3E-05,1.57108,0.785601,0.01,0.01
2024-08-12 20:05:30.5279735,2024-08-12 20:05:30.5280813,5.3E-05,-0.785321,1.1E-05,-2.355974,7.3E-05,1.57108,0.785603,0.01,0.01
2024-08-12 20:05:30.5400898,2024-08-12 20:05:30.5401806,6E-05,-0.78532,1.1E-05,-2.355974,7.5E-05,1.57108,0.7856,0.01,0.01
2024-08-12 20:05:30.5481514,2024-08-12 20:05:30.5482416,5.5E-05,-0.785315,6E-06,-2.355977,7.4E-05,1.57108,0.785603,0.01,0.01
2024-08-12 20:05:30.5602660,2024-08-12 20:05:30.5603534,5.3E-05,-0.785318,9E-06,-2.355971,7.3E-05,1.571079,0.785603,0.01,0.01
2024-08-12 20:05:30.5683280,2024-08-12 20:05:30.5684192,5.3E-05,-0.785318,1.1E-05,-2.355971,7.3E-05,1.57108,0.785604,0.01,0.01
2024-08-12 20:05:30.5804468,2024-08-12 20:05:30.5805331,5.3E-05,-0.785315,1.4E-05,-2.355974,7.3E-05,1.571079,0.785605,0.01,0.01
2024-08-12 20:05:30.5885108,2024-08-12 20:05:30.5885989,5.3E-05,-0.78532,1.1E-05,-2.355971,7.3E-05,1.571081,0.785604,0.01,0.01
2024-08-12 20:05:30.6006280,2024-08-12 20:05:30.6007179,5.3E-05,-0.785313,6E-06,-2.355971,7.4E-05,1.57108,0.785605,0.01,0.01
2024-08-12 20:05:30.6086920,2024-08-12 20:05:30.6087881,5.5E-05,-0.785318,1.1E-05,-2.355974,7.2E-05,1.57108,0.785602,0.01,0.01
2024-08-12 20:05:30.6187561,2024-08-12 20:05:30.6188484,5.8E-05,-0.785323,1.4E-05,-2.355977,7.4E-05,1.571079,0.785597,0.01,0.01
2024-08-12 20:05:30.6268829,2024-08-12 20:05:30.6269834,5.6E-05,-0.785319,9E-06,-2.355974,7.6E-05,1.571081,0.785597,0.01,0.01
2024-08-12 20:05:30.6389976,2024-08-12 20:05:30.6390835,5.2E-05,-0.785323,1.1E-05,-2.355974,7.5E-05,1.57108,0.7856,0.01,0.01
2024-08-12 20:05:30.6470590,2024-08-12 20:05:30.6471459,6.1E-05,-0.785312,1.4E-05,-2.355977,7.4E-05,1.571081,0.785601,0.01,0.01
2024-08-12 20:05:30.6591738,2024-08-12 20:05:30.6592619,5.8E-05,-0.785323,1.1E-05,-2.355977,7.3E-05,1.571076,0.785602,0.01,0.01
2024-08-12 20:05:30.6672869,2024-08-12 20:05:30.6673733,5.8E-05,-0.785319,8E-06,-2.355971,7.3E-05,1.571082,0.785597,0.01,0.01
2024-08-12 20:05:30.6794104,2024-08-12 20:05:30.6795065,5.7E-05,-0.78532,1.1E-05,-2.355974,7.4E-05,1.57108,0.785596,0.01,0.01
2024-08-12 20:05:30.6874730,2024-08-12 20:05:30.6875564,5.3E-05,-0.785313,6E-06,-2.355974,7.5E-05,1.571079,0.785598,0.01,0.01
2024-08-12 20:05:30.6995889,2024-08-12 20:05:30.6996740,5.5E-05,-0.785312,6E-06,-2.355977,7.5E-05,1.57108,0.785597,0.01,0.01
2024-08-12 20:05:30.7076529,2024-08-12 20:05:30.7077410,5.3E-05,-0.785325,9E-06,-2.355977,7.6E-05,1.571081,0.7856,0.01,0.01
2024-08-12 20:05:30.7197723,2024-08-12 20:05:30.7198558,6E-05,-0.785316,1.4E-05,-2.355974,7.4E-05,1.571082,0.785601,0.01,0.01
2024-08-12 20:05:30.7278348,2024-08-12 20:05:30.7279320,6.1E-05,-0.78532,9E-06,-2.355971,7.4E-05,1.57108,0.785604,0.01,0.01
2024-08-12 20:05:30.7399519,2024-08-12 20:05:30.7400441,5.5E-05,-0.785323,1.1E-05,-2.355974,7.3E-05,1.57108,0.785604,0.01,0.01
2024-08-12 20:05:30.7480118,2024-08-12 20:05:30.7480966,5.1E-05,-0.785323,1.1E-05,-2.355977,7.3E-05,1.57108,0.785602,0.01,0.01
2024-08-12 20:05:30.7601282,2024-08-12 20:05:30.7602187,5.6E-05,-0.785318,9E-06,-2.355977,7.2E-05,1.571081,0.785597,0.01,0.01
2024-08-12 20:05:30.7681886,2024-08-12 20:05:30.7682755,5.3E-05,-0.785323,9E-06,-2.355974,7.3E-05,1.57108,0.785603,0.01,0.01
2024-08-12 20:05:30.7803093,2024-08-12 20:05:30.7803990,5.8E-05,-0.785318,1.1E-05,-2.355977,7.3E-05,1.57108,0.785604,0.01,0.01
2024-08-12 20:05:30.7883716,2024-08-12 20:05:30.7884537,5.3E-05,-0.78532,1.1E-05,-2.355977,7.2E-05,1.57108,0.785604,0.01,0.01
2024-08-12 20:05:30.8004902,2024-08-12 20:05:30.8005630,5.2E-05,-0.785315,9E-06,-2.355971,7.3E-05,1.571079,0.785598,0.01,0.01
2024-08-12 20:05:30.8085555,2024-08-12 20:05:30.8086581,5.2E-05,-0.785315,1.1E-05,-2.355971,7.4E-05,1.571079,0.7856,0.01,0.01
2024-08-12 20:05:30.8185844,2024-08-12 20:05:30.8186714,5.5E-05,-0.785316,1.1E-05,-2.355977,7.3E-05,1.57108,0.785598,0.01,0.01
2024-08-12 20:05:30.8266484,2024-08-12 20:05:30.8267432,5.7E-05,-0.785318,6E-06,-2.355969,7.4E-05,1.571081,0.785604,0.01,0.01
2024-08-12 20:05:30.8387621,2024-08-12 20:05:30.8388459,5.5E-05,-0.785318,1.1E-05,-2.355971,7.3E-05,1.57108,0.7856,0.01,0.01
2024-08-12 20:05:30.8468250,2024-08-12 20:05:30.8469102,5.5E-05,-0.785319,6E-06,-2.355979,7.3E-05,1.571082,0.785596,0.01,0.01
2024-08-12 20:05:30.8589415,2024-08-12 20:05:30.8590263,6E-05,-0.785318,1.4E-05,-2.355974,7.3E-05,1.57108,0.785602,0.01,0.01
2024-08-12 20:05:30.8670030,2024-08-12 20:05:30.8670861,5.3E-05,-0.785321,9E-06,-2.355971,7.4E-05,1.57108,0.785604,0.01,0.01
2024-08-12 20:05:30.8802632,2024-08-12 20:05:30.8803642,5.8E-05,-0.785318,1.1E-05,-2.355974,7.2E-05,1.571081,0.785604,0.01,0.01
2024-08-12 20:05:30.8883233,2024-08-12 20:05:30.8884050,5.4E-05,-0.785314,1.1E-05,-2.355971,7.4E-05,1.57108,0.7856,0.01,0.01
2024-08-12 20:05:30.9004380,2024-08-12 20:05:30.9005293,5.5E-05,-0.785316,1.1E-05,-2.355977,7.3E-05,1.571079,0.785599,0.01,0.01
2024-08-12 20:05:30.9085139,2024-08-12 20:05:30.9086157,5.5E-05,-0.78532,6E-06,-2.355971,7.3E-05,1.57108,0.7856,0.01,0.01
2024-08-12 20:05:30.9206229,2024-08-12 20:05:30.9207114,5.8E-05,-0.785318,1.1E-05,-2.355971,7.4E-05,1.57108,0.785599,0.01,0.01
2024-08-12 20:05:30.9286828,2024-08-12 20:05:30.9287684,5.1E-05,-0.785315,9E-06,-2.355971,7.3E-05,1.57108,0.785597,0.01,0.01
2024-08-12 20:05:30.9387453,2024-08-12 20:05:30.9388320,6.1E-05,-0.785318,1.1E-05,-2.355974,7.6E-05,1.57108,0.785597,0.01,0.01
2024-08-12 20:05:30.9468055,2024-08-12 20:05:30.9468922,5.8E-05,-0.785318,9E-06,-2.355971,7.5E-05,1.571079,0.785597,0.01,0.01
2024-08-12 20:05:30.9589270,2024-08-12 20:05:30.9590233,5.5E-05,-0.785323,9E-06,-2.355974,7.3E-05,1.571082,0.7856,0.01,0.01
2024-08-12 20:05:30.9669864,2024-08-12 20:05:30.9670684,5.1E-05,-0.785316,1.4E-05,-2.355979,7.3E-05,1.57108,0.785601,0.01,0.01
2024-08-12 20:05:30.9791079,2024-08-12 20:05:30.9791970,5.3E-05,-0.785316,1.1E-05,-2.355977,7.4E-05,1.57108,0.785603,0.01,0.01
2024-08-12 20:05:30.9871749,2024-08-12 20:05:30.9872644,5.5E-05,-0.785321,1.1E-05,-2.355974,7.5E-05,1.571081,0.785597,0.01,0.01
2024-08-12 20:05:30.9993619,2024-08-12 20:05:30.9994560,5.5E-05,-0.785319,1.4E-05,-2.355971,7.5E-05,1.571082,0.785598,0.01,0.01
2024-08-12 20:05:31.0076699,2024-08-12 20:05:31.0077721,5.8E-05,-0.785319,9E-06,-2.355971,7.6E-05,1.57108,0.785596,0.01,0.01
2024-08-12 20:05:31.0198536,2024-08-12 20:05:31.0199394,5.6E-05,-0.785319,1.1E-05,-2.355969,7.4E-05,1.57108,0.785597,0.01,0.01
2024-08-12 20:05:31.0279658,2024-08-12 20:05:31.0287916,5.3E-05,-0.78532,1.1E-05,-2.355974,7.5E-05,1.571079,0.785598,0.01,0.01
2024-08-12 20:05:31.0401184,2024-08-12 20:05:31.0402019,6E-05,-0.78532,9E-06,-2.355974,7.4E-05,1.571079,0.785598,0.01,0.01
2024-08-12 20:05:31.0481710,2024-08-12 20:05:31.0482590,5.8E-05,-0.785321,9E-06,-2.355977,7.4E-05,1.571078,0.785596,0.01,0.01
2024-08-12 20:05:31.0602979,2024-08-12 20:05:31.0603972,5.3E-05,-0.785318,1.1E-05,-2.355971,7.4E-05,1.57108,0.785602,0.01,0.01
2024-08-12 20:05:31.0683552,2024-08-12 20:05:31.0684404,5.5E-05,-0.785318,9E-06,-2.355974,7.6E-05,1.57108,0.7856,0.01,0.01
2024-08-12 20:05:31.0805517,2024-08-12 20:05:31.0806486,5.3E-05,-0.785325,6E-06,-2.355974,7.3E-05,1.571081,0.785597,0.01,0.01
2024-08-12 20:05:31.0886466,2024-08-12 20:05:31.0887312,5.5E-05,-0.785316,9E-06,-2.355974,7.2E-05,1.571078,0.7856,0.01,0.01
2024-08-12 20:05:31.0987515,2024-08-12 20:05:31.0988584,5.3E-05,-0.785316,1.4E-05,-2.355971,7.4E-05,1.57108,0.7856,0.01,0.01
2024-08-12 20:05:31.1068453,2024-08-12 20:05:31.1069219,5.3E-05,-0.78532,1.1E-05,-2.355977,7.3E-05,1.571081,0.7856,0.01,0.01
2024-08-12 20:05:31.1190191,2024-08-12 20:05:31.1191177,5.8E-05,-0.785318,6E-06,-2.355977,7.2E-05,1.57108,0.785603,0.01,0.01
2024-08-12 20:05:31.1271558,2024-08-12 20:05:31.1272617,5.3E-05,-0.785318,1.1E-05,-2.355974,7.4E-05,1.571078,0.785602,0.01,0.01
2024-08-12 20:05:31.1393052,2024-08-12 20:05:31.1393896,5.2E-05,-0.785319,1.1E-05,-2.355977,7.4E-05,1.57108,0.7856,0.01,0.01
2024-08-12 20:05:31.1474219,2024-08-12 20:05:31.1475229,5.5E-05,-0.785318,1.1E-05,-2.355974,7.3E-05,1.571079,0.785603,0.01,0.01
2024-08-12 20:05:31.1595799,2024-08-12 20:05:31.1596683,5.5E-05,-0.785318,1.4E-05,-2.355971,7.3E-05,1.57108,0.785602,0.01,0.01
2024-08-12 20:05:31.1676853,2024-08-12 20:05:31.1677843,5.5E-05,-0.785318,9E-06,-2.355974,7.3E-05,1.571081,0.785604,0.01,0.01
2024-08-12 20:05:31.1798419,2024-08-12 20:05:31.1799367,5.5E-05,-0.785315,6E-06,-2.355974,7.3E-05,1.57108,0.785601,0.01,0.01
2024-08-12 20:05:31.1879386,2024-08-12 20:05:31.1880238,5.3E-05,-0.785314,8E-06,-2.355973,7.1E-05,1.57108,0.785599,0.01,0.01
2024-08-12 20:05:31.2001387,2024-08-12 20:05:31.2002268,5.8E-05,-0.78532,9E-06,-2.355971,7.1E-05,1.571081,0.785601,0.01,0.01
2024-08-12 20:05:31.2082407,2024-08-12 20:05:31.2083354,5.6E-05,-0.785316,1.1E-05,-2.355977,7.2E-05,1.571081,0.785598,0.01,0.01
2024-08-12 20:05:31.2204360,2024-08-12 20:05:31.2205307,6E-05,-0.785313,9E-06,-2.355974,7.4E-05,1.57108,0.785601,0.01,0.01
2024-08-12 20:05:31.2387420,2024-08-12 20:05:31.2388384,5.3E-05,-0.785323,6E-06,-2.355974,7.4E-05,1.571081,0.7856,0.01,0.01
2024-08-12 20:05:31.2468437,2024-08-12 20:05:31.2469373,5.5E-05,-0.785313,9E-06,-2.355974,7.2E-05,1.57108,0.785603,0.01,0.01
2024-08-12 20:05:31.2589996,2024-08-12 20:05:31.2590876,6E-05,-0.785315,1.4E-05,-2.355974,7.4E-05,1.571081,0.785602,0.01,0.01
2024-08-12 20:05:31.2670679,2024-08-12 20:05:31.2671602,5.5E-05,-0.78532,9E-06,-2.355971,7.3E-05,1.571081,0.785601,0.01,0.01
2024-08-12 20:05:31.2792294,2024-08-12 20:05:31.2793209,5.3E-05,-0.78532,9E-06,-2.355969,7.2E-05,1.571079,0.785603,0.01,0.01
2024-08-12 20:05:31.2873797,2024-08-12 20:05:31.2874647,5.5E-05,-0.785321,9E-06,-2.355974,7.3E-05,1.57108,0.785603,0.01,0.01
2024-08-12 20:05:31.2995856,2024-08-12 20:05:31.2996798,5.5E-05,-0.785321,9E-06,-2.355974,7.1E-05,1.571081,0.785601,0.01,0.01
2024-08-12 20:05:31.3076814,2024-08-12 20:05:31.3077682,5.3E-05,-0.785319,1.1E-05,-2.355971,7.4E-05,1.571079,0.785603,0.01,0.01
2024-08-12 20:05:31.3198884,2024-08-12 20:05:31.3200034,5.8E-05,-0.785315,1.1E-05,-2.355977,7.3E-05,1.571081,0.7856,0.01,0.01
2024-08-12 20:05:31.3279974,2024-08-12 20:05:31.3280872,5E-05,-0.785318,6E-06,-2.355974,7.4E-05,1.571076,0.785602,0.01,0.01
2024-08-12 20:05:31.3401965,2024-08-12 20:05:31.3402825,5.6E-05,-0.785316,1.1E-05,-2.355969,7.3E-05,1.57108,0.785601,0.01,0.01
2024-08-12 20:05:31.3482956,2024-08-12 20:05:31.3483824,5.5E-05,-0.785321,1.1E-05,-2.355974,7.3E-05,1.57108,0.785602,0.01,0.01
2024-08-12 20:05:31.3604869,2024-08-12 20:05:31.3605783,5E-05,-0.78532,9E-06,-2.355974,7.5E-05,1.57108,0.7856,0.01,0.01
2024-08-12 20:05:31.3685843,2024-08-12 20:05:31.3686706,5.2E-05,-0.785323,1.1E-05,-2.355977,7.3E-05,1.571081,0.785603,0.01,0.01
2024-08-12 20:05:31.3786952,2024-08-12 20:05:31.3787952,5.2E-05,-0.785313,9E-06,-2.355977,7.2E-05,1.57108,0.785602,0.01,0.01
2024-08-12 20:05:31.3867619,2024-08-12 20:05:31.3868468,5.8E-05,-0.785318,9E-06,-2.355974,7.3E-05,1.571081,0.785602,0.01,0.01
2024-08-12 20:05:31.3989251,2024-08-12 20:05:31.3990377,5.7E-05,-0.78532,1.1E-05,-2.355971,7.3E-05,1.57108,0.785597,0.01,0.01
2024-08-12 20:05:31.4069909,2024-08-12 20:05:31.4070769,5.8E-05,-0.785315,1.1E-05,-2.355971,7.4E-05,1.571079,0.7856,0.01,0.01
2024-08-12 20:05:31.4191939,2024-08-12 20:05:31.4192859,5.5E-05,-0.785316,1.4E-05,-2.355977,7.3E-05,1.57108,0.785597,0.01,0.01
2024-08-12 20:05:31.4272961,2024-08-12 20:05:31.4273860,6.3E-05,-0.785323,9E-06,-2.355977,7.3E-05,1.57108,0.785597,0.01,0.01
2024-08-12 20:05:31.4394540,2024-08-12 20:05:31.4395458,5.5E-05,-0.785318,9E-06,-2.355971,7.4E-05,1.571078,0.785599,0.01,0.01
2024-08-12 20:05:31.4475686,2024-08-12 20:05:31.4476583,5.5E-05,-0.785321,1.1E-05,-2.355971,7.2E-05,1.571078,0.785597,0.01,0.01
2024-08-12 20:05:31.4597610,2024-08-12 20:05:31.4598287,5.3E-05,-0.785313,1.1E-05,-2.355969,7.5E-05,1.57108,0.785599,0.01,0.01
2024-08-12 20:05:31.4678665,2024-08-12 20:05:31.4679402,5.8E-05,-0.785318,9E-06,-2.355974,7.2E-05,1.57108,0.785597,0.01,0.01
2024-08-12 20:05:31.4800669,2024-08-12 20:05:31.4801602,6.1E-05,-0.785316,1.1E-05,-2.355974,7.4E-05,1.571079,0.7856,0.01,0.01
2024-08-12 20:05:31.4881638,2024-08-12 20:05:31.4882489,5.5E-05,-0.785313,9E-06,-2.355974,7.6E-05,1.571081,0.785597,0.01,0.01
2024-08-12 20:05:31.5003589,2024-08-12 20:05:31.5004610,5.6E-05,-0.785318,1.1E-05,-2.355971,7.3E-05,1.571079,0.7856,0.01,0.01
2024-08-12 20:05:31.5084540,2024-08-12 20:05:31.5085396,5.5E-05,-0.785318,1.4E-05,-2.355974,7.4E-05,1.57108,0.785601,0.01,0.01
2024-08-12 20:05:31.5206468,2024-08-12 20:05:31.5207418,5.8E-05,-0.785323,8E-06,-2.355971,7.2E-05,1.57108,0.785597,0.01,0.01
2024-08-12 20:05:31.5287491,2024-08-12 20:05:31.5288404,5.8E-05,-0.785315,3E-06,-2.355979,7.3E-05,1.571079,0.785598,0.01,0.01
2024-08-12 20:05:31.5388534,2024-08-12 20:05:31.5389380,6E-05,-0.785321,9E-06,-2.355974,7.4E-05,1.57108,0.785597,0.01,0.01
2024-08-12 20:05:31.5469223,2024-08-12 20:05:31.5470118,5.5E-05,-0.785318,6E-06,-2.355977,7.4E-05,1.571079,0.785598,0.01,0.01
2024-08-12 20:05:31.5590782,2024-08-12 20:05:31.5591653,5.5E-05,-0.785318,1.4E-05,-2.355974,7.3E-05,1.571079,0.7856,0.01,0.01
2024-08-12 20:05:31.5671760,2024-08-12 20:05:31.5672627,5.8E-05,-0.78532,9E-06,-2.355977,7.2E-05,1.571079,0.785598,0.01,0.01
2024-08-12 20:05:31.6025867,2024-08-12 20:05:31.6027024,5.8E-05,-0.785321,1.1E-05,-2.355971,7.6E-05,1.57108,0.785598,0.01,0.01
2024-08-12 20:05:31.6030024,2024-08-12 20:05:31.6031094,5.5E-05,-0.785313,1.1E-05,-2.355974,7.4E-05,1.571079,0.785604,0.01,0.01
2024-08-12 20:05:31.6039910,2024-08-12 20:05:31.6040924,5.5E-05,-0.785318,1.1E-05,-2.355971,7.4E-05,1.571081,0.7856,0.01,0.01
2024-08-12 20:05:31.6078910,2024-08-12 20:05:31.6079778,5.5E-05,-0.78532,9E-06,-2.355974,7.4E-05,1.57108,0.785601,0.01,0.01
2024-08-12 20:05:31.6200463,2024-08-12 20:05:31.6201095,5.8E-05,-0.785313,1.1E-05,-2.355974,7.3E-05,1.57108,0.785598,0.01,0.01
2024-08-12 20:05:31.6281097,2024-08-12 20:05:31.6281915,6.1E-05,-0.785315,1.4E-05,-2.355974,7.3E-05,1.571078,0.785603,0.01,0.01
2024-08-12 20:05:31.6402274,2024-08-12 20:05:31.6403093,5.8E-05,-0.78532,1.1E-05,-2.355974,7.4E-05,1.57108,0.785603,0.01,0.01
2024-08-12 20:05:31.6482913,2024-08-12 20:05:31.6483782,5.5E-05,-0.785318,1.4E-05,-2.355977,7.5E-05,1.571079,0.785602,0.01,0.01
2024-08-12 20:05:31.6604081,2024-08-12 20:05:31.6604991,5.8E-05,-0.785318,9E-06,-2.355969,7.3E-05,1.57108,0.785604,0.01,0.01
2024-08-12 20:05:31.6684737,2024-08-12 20:05:31.6685628,5.8E-05,-0.785321,9E-06,-2.355974,7.3E-05,1.571079,0.785605,0.01,0.01
2024-08-12 20:05:31.6786631,2024-08-12 20:05:31.6787642,5.5E-05,-0.785316,1.1E-05,-2.355977,7.3E-05,1.571079,0.785601,0.01,0.01
2024-08-12 20:05:31.6867209,2024-08-12 20:05:31.6868074,5.6E-05,-0.785318,1.4E-05,-2.355971,7.3E-05,1.571081,0.785604,0.01,0.01
2024-08-12 20:05:31.6988440,2024-08-12 20:05:31.6989248,5.3E-05,-0.785313,6E-06,-2.355971,7.5E-05,1.57108,0.785594,0.01,0.01
2024-08-12 20:05:31.7069086,2024-08-12 20:05:31.7069968,5.1E-05,-0.785323,1.1E-05,-2.355971,7.2E-05,1.571081,0.785599,0.01,0.01
2024-08-12 20:05:31.7190334,2024-08-12 20:05:31.7191269,5.3E-05,-0.785315,9E-06,-2.355971,7.4E-05,1.571081,0.785603,0.01,0.01
2024-08-12 20:05:31.7270997,2024-08-12 20:05:31.7271998,5.9E-05,-0.785313,1E-05,-2.355977,7.2E-05,1.571081,0.785599,0.01,0.01
2024-08-12 20:05:31.7392184,2024-08-12 20:05:31.7393074,5.5E-05,-0.785318,9E-06,-2.355974,7.4E-05,1.571081,0.785599,0.01,0.01
2024-08-12 20:05:31.7472822,2024-08-12 20:05:31.7473673,5.8E-05,-0.785313,9E-06,-2.355974,7.2E-05,1.571077,0.785598,0.01,0.01
2024-08-12 20:05:31.7594008,2024-08-12 20:05:31.7594870,5.6E-05,-0.78532,9E-06,-2.355974,7.3E-05,1.571079,0.785601,0.01,0.01
2024-08-12 20:05:31.7674635,2024-08-12 20:05:31.7675428,5.8E-05,-0.785319,9E-06,-2.355974,7.2E-05,1.57108,0.785598,0.01,0.01
2024-08-12 20:05:31.7795851,2024-08-12 20:05:31.7796726,5.8E-05,-0.78532,9E-06,-2.355974,7.3E-05,1.57108,0.7856,0.01,0.01
2024-08-12 20:05:31.7876571,2024-08-12 20:05:31.7877633,5.8E-05,-0.785319,1.1E-05,-2.355974,7.2E-05,1.57108,0.7856,0.01,0.01
2024-08-12 20:05:31.7997717,2024-08-12 20:05:31.7998595,5.5E-05,-0.785318,1.1E-05,-2.355971,7.4E-05,1.57108,0.7856,0.01,0.01
2024-08-12 20:05:31.8078357,2024-08-12 20:05:31.8079356,5E-05,-0.785326,1.1E-05,-2.355977,7.4E-05,1.571079,0.785603,0.01,0.01
2024-08-12 20:05:31.8199564,2024-08-12 20:05:31.8200450,5.5E-05,-0.785326,1.1E-05,-2.355971,7.3E-05,1.57108,0.785602,0.01,0.01
2024-08-12 20:05:31.8280588,2024-08-12 20:05:31.8281536,5.8E-05,-0.785323,9E-06,-2.355977,7.3E-05,1.571081,0.785601,0.01,0.01
2024-08-12 20:05:31.8402665,2024-08-12 20:05:31.8403544,5.3E-05,-0.785318,6E-06,-2.355974,7.3E-05,1.57108,0.7856,0.01,0.01
2024-08-12 20:05:31.8483610,2024-08-12 20:05:31.8484446,5.5E-05,-0.785318,1.4E-05,-2.355974,7.4E-05,1.57108,0.7856,0.01,0.01
2024-08-12 20:05:31.8605477,2024-08-12 20:05:31.8606379,5.8E-05,-0.78532,1.4E-05,-2.355974,7.4E-05,1.571081,0.7856,0.01,0.01
2024-08-12 20:05:31.8686541,2024-08-12 20:05:31.8687693,5.5E-05,-0.785318,7E-06,-2.355977,7.3E-05,1.57108,0.785599,0.01,0.01
2024-08-12 20:05:31.8788961,2024-08-12 20:05:31.8790059,5.5E-05,-0.785324,1.1E-05,-2.355974,7.3E-05,1.57108,0.785604,0.01,0.01
2024-08-12 20:05:31.9105875,2024-08-12 20:05:31.9107134,5.7E-05,-0.785318,1.1E-05,-2.355977,7.3E-05,1.571078,0.785597,0.01,0.01
2024-08-12 20:05:31.9109778,2024-08-12 20:05:31.9110974,5.5E-05,-0.785318,1.4E-05,-2.355971,7.3E-05,1.571081,0.785603,0.01,0.01
2024-08-12 20:05:31.9120262,2024-08-12 20:05:31.9122280,6.1E-05,-0.78532,9E-06,-2.355977,7.6E-05,1.571081,0.785601,0.01,0.01
2024-08-12 20:05:31.9195096,2024-08-12 20:05:31.9197191,5.6E-05,-0.785323,6E-06,-2.355977,7.4E-05,1.571081,0.7856,0.01,0.01
2024-08-12 20:05:31.9277268,2024-08-12 20:05:31.9279347,5.5E-05,-0.78532,9E-06,-2.355974,7.3E-05,1.571081,0.785601,0.01,0.01
2024-08-12 20:05:31.9400637,2024-08-12 20:05:31.9401886,5.5E-05,-0.785318,1.1E-05,-2.355974,7.3E-05,1.571079,0.785603,0.01,0.01
2024-08-12 20:05:31.9481957,2024-08-12 20:05:31.9482972,5.3E-05,-0.78532,1.7E-05,-2.355974,7.3E-05,1.571081,0.7856,0.01,0.01
2024-08-12 20:05:31.9604630,2024-08-12 20:05:31.9605613,5.5E-05,-0.785315,1.4E-05,-2.355977,7.3E-05,1.57108,0.7856,0.01,0.01
2024-08-12 20:05:31.9685971,2024-08-12 20:05:31.9687012,6E-05,-0.785318,1.4E-05,-2.355971,7.5E-05,1.571078,0.785597,0.01,0.01
2024-08-12 20:05:31.9786495,2024-08-12 20:05:31.9787506,5.8E-05,-0.78532,9E-06,-2.355977,7.4E-05,1.57108,0.7856,0.01,0.01
2024-08-12 20:05:31.9867181,2024-08-12 20:05:31.9868058,5.8E-05,-0.785319,1.4E-05,-2.355979,7.3E-05,1.571082,0.785597,0.01,0.01
2024-08-12 20:05:31.9988869,2024-08-12 20:05:31.9989872,5.6E-05,-0.78532,9E-06,-2.355974,7.3E-05,1.57108,0.785603,0.01,0.01
2024-08-12 20:05:32.0069548,2024-08-12 20:05:32.0070426,6.1E-05,-0.785315,9E-06,-2.355971,7.3E-05,1.571082,0.785603,0.01,0.01
2024-08-12 20:05:32.0192454,2024-08-12 20:05:32.0194026,6E-05,-0.785318,6E-06,-2.355974,7.4E-05,1.571081,0.785603,0.01,0.01
2024-08-12 20:05:32.0394594,2024-08-12 20:05:32.0395712,5.3E-05,-0.785318,1.1E-05,-2.355974,7.5E-05,1.571081,0.785598,0.01,0.01
2024-08-12 20:05:32.0475328,2024-08-12 20:05:32.0476337,5.2E-05,-0.785318,3E-06,-2.355974,7.4E-05,1.571078,0.785597,0.01,0.01
2024-08-12 20:05:32.0596410,2024-08-12 20:05:32.0597339,5.7E-05,-0.785321,6E-06,-2.355969,7.5E-05,1.571081,0.785598,0.01,0.01
2024-08-12 20:05:32.0677046,2024-08-12 20:05:32.0677948,5.5E-05,-0.785323,9E-06,-2.355974,7.3E-05,1.571081,0.785597,0.01,0.01
2024-08-12 20:05:32.0798232,2024-08-12 20:05:32.0799073,5.5E-05,-0.785315,9E-06,-2.355974,7.2E-05,1.571081,0.785599,0.01,0.01
2024-08-12 20:05:32.0878869,2024-08-12 20:05:32.0879742,6.1E-05,-0.785319,9E-06,-2.355977,7.4E-05,1.57108,0.7856,0.01,0.01
2024-08-12 20:05:32.1000073,2024-08-12 20:05:32.1001011,5.7E-05,-0.785318,1.1E-05,-2.355971,7.7E-05,1.57108,0.7856,0.01,0.01
2024-08-12 20:05:32.1080713,2024-08-12 20:05:32.1081642,5.5E-05,-0.785313,1.4E-05,-2.355974,7.3E-05,1.571082,0.785598,0.01,0.01
2024-08-12 20:05:32.1201900,2024-08-12 20:05:32.1202772,5.3E-05,-0.785318,9E-06,-2.355971,7.3E-05,1.571079,0.785595,0.01,0.01
2024-08-12 20:05:32.1282534,2024-08-12 20:05:32.1283424,5.8E-05,-0.785321,9E-06,-2.355977,7.4E-05,1.571079,0.785602,0.01,0.01
2024-08-12 20:05:32.1403710,2024-08-12 20:05:32.1404570,5.3E-05,-0.785318,1.1E-05,-2.355974,7.3E-05,1.57108,0.7856,0.01,0.01
2024-08-12 20:05:32.1484331,2024-08-12 20:05:32.1485173,5.2E-05,-0.785323,1.1E-05,-2.355974,7.3E-05,1.57108,0.785601,0.01,0.01
2024-08-12 20:05:32.1605550,2024-08-12 20:05:32.1606528,5.5E-05,-0.785315,9E-06,-2.355974,7.3E-05,1.57108,0.785599,0.01,0.01
2024-08-12 20:05:32.1686152,2024-08-12 20:05:32.1687059,5.5E-05,-0.785323,1.4E-05,-2.355971,7.4E-05,1.57108,0.7856,0.01,0.01
2024-08-12 20:05:32.1786813,2024-08-12 20:05:32.1787658,5.8E-05,-0.78532,1E-06,-2.355974,7.5E-05,1.57108,0.785602,0.01,0.01
2024-08-12 20:05:32.1867455,2024-08-12 20:05:32.1868289,5.3E-05,-0.785324,1.1E-05,-2.355974,7.5E-05,1.57108,0.7856,0.01,0.01
2024-08-12 20:05:32.1988670,2024-08-12 20:05:32.1989548,6.1E-05,-0.78532,9E-06,-2.355969,7.2E-05,1.571081,0.785598,0.01,0.01
2024-08-12 20:05:32.2069346,2024-08-12 20:05:32.2070081,5.8E-05,-0.785318,1.1E-05,-2.355971,7.3E-05,1.571081,0.785596,0.01,0.01
2024-08-12 20:05:32.2190544,2024-08-12 20:05:32.2191412,5.3E-05,-0.785315,9E-06,-2.355974,7.2E-05,1.571076,0.785605,0.01,0.01
2024-08-12 20:05:32.2271524,2024-08-12 20:05:32.2272468,5.4E-05,-0.785318,9E-06,-2.355977,7.3E-05,1.571081,0.785603,0.01,0.01
2024-08-12 20:05:32.2393389,2024-08-12 20:05:32.2394246,5.3E-05,-0.785316,1.1E-05,-2.355971,7.4E-05,1.57108,0.785597,0.01,0.01
2024-08-12 20:05:32.2474413,2024-08-12 20:05:32.2475263,5.8E-05,-0.785318,9E-06,-2.355977,7.4E-05,1.571081,0.785597,0.01,0.01
2024-08-12 20:05:32.2596470,2024-08-12 20:05:32.2597408,6E-05,-0.785323,9E-06,-2.355974,7.4E-05,1.571079,0.785598,0.01,0.01
2024-08-12 20:05:32.2677450,2024-08-12 20:05:32.2678281,5.8E-05,-0.785323,1.1E-05,-2.355977,7.3E-05,1.571081,0.785598,0.01,0.01
2024-08-12 20:05:32.2799429,2024-08-12 20:05:32.2800285,5.8E-05,-0.785318,1.1E-05,-2.355971,7.2E-05,1.571079,0.785599,0.01,0.01
2024-08-12 20:05:32.2880469,2024-08-12 20:05:32.2881339,5.5E-05,-0.785319,6E-06,-2.355974,7.2E-05,1.571081,0.785597,0.01,0.01
2024-08-12 20:05:32.3002342,2024-08-12 20:05:32.3003223,5.5E-05,-0.785319,1.1E-05,-2.355969,7.5E-05,1.571079,0.785601,0.01,0.01
2024-08-12 20:05:32.3083324,2024-08-12 20:05:32.3084232,5.2E-05,-0.785318,1.1E-05,-2.355974,7.4E-05,1.571081,0.7856,0.01,0.01
2024-08-12 20:05:32.3205219,2024-08-12 20:05:32.3206060,5.6E-05,-0.785313,1.1E-05,-2.355974,7.4E-05,1.571076,0.785602,0.01,0.01
2024-08-12 20:05:32.3286305,2024-08-12 20:05:32.3287165,5.8E-05,-0.785316,9E-06,-2.355971,7.3E-05,1.571079,0.785601,0.01,0.01
2024-08-12 20:05:32.3387307,2024-08-12 20:05:32.3388120,5.3E-05,-0.785315,1.1E-05,-2.355974,7.3E-05,1.57108,0.785605,0.01,0.01
2024-08-12 20:05:32.3468959,2024-08-12 20:05:32.3469875,5.3E-05,-0.785319,9E-06,-2.355977,7.4E-05,1.57108,0.7856,0.01,0.01
2024-08-12 20:05:32.3590530,2024-08-12 20:05:32.3591389,5.5E-05,-0.785315,9E-06,-2.355974,7.2E-05,1.571081,0.785599,0.01,0.01
2024-08-12 20:05:32.3671575,2024-08-12 20:05:32.3672417,5.2E-05,-0.785321,9E-06,-2.355974,7.4E-05,1.57108,0.785598,0.01,0.01
2024-08-12 20:05:32.3794245,2024-08-12 20:05:32.3795097,6.1E-05,-0.785313,1.1E-05,-2.355971,7.6E-05,1.57108,0.785604,0.01,0.01
2024-08-12 20:05:32.3875271,2024-08-12 20:05:32.3876087,5.5E-05,-0.78532,1.1E-05,-2.355974,7.3E-05,1.571081,0.7856,0.01,0.01
2024-08-12 20:05:32.3997547,2024-08-12 20:05:32.3998420,5.8E-05,-0.785318,1.4E-05,-2.355977,7.4E-05,1.571079,0.785601,0.01,0.01
2024-08-12 20:05:32.4078648,2024-08-12 20:05:32.4079573,5.8E-05,-0.785318,9E-06,-2.355977,7.4E-05,1.571076,0.785603,0.01,0.01
2024-08-12 20:05:32.4200833,2024-08-12 20:05:32.4201671,5.5E-05,-0.785314,9E-06,-2.355974,7.3E-05,1.571079,0.785598,0.01,0.01
2024-08-12 20:05:32.4281805,2024-08-12 20:05:32.4282663,5.6E-05,-0.785318,9E-06,-2.355979,7.2E-05,1.571081,0.7856,0.01,0.01
2024-08-12 20:05:32.4403737,2024-08-12 20:05:32.4404610,5.5E-05,-0.785318,8E-06,-2.355974,7.3E-05,1.571081,0.785602,0.01,0.01
2024-08-12 20:05:32.4485641,2024-08-12 20:05:32.4486486,5.5E-05,-0.785323,9E-06,-2.355977,7.2E-05,1.571081,0.785603,0.01,0.01
2024-08-12 20:05:32.4586825,2024-08-12 20:05:32.4587909,5.5E-05,-0.78532,9E-06,-2.355974,7.3E-05,1.57108,0.785602,0.01,0.01
2024-08-12 20:05:32.4667853,2024-08-12 20:05:32.4668762,5.8E-05,-0.785318,1.1E-05,-2.355974,7.4E-05,1.571081,0.785601,0.01,0.01
2024-08-12 20:05:32.4789490,2024-08-12 20:05:32.4790349,5.7E-05,-0.785321,6E-06,-2.355974,7.3E-05,1.571079,0.785602,0.01,0.01
2024-08-12 20:05:32.4870155,2024-08-12 20:05:32.4871006,5.7E-05,-0.785323,7E-06,-2.355977,7.3E-05,1.571079,0.785603,0.01,0.01
2024-08-12 20:05:32.4992102,2024-08-12 20:05:32.4992936,5.5E-05,-0.78532,9E-06,-2.355977,7.4E-05,1.571077,0.785599,0.01,0.01
2024-08-12 20:05:32.5073146,2024-08-12 20:05:32.5073978,5.8E-05,-0.78532,9E-06,-2.355977,7.3E-05,1.571081,0.7856,0.01,0.01
2024-08-12 20:05:32.5195011,2024-08-12 20:05:32.5196718,5.8E-05,-0.785316,6E-06,-2.355971,7.4E-05,1.57108,0.785596,0.01,0.01
2024-08-12 20:05:32.5275687,2024-08-12 20:05:32.5276572,5.5E-05,-0.785321,6E-06,-2.355969,7.4E-05,1.57108,0.785602,0.01,0.01
2024-08-12 20:05:32.5397027,2024-08-12 20:05:32.5398091,5.4E-05,-0.785315,1.1E-05,-2.355969,7.4E-05,1.57108,0.785598,0.01,0.01
2024-08-12 20:05:32.5477908,2024-08-12 20:05:32.5478795,5.1E-05,-0.785318,9E-06,-2.355969,7.3E-05,1.571079,0.785602,0.01,0.01
2024-08-12 20:05:32.5600052,2024-08-12 20:05:32.5601236,5.2E-05,-0.785315,9E-06,-2.355977,7.4E-05,1.571081,0.7856,0.01,0.01
2024-08-12 20:05:32.5681045,2024-08-12 20:05:32.5681884,5.8E-05,-0.785318,1.1E-05,-2.355977,7.4E-05,1.57108,0.785602,0.01,0.01
2024-08-12 20:05:32.5803044,2024-08-12 20:05:32.5804051,5.2E-05,-0.785318,9E-06,-2.355971,7.5E-05,1.571081,0.785597,0.01,0.01
2024-08-12 20:05:32.5883979,2024-08-12 20:05:32.5884827,5E-05,-0.785316,9E-06,-2.355974,7.3E-05,1.57108,0.7856,0.01,0.01
2024-08-12 20:05:32.6005901,2024-08-12 20:05:32.6006766,6E-05,-0.785313,9E-06,-2.355977,7.3E-05,1.57108,0.785597,0.01,0.01
2024-08-12 20:05:32.6086563,2024-08-12 20:05:32.6087494,5.6E-05,-0.785318,8E-06,-2.355977,7.3E-05,1.571081,0.785599,0.01,0.01
2024-08-12 20:05:32.6187173,2024-08-12 20:05:32.6188036,5.5E-05,-0.785324,1.4E-05,-2.355979,7.2E-05,1.571081,0.785602,0.01,0.01
2024-08-12 20:05:32.6267960,2024-08-12 20:05:32.6269016,5.2E-05,-0.785321,6E-06,-2.355969,7.2E-05,1.571079,0.785605,0.01,0.01
2024-08-12 20:05:32.6389055,2024-08-12 20:05:32.6389962,5.6E-05,-0.785318,9E-06,-2.355971,7.4E-05,1.571081,0.785598,0.01,0.01
2024-08-12 20:05:32.6469763,2024-08-12 20:05:32.6470689,5.6E-05,-0.785315,1.1E-05,-2.355974,7.4E-05,1.571081,0.785602,0.01,0.01
2024-08-12 20:05:32.6591450,2024-08-12 20:05:32.6592958,5.8E-05,-0.785318,6E-06,-2.355971,7.3E-05,1.571082,0.7856,0.01,0.01
2024-08-12 20:05:32.6672302,2024-08-12 20:05:32.6673765,5.3E-05,-0.785323,8E-06,-2.355977,7.3E-05,1.57108,0.785598,0.01,0.01
2024-08-12 20:05:32.6793768,2024-08-12 20:05:32.6795244,5.8E-05,-0.785319,9E-06,-2.355974,7.4E-05,1.571081,0.785599,0.01,0.01
2024-08-12 20:05:32.6875839,2024-08-12 20:05:32.6876897,5.5E-05,-0.78532,1.1E-05,-2.355979,7.5E-05,1.57108,0.785598,0.01,0.01
2024-08-12 20:05:32.6997076,2024-08-12 20:05:32.6998071,5.6E-05,-0.785319,9E-06,-2.355979,7.4E-05,1.571078,0.785599,0.01,0.01
2024-08-12 20:05:32.7077727,2024-08-12 20:05:32.7078719,5.5E-05,-0.785318,1.1E-05,-2.355971,7.3E-05,1.571079,0.785602,0.01,0.01
2024-08-12 20:05:32.7198851,2024-08-12 20:05:32.7199780,6.1E-05,-0.785321,1.1E-05,-2.355974,7.3E-05,1.57108,0.785603,0.01,0.01
2024-08-12 20:05:32.7279578,2024-08-12 20:05:32.7280583,5.5E-05,-0.78532,1.1E-05,-2.355974,7.5E-05,1.57108,0.785604,0.01,0.01
2024-08-12 20:05:32.7400712,2024-08-12 20:05:32.7401572,5.8E-05,-0.785315,1.1E-05,-2.355974,7.4E-05,1.571081,0.785603,0.01,0.01
2024-08-12 20:05:32.7481435,2024-08-12 20:05:32.7482363,5.3E-05,-0.785321,9E-06,-2.355974,7.3E-05,1.571079,0.785597,0.01,0.01
2024-08-12 20:05:32.7602630,2024-08-12 20:05:32.7603573,5.5E-05,-0.78532,1.1E-05,-2.355974,7.4E-05,1.571079,0.7856,0.01,0.01
2024-08-12 20:05:32.7683217,2024-08-12 20:05:32.7684058,5.6E-05,-0.785318,1.1E-05,-2.355977,7.2E-05,1.571078,0.7856,0.01,0.01
2024-08-12 20:05:32.7804482,2024-08-12 20:05:32.7805467,5.5E-05,-0.785316,9E-06,-2.355971,7.1E-05,1.571081,0.785605,0.01,0.01
2024-08-12 20:05:32.7885068,2024-08-12 20:05:32.7885910,5.8E-05,-0.785326,9E-06,-2.355974,7.4E-05,1.57108,0.785602,0.01,0.01
2024-08-12 20:05:32.8006340,2024-08-12 20:05:32.8007460,5.6E-05,-0.785321,1.1E-05,-2.355974,7.4E-05,1.57108,0.785603,0.01,0.01
2024-08-12 20:05:32.8087003,2024-08-12 20:05:32.8087964,5.5E-05,-0.785315,9E-06,-2.355976,7.5E-05,1.57108,0.7856,0.01,0.01
2024-08-12 20:05:32.8187601,2024-08-12 20:05:32.8188457,5.5E-05,-0.785326,6E-06,-2.355974,7.4E-05,1.571082,0.785606,0.01,0.01
2024-08-12 20:05:32.8389886,2024-08-12 20:05:32.8401240,5.5E-05,-0.785316,1.1E-05,-2.355974,7.3E-05,1.571082,0.785598,0.01,0.01
2024-08-12 20:05:32.8470920,2024-08-12 20:05:32.8472392,5.4E-05,-0.785315,9E-06,-2.355974,7.3E-05,1.571081,0.7856,0.01,0.01
2024-08-12 20:05:32.8592444,2024-08-12 20:05:32.8593937,5.8E-05,-0.785318,8E-06,-2.355977,7.3E-05,1.571082,0.785597,0.01,0.01
2024-08-12 20:05:32.8673432,2024-08-12 20:05:32.8674731,5.3E-05,-0.785315,1.1E-05,-2.355977,7.3E-05,1.571079,0.785599,0.01,0.01
2024-08-12 20:05:32.8795958,2024-08-12 20:05:32.8797458,5.5E-05,-0.785326,1.1E-05,-2.355971,7.4E-05,1.571076,0.785603,0.01,0.01
2024-08-12 20:05:32.8877659,2024-08-12 20:05:32.8879121,5.8E-05,-0.785318,9E-06,-2.355974,7.4E-05,1.571081,0.7856,0.01,0.01
2024-08-12 20:05:32.9000400,2024-08-12 20:05:32.9002098,5.8E-05,-0.785318,1.1E-05,-2.355971,7.4E-05,1.571083,0.785601,0.01,0.01
2024-08-12 20:05:32.9082126,2024-08-12 20:05:32.9083798,5.5E-05,-0.785323,1.4E-05,-2.355977,7.5E-05,1.571081,0.785604,0.01,0.01
2024-08-12 20:05:32.9204914,2024-08-12 20:05:32.9206394,5.4E-05,-0.78532,9E-06,-2.355971,7.6E-05,1.571081,0.785598,0.01,0.01
2024-08-12 20:05:32.9286661,2024-08-12 20:05:32.9288363,5.5E-05,-0.785315,9E-06,-2.355969,7.3E-05,1.57108,0.785597,0.01,0.01
2024-08-12 20:05:32.9388077,2024-08-12 20:05:32.9389741,5.3E-05,-0.785318,9E-06,-2.355977,7.3E-05,1.57108,0.7856,0.01,0.01
2024-08-12 20:05:32.9469876,2024-08-12 20:05:32.9471348,5.4E-05,-0.78532,1.4E-05,-2.355977,7.3E-05,1.57108,0.785598,0.01,0.01
2024-08-12 20:05:32.9592650,2024-08-12 20:05:32.9594078,5.5E-05,-0.785323,9E-06,-2.355974,7.1E-05,1.57108,0.7856,0.01,0.01
2024-08-12 20:05:32.9674354,2024-08-12 20:05:32.9675830,5.8E-05,-0.785321,1.4E-05,-2.355977,7.3E-05,1.57108,0.785603,0.01,0.01
2024-08-12 20:05:32.9797175,2024-08-12 20:05:32.9798661,5.5E-05,-0.785318,1.1E-05,-2.355971,7.3E-05,1.57108,0.7856,0.01,0.01
2024-08-12 20:05:32.9878973,2024-08-12 20:05:32.9880664,5.8E-05,-0.785323,6E-06,-2.355979,7.2E-05,1.571079,0.785601,0.01,0.01
2024-08-12 20:05:33.0001561,2024-08-12 20:05:33.0003327,5.8E-05,-0.785323,1.1E-05,-2.355977,7.4E-05,1.571079,0.785597,0.01,0.01
2024-08-12 20:05:33.0082749,2024-08-12 20:05:33.0083589,5.5E-05,-0.785318,8E-06,-2.355971,7.5E-05,1.571078,0.785597,0.01,0.01
2024-08-12 20:05:33.0205215,2024-08-12 20:05:33.0206128,5.5E-05,-0.785319,9E-06,-2.355971,7.3E-05,1.57108,0.785598,0.01,0.01
2024-08-12 20:05:33.0286150,2024-08-12 20:05:33.0286946,5.5E-05,-0.78532,1.1E-05,-2.355974,7.5E-05,1.571079,0.7856,0.01,0.01
2024-08-12 20:05:33.0386552,2024-08-12 20:05:33.0387499,5.3E-05,-0.785318,9E-06,-2.355974,7.4E-05,1.571079,0.785597,0.01,0.01
2024-08-12 20:05:33.0467197,2024-08-12 20:05:33.0468044,6E-05,-0.785315,1.1E-05,-2.355977,7.2E-05,1.571078,0.785597,0.01,0.01
2024-08-12 20:05:33.0588843,2024-08-12 20:05:33.0589764,5.5E-05,-0.785313,1.1E-05,-2.355977,7.4E-05,1.571082,0.785603,0.01,0.01
2024-08-12 20:05:33.0669952,2024-08-12 20:05:33.0670892,5.5E-05,-0.785316,1.1E-05,-2.355974,7.4E-05,1.57108,0.785601,0.01,0.01
2024-08-12 20:05:33.0791900,2024-08-12 20:05:33.0792802,5.7E-05,-0.78532,9E-06,-2.355971,7.3E-05,1.571079,0.785604,0.01,0.01
2024-08-12 20:05:33.0872922,2024-08-12 20:05:33.0873773,5.5E-05,-0.785319,6E-06,-2.355974,7.4E-05,1.571081,0.785601,0.01,0.01
2024-08-12 20:05:33.0994834,2024-08-12 20:05:33.0995749,5.4E-05,-0.785315,1.1E-05,-2.355974,7.4E-05,1.57108,0.7856,0.01,0.01
2024-08-12 20:05:33.1075749,2024-08-12 20:05:33.1076518,5.2E-05,-0.785318,9E-06,-2.355971,7.2E-05,1.571081,0.7856,0.01,0.01
2024-08-12 20:05:33.1197761,2024-08-12 20:05:33.1198591,5.3E-05,-0.785318,9E-06,-2.355974,7.5E-05,1.571079,0.785603,0.01,0.01
2024-08-12 20:05:33.1278761,2024-08-12 20:05:33.1279577,5.5E-05,-0.785323,1.1E-05,-2.355979,7.4E-05,1.57108,0.7856,0.01,0.01
2024-08-12 20:05:33.1400805,2024-08-12 20:05:33.1401666,5.8E-05,-0.785315,9E-06,-2.355977,7.3E-05,1.571078,0.785604,0.01,0.01
2024-08-12 20:05:33.1481948,2024-08-12 20:05:33.1483009,6.1E-05,-0.785315,9E-06,-2.355974,7.4E-05,1.571081,0.785604,0.01,0.01
2024-08-12 20:05:33.1603856,2024-08-12 20:05:33.1604712,5.2E-05,-0.785326,9E-06,-2.355974,7.6E-05,1.57108,0.7856,0.01,0.01
2024-08-12 20:05:33.1684809,2024-08-12 20:05:33.1685667,5.7E-05,-0.785323,1.1E-05,-2.355974,7.3E-05,1.571079,0.785599,0.01,0.01
2024-08-12 20:05:33.1785851,2024-08-12 20:05:33.1786693,5.6E-05,-0.785319,9E-06,-2.355974,7.2E-05,1.57108,0.785604,0.01,0.01
2024-08-12 20:05:33.1867069,2024-08-12 20:05:33.1867900,5.8E-05,-0.785313,1.4E-05,-2.355979,7.2E-05,1.57108,0.785603,0.01,0.01
2024-08-12 20:05:33.1988700,2024-08-12 20:05:33.1989568,5.2E-05,-0.785323,9E-06,-2.355979,7.3E-05,1.57108,0.7856,0.01,0.01
2024-08-12 20:05:33.2069324,2024-08-12 20:05:33.2070180,5.5E-05,-0.785323,9E-06,-2.355979,7.4E-05,1.57108,0.785602,0.01,0.01
2024-08-12 20:05:33.2190587,2024-08-12 20:05:33.2191549,5.6E-05,-0.785313,1.4E-05,-2.355971,7.2E-05,1.571081,0.785601,0.01,0.01
2024-08-12 20:05:33.2271625,2024-08-12 20:05:33.2272647,5.5E-05,-0.785315,1.1E-05,-2.355974,7.2E-05,1.57108,0.785603,0.01,0.01
2024-08-12 20:05:33.2392852,2024-08-12 20:05:33.2393514,5.8E-05,-0.785316,9E-06,-2.355974,7.3E-05,1.57108,0.785596,0.01,0.01
2024-08-12 20:05:33.2473524,2024-08-12 20:05:33.2474391,5.8E-05,-0.78532,1.1E-05,-2.355971,7.4E-05,1.571079,0.7856,0.01,0.01
2024-08-12 20:05:33.2594747,2024-08-12 20:05:33.2595645,5.6E-05,-0.78532,1.4E-05,-2.355974,7.3E-05,1.571079,0.785601,0.01,0.01
2024-08-12 20:05:33.2675409,2024-08-12 20:05:33.2676305,6.3E-05,-0.785323,6E-06,-2.355974,7.4E-05,1.571078,0.7856,0.01,0.01
2024-08-12 20:05:33.2796538,2024-08-12 20:05:33.2797456,5.5E-05,-0.785315,1.4E-05,-2.355974,7.3E-05,1.57108,0.785605,0.01,0.01
2024-08-12 20:05:33.2877170,2024-08-12 20:05:33.2878039,6.1E-05,-0.78532,1.1E-05,-2.355974,7.4E-05,1.571081,0.785599,0.01,0.01
2024-08-12 20:05:33.2998289,2024-08-12 20:05:33.2999173,5.8E-05,-0.785321,1.1E-05,-2.355974,7.3E-05,1.571079,0.785602,0.01,0.01
2024-08-12 20:05:33.3345826,2024-08-12 20:05:33.3347046,5.6E-05,-0.785318,9E-06,-2.355974,7.4E-05,1.571082,0.785602,0.01,0.01
2024-08-12 20:05:33.3349019,2024-08-12 20:05:33.3349963,5.8E-05,-0.785319,1.1E-05,-2.355974,7.3E-05,1.571079,0.785603,0.01,0.01
2024-08-12 20:05:33.3359005,2024-08-12 20:05:33.3360077,5.5E-05,-0.785315,1.1E-05,-2.355977,7.4E-05,1.57108,0.785597,0.01,0.01
2024-08-12 20:05:33.3403188,2024-08-12 20:05:33.3404063,5.5E-05,-0.785316,9E-06,-2.355977,7.3E-05,1.571081,0.785598,0.01,0.01
2024-08-12 20:05:33.3483831,2024-08-12 20:05:33.3484699,6.3E-05,-0.785318,1.1E-05,-2.355971,7.2E-05,1.571079,0.785602,0.01,0.01
2024-08-12 20:05:33.3605874,2024-08-12 20:05:33.3606712,5E-05,-0.785319,6E-06,-2.355974,7.2E-05,1.571079,0.785599,0.01,0.01
2024-08-12 20:05:33.3686494,2024-08-12 20:05:33.3687340,5.6E-05,-0.785316,1.1E-05,-2.355971,7.3E-05,1.571082,0.785599,0.01,0.01
2024-08-12 20:05:33.3787143,2024-08-12 20:05:33.3788032,5.8E-05,-0.785318,1.1E-05,-2.355971,7.2E-05,1.571078,0.785604,0.01,0.01
2024-08-12 20:05:33.3867785,2024-08-12 20:05:33.3868648,5.3E-05,-0.785315,1.1E-05,-2.355969,7.4E-05,1.57108,0.7856,0.01,0.01
2024-08-12 20:05:33.3988973,2024-08-12 20:05:33.3989838,5.3E-05,-0.78532,1.1E-05,-2.355971,7.3E-05,1.571081,0.785606,0.01,0.01
2024-08-12 20:05:33.4069615,2024-08-12 20:05:33.4070543,5.3E-05,-0.785318,1.4E-05,-2.355977,7.3E-05,1.57108,0.785603,0.01,0.01
2024-08-12 20:05:33.4190798,2024-08-12 20:05:33.4191710,5.2E-05,-0.785318,1.1E-05,-2.355977,7.4E-05,1.57108,0.785596,0.01,0.01
2024-08-12 20:05:33.4271440,2024-08-12 20:05:33.4272403,5.8E-05,-0.785321,1.1E-05,-2.355979,7.3E-05,1.571081,0.785598,0.01,0.01
2024-08-12 20:05:33.4392641,2024-08-12 20:05:33.4393651,5.7E-05,-0.785315,9E-06,-2.355974,7.2E-05,1.571081,0.785602,0.01,0.01
2024-08-12 20:05:33.4473224,2024-08-12 20:05:33.4474082,6.1E-05,-0.785318,9E-06,-2.355969,7.4E-05,1.57108,0.785603,0.01,0.01
2024-08-12 20:05:33.4594395,2024-08-12 20:05:33.4595254,5.8E-05,-0.785318,9E-06,-2.355969,7.3E-05,1.57108,0.785601,0.01,0.01
2024-08-12 20:05:33.4675026,2024-08-12 20:05:33.4675921,5.5E-05,-0.785321,1.1E-05,-2.355974,7.5E-05,1.571079,0.785598,0.01,0.01
2024-08-12 20:05:33.4796229,2024-08-12 20:05:33.4797148,5.5E-05,-0.785326,1.1E-05,-2.355974,7.4E-05,1.571079,0.785598,0.01,0.01
2024-08-12 20:05:33.4876869,2024-08-12 20:05:33.4877804,5.5E-05,-0.785315,1.4E-05,-2.355974,7.5E-05,1.571082,0.785598,0.01,0.01
2024-08-12 20:05:33.4998078,2024-08-12 20:05:33.4999106,5.8E-05,-0.785318,9E-06,-2.355976,7.3E-05,1.571079,0.785598,0.01,0.01
2024-08-12 20:05:33.5078714,2024-08-12 20:05:33.5079571,5.5E-05,-0.78532,9E-06,-2.355977,7.4E-05,1.571078,0.7856,0.01,0.01
2024-08-12 20:05:33.5199877,2024-08-12 20:05:33.5200919,5E-05,-0.785313,1.1E-05,-2.355971,7.4E-05,1.571081,0.785602,0.01,0.01
2024-08-12 20:05:33.5280489,2024-08-12 20:05:33.5281337,5.3E-05,-0.785319,9E-06,-2.355974,7.3E-05,1.571078,0.785597,0.01,0.01
2024-08-12 20:05:33.5401657,2024-08-12 20:05:33.5402554,5.8E-05,-0.785328,1.1E-05,-2.355974,7.3E-05,1.57108,0.785597,0.01,0.01
2024-08-12 20:05:33.5482282,2024-08-12 20:05:33.5483156,5.4E-05,-0.78532,9E-06,-2.355974,7.4E-05,1.57108,0.7856,0.01,0.01
2024-08-12 20:05:33.5603456,2024-08-12 20:05:33.5604298,5.3E-05,-0.785318,9E-06,-2.355977,7.3E-05,1.571082,0.7856,0.01,0.01
2024-08-12 20:05:33.5684067,2024-08-12 20:05:33.5684945,5.5E-05,-0.78532,1.4E-05,-2.355977,7.3E-05,1.57108,0.785603,0.01,0.01
2024-08-12 20:05:33.5805256,2024-08-12 20:05:33.5806132,5.5E-05,-0.785318,9E-06,-2.355977,7.3E-05,1.57108,0.785597,0.01,0.01
2024-08-12 20:05:33.5885905,2024-08-12 20:05:33.5886758,5.8E-05,-0.785315,9E-06,-2.355979,7.3E-05,1.571081,0.785597,0.01,0.01
2024-08-12 20:05:33.5986549,2024-08-12 20:05:33.5987504,5.8E-05,-0.785321,1.1E-05,-2.355971,7.3E-05,1.571081,0.7856,0.01,0.01
2024-08-12 20:05:33.6067194,2024-08-12 20:05:33.6068174,6E-05,-0.785316,1.1E-05,-2.355974,7.3E-05,1.57108,0.785601,0.01,0.01
2024-08-12 20:05:33.6188355,2024-08-12 20:05:33.6189210,5.3E-05,-0.785323,6E-06,-2.355977,7.5E-05,1.57108,0.785602,0.01,0.01
2024-08-12 20:05:33.6390312,2024-08-12 20:05:33.6391404,5.4E-05,-0.785313,1.1E-05,-2.355974,7.4E-05,1.571078,0.785603,0.01,0.01
2024-08-12 20:05:33.6470819,2024-08-12 20:05:33.6471739,6E-05,-0.78532,1.1E-05,-2.355974,7.4E-05,1.571078,0.785603,0.01,0.01
2024-08-12 20:05:33.6592072,2024-08-12 20:05:33.6593017,5.8E-05,-0.78532,9E-06,-2.355971,7.4E-05,1.57108,0.785596,0.01,0.01
