ziyutum/ubuntu/plot/cscdelay.csv
ts_in,ts_out,delay,JointPosition1,JointPosition2,JointPosition3,JointPosition4,JointPosition5,JointPosition6,JointPosition7,GripperData_Width,GripperData_Speed
2024-08-14 18:37:45.9024985,2024-08-14 18:37:45.9072051,4.7066,0.000125,-0.785189,0.000090,-2.355714,0.000373,1.571278,0.785878,0.0100000000000000,0.0100000
2024-08-14 18:37:45.8949204,2024-08-14 18:37:45.9072064,12.286,0.000125,-0.785189,0.000090,-2.355714,0.000373,1.571278,0.785878,0.0100000000000000,0.0100000
2024-08-14 18:37:45.9145993,2024-08-14 18:37:45.9147730,0.1737,0.000125,-0.785196,0.000093,-2.355723,0.000373,1.571280,0.785878,0.0100000000000000,0.0100000
2024-08-14 18:37:45.9226701,2024-08-14 18:37:45.9228457,0.1756,0.000123,-0.785196,0.000093,-2.355714,0.000373,1.571277,0.785881,0.0100000000000000,0.0100000
2024-08-14 18:37:45.9347937,2024-08-14 18:37:45.9349616,0.1679,0.000122,-0.785193,0.000090,-2.355714,0.000372,1.571281,0.785877,0.0100000000000000,0.0100000
2024-08-14 18:37:45.9428432,2024-08-14 18:37:45.9429845,0.1413,0.000120,-0.785201,0.000098,-2.355717,0.000375,1.571278,0.785880,0.0100000000000000,0.0100000
2024-08-14 18:37:45.9549774,2024-08-14 18:37:45.9551555,0.1781,0.000123,-0.785192,0.000099,-2.355719,0.000373,1.571278,0.785878,0.0100000000000000,0.0100000
2024-08-14 18:37:45.9630278,2024-08-14 18:37:45.9631496,0.1218,0.000122,-0.785196,0.000093,-2.355717,0.000373,1.571281,0.785880,0.0100000000000000,0.0100000
2024-08-14 18:37:45.9751635,2024-08-14 18:37:45.9753361,0.1726,0.000122,-0.785202,0.000098,-2.355719,0.000375,1.571279,0.785878,0.0100000000000000,0.0100000
2024-08-14 18:37:45.9832194,2024-08-14 18:37:45.9833864,0.167,0.000123,-0.785198,0.000093,-2.355714,0.000372,1.571279,0.785884,0.0100000000000000,0.0100000
2024-08-14 18:37:46.0176873,2024-08-14 18:37:46.0179102,0.2229,0.000122,-0.785191,0.000093,-2.355714,0.000375,1.571279,0.785881,0.0100000000000000,0.0100000
2024-08-14 18:37:46.0185642,2024-08-14 18:37:46.0187582,0.194,0.000120,-0.785196,0.000096,-2.355717,0.000374,1.571278,0.785881,0.0100000000000000,0.0100000
2024-08-14 18:37:46.0196162,2024-08-14 18:37:46.0197904,0.1742,0.000123,-0.785199,0.000096,-2.355714,0.000371,1.571278,0.785880,0.0100000000000000,0.0100000
2024-08-14 18:37:46.0236961,2024-08-14 18:37:46.0238722,0.1761,0.000123,-0.785194,0.000096,-2.355711,0.000373,1.571280,0.785883,0.0100000000000000,0.0100000
2024-08-14 18:37:46.0337653,2024-08-14 18:37:46.0339140,0.1487,0.000125,-0.785197,0.000093,-2.355719,0.000373,1.571278,0.785881,0.0100000000000000,0.0100000
2024-08-14 18:37:46.0418328,2024-08-14 18:37:46.0420002,0.1674,0.000121,-0.785195,0.000098,-2.355714,0.000375,1.571278,0.785876,0.0100000000000000,0.0100000
2024-08-14 18:37:46.0539441,2024-08-14 18:37:46.0540966,0.1525,0.000122,-0.785199,0.000093,-2.355722,0.000377,1.571279,0.785880,0.0100000000000000,0.0100000
2024-08-14 18:37:46.0620295,2024-08-14 18:37:46.0622071,0.1776,0.000125,-0.785194,0.000096,-2.355714,0.000373,1.571278,0.785875,0.0100000000000000,0.0100000
2024-08-14 18:37:46.0741436,2024-08-14 18:37:46.0743189,0.1753,0.000123,-0.785196,0.000093,-2.355711,0.000374,1.571278,0.785881,0.0100000000000000,0.0100000
2024-08-14 18:37:46.0822141,2024-08-14 18:37:46.0824235,0.2094,0.000123,-0.785193,0.000096,-2.355719,0.000373,1.571280,0.785880,0.0100000000000000,0.0100000
2024-08-14 18:37:46.0943638,2024-08-14 18:37:46.0945708,0.207,0.000122,-0.785198,0.000093,-2.355711,0.000373,1.571277,0.785883,0.0100000000000000,0.0100000
2024-08-14 18:37:46.1024248,2024-08-14 18:37:46.1025821,0.1573,0.000122,-0.785199,0.000091,-2.355716,0.000370,1.571280,0.785880,0.0100000000000000,0.0100000
2024-08-14 18:37:46.1145397,2024-08-14 18:37:46.1147260,0.1863,0.000123,-0.785198,0.000096,-2.355714,0.000374,1.571279,0.785881,0.0100000000000000,0.0100000
2024-08-14 18:37:46.1226138,2024-08-14 18:37:46.1227818,0.168,0.000123,-0.785202,0.000093,-2.355714,0.000375,1.571277,0.785878,0.0100000000000000,0.0100000
2024-08-14 18:37:46.1347398,2024-08-14 18:37:46.1349097,0.1699,0.000125,-0.785198,0.000096,-2.355719,0.000373,1.571279,0.785880,0.0100000000000000,0.0100000
2024-08-14 18:37:46.1428174,2024-08-14 18:37:46.1430704,0.253,0.000127,-0.785193,0.000093,-2.355714,0.000373,1.571278,0.785880,0.0100000000000000,0.0100000
2024-08-14 18:37:46.1549304,2024-08-14 18:37:46.1551083,0.1779,0.000122,-0.785196,0.000088,-2.355714,0.000373,1.571278,0.785880,0.0100000000000000,0.0100000
2024-08-14 18:37:46.1630016,2024-08-14 18:37:46.1631873,0.1857,0.000120,-0.785191,0.000095,-2.355717,0.000373,1.571279,0.785882,0.0100000000000000,0.0100000
2024-08-14 18:37:46.1751077,2024-08-14 18:37:46.1752756,0.1679,0.000125,-0.785189,0.000093,-2.355717,0.000373,1.571278,0.785882,0.0100000000000000,0.0100000
2024-08-14 18:37:46.1831978,2024-08-14 18:37:46.1834146,0.2168,0.000125,-0.785193,0.000091,-2.355719,0.000373,1.571279,0.785884,0.0100000000000000,0.0100000
2024-08-14 18:37:46.1952912,2024-08-14 18:37:46.1954387,0.1475,0.000125,-0.785196,0.000095,-2.355717,0.000372,1.571278,0.785881,0.0100000000000000,0.0100000
2024-08-14 18:37:46.2033539,2024-08-14 18:37:46.2035018,0.1479,0.000125,-0.785194,0.000093,-2.355715,0.000372,1.571279,0.785882,0.0100000000000000,0.0100000
2024-08-14 18:37:46.2155182,2024-08-14 18:37:46.2158701,0.3519,0.000121,-0.785196,0.000098,-2.355717,0.000376,1.571278,0.785881,0.0100000000000000,0.0100000
2024-08-14 18:37:46.2236755,2024-08-14 18:37:46.2238237,0.1482,0.000123,-0.785199,0.000090,-2.355717,0.000374,1.571278,0.785879,0.0100000000000000,0.0100000
2024-08-14 18:37:46.2337543,2024-08-14 18:37:46.2339523,0.198,0.000127,-0.785194,0.000093,-2.355723,0.000375,1.571280,0.785881,0.0100000000000000,0.0100000
2024-08-14 18:37:46.2418022,2024-08-14 18:37:46.2419481,0.1459,0.000125,-0.785194,0.000090,-2.355711,0.000377,1.571279,0.785878,0.0100000000000000,0.0100000
2024-08-14 18:37:46.2539362,2024-08-14 18:37:46.2541241,0.1879,0.000128,-0.785191,0.000093,-2.355714,0.000373,1.571279,0.785876,0.0100000000000000,0.0100000
2024-08-14 18:37:46.2619850,2024-08-14 18:37:46.2621312,0.1462,0.000125,-0.785195,0.000093,-2.355711,0.000373,1.571279,0.785878,0.0100000000000000,0.0100000
2024-08-14 18:37:46.2741195,2024-08-14 18:37:46.2743081,0.1886,0.000122,-0.785196,0.000093,-2.355717,0.000373,1.571278,0.785874,0.0100000000000000,0.0100000
2024-08-14 18:37:46.2821904,2024-08-14 18:37:46.2823960,0.2056,0.000125,-0.785193,0.000095,-2.355717,0.000373,1.571280,0.785879,0.0100000000000000,0.0100000
2024-08-14 18:37:46.2942997,2024-08-14 18:37:46.2944674,0.1677,0.000123,-0.785201,0.000096,-2.355714,0.000373,1.571278,0.785878,0.0100000000000000,0.0100000
2024-08-14 18:37:46.3023819,2024-08-14 18:37:46.3026099,0.228,0.000122,-0.785193,0.000090,-2.355717,0.000376,1.571278,0.785881,0.0100000000000000,0.0100000
2024-08-14 18:37:46.3144946,2024-08-14 18:37:46.3147064,0.2118,0.000122,-0.785197,0.000093,-2.355717,0.000374,1.571279,0.785875,0.0100000000000000,0.0100000
2024-08-14 18:37:46.3225634,2024-08-14 18:37:46.3227620,0.1986,0.000122,-0.785193,0.000098,-2.355714,0.000375,1.571279,0.785881,0.0100000000000000,0.0100000
2024-08-14 18:37:46.3346778,2024-08-14 18:37:46.3348562,0.1784,0.000123,-0.785196,0.000096,-2.355720,0.000373,1.571279,0.785878,0.0100000000000000,0.0100000
2024-08-14 18:37:46.3427372,2024-08-14 18:37:46.3429167,0.1795,0.000128,-0.785196,0.000099,-2.355714,0.000372,1.571279,0.785880,0.0100000000000000,0.0100000
2024-08-14 18:37:46.3548618,2024-08-14 18:37:46.3550340,0.1722,0.000126,-0.785199,0.000091,-2.355717,0.000374,1.571279,0.785883,0.0100000000000000,0.0100000
2024-08-14 18:37:46.3629294,2024-08-14 18:37:46.3631086,0.1792,0.000122,-0.785196,0.000093,-2.355711,0.000375,1.571278,0.785882,0.0100000000000000,0.0100000
2024-08-14 18:37:46.3750525,2024-08-14 18:37:46.3752317,0.1792,0.000120,-0.785193,0.000096,-2.355719,0.000373,1.571279,0.785880,0.0100000000000000,0.0100000
2024-08-14 18:37:46.3831130,2024-08-14 18:37:46.3832840,0.171,0.000122,-0.785199,0.000093,-2.355714,0.000374,1.571279,0.785878,0.0100000000000000,0.0100000
2024-08-14 18:37:46.3952317,2024-08-14 18:37:46.3954238,0.1921,0.000130,-0.785198,0.000093,-2.355717,0.000372,1.571278,0.785875,0.0100000000000000,0.0100000
2024-08-14 18:37:46.4033149,2024-08-14 18:37:46.4035322,0.2173,0.000123,-0.785197,0.000093,-2.355714,0.000373,1.571278,0.785875,0.0100000000000000,0.0100000
2024-08-14 18:37:46.4154389,2024-08-14 18:37:46.4156685,0.2296,0.000128,-0.785198,0.000095,-2.355717,0.000373,1.571279,0.785884,0.0100000000000000,0.0100000
2024-08-14 18:37:46.4235706,2024-08-14 18:37:46.4237538,0.1832,0.000123,-0.785194,0.000096,-2.355711,0.000374,1.571279,0.785875,0.0100000000000000,0.0100000
2024-08-14 18:37:46.4356911,2024-08-14 18:37:46.4359173,0.2262,0.000120,-0.785196,0.000093,-2.355717,0.000374,1.571277,0.785884,0.0100000000000000,0.0100000
2024-08-14 18:37:46.4437458,2024-08-14 18:37:46.4439268,0.181,0.000120,-0.785191,0.000093,-2.355717,0.000373,1.571279,0.785878,0.0100000000000000,0.0100000
2024-08-14 18:37:46.4538100,2024-08-14 18:37:46.4540101,0.2001,0.000125,-0.785193,0.000085,-2.355715,0.000373,1.571279,0.785884,0.0100000000000000,0.0100000
2024-08-14 18:37:46.4618654,2024-08-14 18:37:46.4620458,0.1804,0.000122,-0.785196,0.000093,-2.355719,0.000373,1.571280,0.785884,0.0100000000000000,0.0100000
2024-08-14 18:37:46.4739819,2024-08-14 18:37:46.4741607,0.1788,0.000120,-0.785194,0.000090,-2.355719,0.000373,1.571278,0.785875,0.0100000000000000,0.0100000
2024-08-14 18:37:46.4820395,2024-08-14 18:37:46.4822858,0.2463,0.000126,-0.785194,0.000091,-2.355714,0.000375,1.571278,0.785876,0.0100000000000000,0.0100000
2024-08-14 18:37:46.4941563,2024-08-14 18:37:46.4943532,0.1969,0.000122,-0.785196,0.000090,-2.355717,0.000375,1.571280,0.785880,0.0100000000000000,0.0100000
2024-08-14 18:37:46.5022166,2024-08-14 18:37:46.5024056,0.189,0.000122,-0.785193,0.000093,-2.355717,0.000372,1.571278,0.785876,0.0100000000000000,0.0100000
2024-08-14 18:37:46.5143280,2024-08-14 18:37:46.5145024,0.1744,0.000125,-0.785194,0.000090,-2.355717,0.000374,1.571279,0.785884,0.0100000000000000,0.0100000
2024-08-14 18:37:46.5223873,2024-08-14 18:37:46.5225739,0.1866,0.000125,-0.785201,0.000091,-2.355717,0.000374,1.571278,0.785884,0.0100000000000000,0.0100000
2024-08-14 18:37:46.5345354,2024-08-14 18:37:46.5347832,0.2478,0.000122,-0.785192,0.000096,-2.355717,0.000377,1.571278,0.785877,0.0100000000000000,0.0100000
2024-08-14 18:37:46.5425702,2024-08-14 18:37:46.5427446,0.1744,0.000125,-0.785196,0.000096,-2.355714,0.000376,1.571279,0.785875,0.0100000000000000,0.0100000
2024-08-14 18:37:46.5546963,2024-08-14 18:37:46.5548852,0.1889,0.000125,-0.785199,0.000093,-2.355714,0.000376,1.571279,0.785878,0.0100000000000000,0.0100000
2024-08-14 18:37:46.5627568,2024-08-14 18:37:46.5629427,0.1859,0.000123,-0.785196,0.000094,-2.355711,0.000375,1.571278,0.785879,0.0100000000000000,0.0100000
2024-08-14 18:37:46.5748700,2024-08-14 18:37:46.5750375,0.1675,0.000125,-0.785201,0.000095,-2.355714,0.000371,1.571277,0.785878,0.0100000000000000,0.0100000
2024-08-14 18:37:46.5829339,2024-08-14 18:37:46.5831178,0.1839,0.000125,-0.785191,0.000096,-2.355719,0.000373,1.571279,0.785875,0.0100000000000000,0.0100000
2024-08-14 18:37:46.5950601,2024-08-14 18:37:46.5952626,0.2025,0.000118,-0.785196,0.000093,-2.355714,0.000375,1.571279,0.785881,0.0100000000000000,0.0100000
2024-08-14 18:37:46.6031211,2024-08-14 18:37:46.6033230,0.2019,0.000125,-0.785194,0.000096,-2.355717,0.000375,1.571279,0.785878,0.0100000000000000,0.0100000
2024-08-14 18:37:46.6152477,2024-08-14 18:37:46.6154802,0.2325,0.000125,-0.785196,0.000093,-2.355719,0.000374,1.571281,0.785878,0.0100000000000000,0.0100000
2024-08-14 18:37:46.6233017,2024-08-14 18:37:46.6235027,0.201,0.000128,-0.785196,0.000096,-2.355717,0.000375,1.571279,0.785878,0.0100000000000000,0.0100000
2024-08-14 18:37:46.6354342,2024-08-14 18:37:46.6356299,0.1957,0.000123,-0.785201,0.000095,-2.355717,0.000373,1.571279,0.785881,0.0100000000000000,0.0100000
2024-08-14 18:37:46.6435028,2024-08-14 18:37:46.6437221,0.2193,0.000125,-0.785191,0.000090,-2.355717,0.000376,1.571274,0.785880,0.0100000000000000,0.0100000
2024-08-14 18:37:46.6556169,2024-08-14 18:37:46.6558064,0.1895,0.000123,-0.785191,0.000093,-2.355719,0.000373,1.571279,0.785883,0.0100000000000000,0.0100000
2024-08-14 18:37:46.6636777,2024-08-14 18:37:46.6638780,0.2003,0.000125,-0.785192,0.000093,-2.355717,0.000373,1.571279,0.785882,0.0100000000000000,0.0100000
2024-08-14 18:37:46.6737343,2024-08-14 18:37:46.6739126,0.1783,0.000122,-0.785191,0.000090,-2.355714,0.000373,1.571278,0.785883,0.0100000000000000,0.0100000
2024-08-14 18:37:46.6939926,2024-08-14 18:37:46.6943235,0.3309,0.000122,-0.785193,0.000093,-2.355717,0.000373,1.571280,0.785881,0.0100000000000000,0.0100000
2024-08-14 18:37:46.7020439,2024-08-14 18:37:46.7022331,0.1892,0.000122,-0.785199,0.000093,-2.355717,0.000376,1.571278,0.785883,0.0100000000000000,0.0100000
2024-08-14 18:37:46.7141762,2024-08-14 18:37:46.7143530,0.1768,0.000125,-0.785196,0.000097,-2.355719,0.000373,1.571279,0.785875,0.0100000000000000,0.0100000
2024-08-14 18:37:46.7222193,2024-08-14 18:37:46.7223863,0.167,0.000126,-0.785199,0.000091,-2.355717,0.000373,1.571279,0.785879,0.0100000000000000,0.0100000
2024-08-14 18:37:46.7343415,2024-08-14 18:37:46.7345119,0.1704,0.000123,-0.785197,0.000096,-2.355714,0.000373,1.571277,0.785881,0.0100000000000000,0.0100000
2024-08-14 18:37:46.7424067,2024-08-14 18:37:46.7425920,0.1853,0.000123,-0.785196,0.000093,-2.355717,0.000372,1.571278,0.785880,0.0100000000000000,0.0100000
2024-08-14 18:37:46.7545219,2024-08-14 18:37:46.7546962,0.1743,0.000125,-0.785194,0.000096,-2.355717,0.000375,1.571279,0.785881,0.0100000000000000,0.0100000
2024-08-14 18:37:46.7625708,2024-08-14 18:37:46.7627208,0.15,0.000123,-0.785193,0.000089,-2.355719,0.000373,1.571278,0.785884,0.0100000000000000,0.0100000
2024-08-14 18:37:46.7747129,2024-08-14 18:37:46.7749147,0.2018,0.000123,-0.785202,0.000095,-2.355719,0.000372,1.571279,0.785881,0.0100000000000000,0.0100000
2024-08-14 18:37:46.7827709,2024-08-14 18:37:46.7829645,0.1936,0.000125,-0.785194,0.000094,-2.355714,0.000373,1.571279,0.785879,0.0100000000000000,0.0100000
2024-08-14 18:37:46.7948746,2024-08-14 18:37:46.7950586,0.184,0.000125,-0.785196,0.000093,-2.355717,0.000378,1.571278,0.785883,0.0100000000000000,0.0100000
2024-08-14 18:37:46.8029288,2024-08-14 18:37:46.8031065,0.1777,0.000120,-0.785193,0.000088,-2.355714,0.000377,1.571278,0.785881,0.0100000000000000,0.0100000
2024-08-14 18:37:46.8150474,2024-08-14 18:37:46.8152243,0.1769,0.000122,-0.785192,0.000096,-2.355719,0.000374,1.571278,0.785881,0.0100000000000000,0.0100000
2024-08-14 18:37:46.8231151,2024-08-14 18:37:46.8233130,0.1979,0.000124,-0.785192,0.000093,-2.355714,0.000373,1.571280,0.785883,0.0100000000000000,0.0100000
2024-08-14 18:37:46.8352284,2024-08-14 18:37:46.8353988,0.1704,0.000125,-0.785193,0.000096,-2.355717,0.000373,1.571279,0.785882,0.0100000000000000,0.0100000
2024-08-14 18:37:46.8432765,2024-08-14 18:37:46.8434389,0.1624,0.000123,-0.785191,0.000094,-2.355717,0.000377,1.571278,0.785884,0.0100000000000000,0.0100000
2024-08-14 18:37:46.8554030,2024-08-14 18:37:46.8555915,0.1885,0.000122,-0.785199,0.000093,-2.355719,0.000372,1.571279,0.785878,0.0100000000000000,0.0100000
2024-08-14 18:37:46.8634674,2024-08-14 18:37:46.8636711,0.2037,0.000122,-0.785194,0.000093,-2.355717,0.000373,1.571277,0.785883,0.0100000000000000,0.0100000
2024-08-14 18:37:46.8756066,2024-08-14 18:37:46.8758280,0.2214,0.000120,-0.785194,0.000091,-2.355717,0.000376,1.571279,0.785880,0.0100000000000000,0.0100000
2024-08-14 18:37:46.8836514,2024-08-14 18:37:46.8838271,0.1757,0.000125,-0.785193,0.000098,-2.355714,0.000375,1.571279,0.785880,0.0100000000000000,0.0100000
2024-08-14 18:37:46.8938184,2024-08-14 18:37:46.8940041,0.1857,0.000123,-0.785198,0.000090,-2.355717,0.000373,1.571278,0.785881,0.0100000000000000,0.0100000
2024-08-14 18:37:46.9018889,2024-08-14 18:37:46.9021030,0.2141,0.000122,-0.785196,0.000096,-2.355717,0.000375,1.571280,0.785881,0.0100000000000000,0.0100000
2024-08-14 18:37:46.9140012,2024-08-14 18:37:46.9141670,0.1658,0.000122,-0.785202,0.000090,-2.355717,0.000373,1.571278,0.785876,0.0100000000000000,0.0100000
2024-08-14 18:37:46.9220670,2024-08-14 18:37:46.9222633,0.1963,0.000125,-0.785194,0.000096,-2.355719,0.000374,1.571277,0.785879,0.0100000000000000,0.0100000
2024-08-14 18:37:46.9341942,2024-08-14 18:37:46.9343925,0.1983,0.000120,-0.785194,0.000093,-2.355717,0.000373,1.571277,0.785879,0.0100000000000000,0.0100000
2024-08-14 18:37:46.9422369,2024-08-14 18:37:46.9423987,0.1618,0.000128,-0.785196,0.000096,-2.355721,0.000375,1.571279,0.785874,0.0100000000000000,0.0100000
2024-08-14 18:37:46.9543705,2024-08-14 18:37:46.9545652,0.1947,0.000123,-0.785194,0.000098,-2.355712,0.000373,1.571278,0.785878,0.0100000000000000,0.0100000
2024-08-14 18:37:46.9624160,2024-08-14 18:37:46.9625838,0.1678,0.000120,-0.785196,0.000098,-2.355714,0.000376,1.571277,0.785875,0.0100000000000000,0.0100000
2024-08-14 18:37:46.9745494,2024-08-14 18:37:46.9747405,0.1911,0.000122,-0.785193,0.000090,-2.355717,0.000373,1.571279,0.785882,0.0100000000000000,0.0100000
2024-08-14 18:37:46.9825997,2024-08-14 18:37:46.9827741,0.1744,0.000119,-0.785196,0.000096,-2.355714,0.000372,1.571279,0.785878,0.0100000000000000,0.0100000
2024-08-14 18:37:46.9947224,2024-08-14 18:37:46.9949016,0.1792,0.000125,-0.785196,0.000093,-2.355717,0.000375,1.571275,0.785884,0.0100000000000000,0.0100000
2024-08-14 18:37:47.0027794,2024-08-14 18:37:47.0029543,0.1749,0.000122,-0.785196,0.000091,-2.355711,0.000373,1.571280,0.785877,0.0100000000000000,0.0100000
2024-08-14 18:37:47.0148939,2024-08-14 18:37:47.0150636,0.1697,0.000123,-0.785194,0.000093,-2.355719,0.000373,1.571280,0.785878,0.0100000000000000,0.0100000
2024-08-14 18:37:47.0229650,2024-08-14 18:37:47.0231902,0.2252,0.000123,-0.785194,0.000096,-2.355714,0.000377,1.571278,0.785881,0.0100000000000000,0.0100000
2024-08-14 18:37:47.0350943,2024-08-14 18:37:47.0353181,0.2238,0.000125,-0.785194,0.000088,-2.355714,0.000373,1.571278,0.785880,0.0100000000000000,0.0100000
2024-08-14 18:37:47.0431349,2024-08-14 18:37:47.0432945,0.1596,0.000122,-0.785203,0.000093,-2.355714,0.000372,1.571279,0.785881,0.0100000000000000,0.0100000
2024-08-14 18:37:47.0552729,2024-08-14 18:37:47.0554713,0.1984,0.000126,-0.785198,0.000096,-2.355717,0.000373,1.571279,0.785879,0.0100000000000000,0.0100000
2024-08-14 18:37:47.0633130,2024-08-14 18:37:47.0634704,0.1574,0.000127,-0.785193,0.000093,-2.355717,0.000375,1.571280,0.785879,0.0100000000000000,0.0100000
2024-08-14 18:37:47.0754417,2024-08-14 18:37:47.0756401,0.1984,0.000122,-0.785194,0.000095,-2.355714,0.000372,1.571279,0.785881,0.0100000000000000,0.0100000
2024-08-14 18:37:47.0835148,2024-08-14 18:37:47.0837260,0.2112,0.000122,-0.785191,0.000090,-2.355717,0.000372,1.571278,0.785881,0.0100000000000000,0.0100000
2024-08-14 18:37:47.0956160,2024-08-14 18:37:47.0957916,0.1756,0.000127,-0.785200,0.000096,-2.355714,0.000373,1.571279,0.785881,0.0100000000000000,0.0100000
2024-08-14 18:37:47.1036935,2024-08-14 18:37:47.1038648,0.1713,0.000122,-0.785198,0.000095,-2.355717,0.000374,1.571278,0.785879,0.0100000000000000,0.0100000
2024-08-14 18:37:47.1137502,2024-08-14 18:37:47.1138926,0.1424,0.000126,-0.785194,0.000098,-2.355711,0.000375,1.571278,0.785880,0.0100000000000000,0.0100000
2024-08-14 18:37:47.1218169,2024-08-14 18:37:47.1219797,0.1628,0.000122,-0.785194,0.000093,-2.355717,0.000376,1.571278,0.785880,0.0100000000000000,0.0100000
2024-08-14 18:37:47.1339418,2024-08-14 18:37:47.1341214,0.1796,0.000128,-0.785197,0.000096,-2.355714,0.000373,1.571277,0.785879,0.0100000000000000,0.0100000
2024-08-14 18:37:47.1419889,2024-08-14 18:37:47.1421290,0.1401,0.000125,-0.785193,0.000090,-2.355714,0.000373,1.571278,0.785878,0.0100000000000000,0.0100000
2024-08-14 18:37:47.1541065,2024-08-14 18:37:47.1542559,0.1494,0.000122,-0.785198,0.000093,-2.355717,0.000373,1.571279,0.785878,0.0100000000000000,0.0100000
2024-08-14 18:37:47.1621652,2024-08-14 18:37:47.1623061,0.1409,0.000120,-0.785192,0.000092,-2.355717,0.000372,1.571278,0.785878,0.0100000000000000,0.0100000
2024-08-14 18:37:47.1742776,2024-08-14 18:37:47.1744191,0.1415,0.000126,-0.785196,0.000096,-2.355714,0.000373,1.571278,0.785877,0.0100000000000000,0.0100000
2024-08-14 18:37:47.1823656,2024-08-14 18:37:47.1825318,0.1662,0.000120,-0.785196,0.000093,-2.355717,0.000377,1.571279,0.785878,0.0100000000000000,0.0100000
2024-08-14 18:37:47.1944859,2024-08-14 18:37:47.1946262,0.1403,0.000125,-0.785196,0.000090,-2.355717,0.000373,1.571280,0.785879,0.0100000000000000,0.0100000
2024-08-14 18:37:47.2025528,2024-08-14 18:37:47.2027136,0.1608,0.000122,-0.785193,0.000093,-2.355714,0.000372,1.571280,0.785877,0.0100000000000000,0.0100000
2024-08-14 18:37:47.2146853,2024-08-14 18:37:47.2148416,0.1563,0.000124,-0.785194,0.000095,-2.355719,0.000373,1.571279,0.785879,0.0100000000000000,0.0100000
2024-08-14 18:37:47.2227391,2024-08-14 18:37:47.2228798,0.1407,0.000122,-0.785191,0.000093,-2.355717,0.000373,1.571279,0.785882,0.0100000000000000,0.0100000
2024-08-14 18:37:47.2349884,2024-08-14 18:37:47.2351571,0.1687,0.000122,-0.785194,0.000093,-2.355717,0.000378,1.571280,0.785880,0.0100000000000000,0.0100000
2024-08-14 18:37:47.2430449,2024-08-14 18:37:47.2432011,0.1562,0.000125,-0.785196,0.000096,-2.355714,0.000374,1.571279,0.785881,0.0100000000000000,0.0100000
2024-08-14 18:37:47.2552324,2024-08-14 18:37:47.2554151,0.1827,0.000120,-0.785202,0.000095,-2.355719,0.000373,1.571280,0.785881,0.0100000000000000,0.0100000
2024-08-14 18:37:47.2633411,2024-08-14 18:37:47.2634999,0.1588,0.000121,-0.785194,0.000096,-2.355719,0.000371,1.571278,0.785881,0.0100000000000000,0.0100000
2024-08-14 18:37:47.2755888,2024-08-14 18:37:47.2757712,0.1824,0.000122,-0.785194,0.000093,-2.355717,0.000373,1.571278,0.785881,0.0100000000000000,0.0100000
2024-08-14 18:37:47.2837102,2024-08-14 18:37:47.2838822,0.172,0.000123,-0.785196,0.000096,-2.355717,0.000376,1.571278,0.785881,0.0100000000000000,0.0100000
2024-08-14 18:37:47.2938722,2024-08-14 18:37:47.2940232,0.151,0.000122,-0.785194,0.000096,-2.355719,0.000373,1.571278,0.785884,0.0100000000000000,0.0100000
2024-08-14 18:37:47.3019623,2024-08-14 18:37:47.3021479,0.1856,0.000125,-0.785194,0.000090,-2.355719,0.000373,1.571278,0.785880,0.0100000000000000,0.0100000
2024-08-14 18:37:47.3141708,2024-08-14 18:37:47.3143246,0.1538,0.000128,-0.785194,0.000096,-2.355714,0.000375,1.571278,0.785880,0.0100000000000000,0.0100000
2024-08-14 18:37:47.3222780,2024-08-14 18:37:47.3224155,0.1375,0.000125,-0.785191,0.000091,-2.355714,0.000374,1.571279,0.785881,0.0100000000000000,0.0100000
2024-08-14 18:37:47.3344816,2024-08-14 18:37:47.3346153,0.1337,0.000127,-0.785194,0.000093,-2.355714,0.000375,1.571278,0.785878,0.0100000000000000,0.0100000
2024-08-14 18:37:47.3425699,2024-08-14 18:37:47.3426939,0.124,0.000120,-0.785195,0.000098,-2.355717,0.000373,1.571277,0.785881,0.0100000000000000,0.0100000
2024-08-14 18:37:47.3547793,2024-08-14 18:37:47.3549122,0.1329,0.000127,-0.785204,0.000096,-2.355714,0.000373,1.571278,0.785881,0.0100000000000000,0.0100000
2024-08-14 18:37:47.3629070,2024-08-14 18:37:47.3630582,0.1512,0.000125,-0.785194,0.000093,-2.355714,0.000372,1.571279,0.785882,0.0100000000000000,0.0100000
2024-08-14 18:37:47.3751459,2024-08-14 18:37:47.3752771,0.1312,0.000120,-0.785194,0.000093,-2.355714,0.000373,1.571277,0.785877,0.0100000000000000,0.0100000
2024-08-14 18:37:47.3832206,2024-08-14 18:37:47.3833415,0.1209,0.000125,-0.785197,0.000096,-2.355714,0.000375,1.571277,0.785881,0.0100000000000000,0.0100000
2024-08-14 18:37:47.3954454,2024-08-14 18:37:47.3955654,0.12,0.000118,-0.785193,0.000095,-2.355719,0.000373,1.571279,0.785877,0.0100000000000000,0.0100000
2024-08-14 18:37:47.4035741,2024-08-14 18:37:47.4037312,0.1571,0.000120,-0.785194,0.000093,-2.355711,0.000378,1.571279,0.785879,0.0100000000000000,0.0100000
2024-08-14 18:37:47.4136650,2024-08-14 18:37:47.4137790,0.114,0.000123,-0.785194,0.000094,-2.355717,0.000373,1.571279,0.785877,0.0100000000000000,0.0100000
2024-08-14 18:37:47.4217544,2024-08-14 18:37:47.4219053,0.1509,0.000125,-0.785197,0.000093,-2.355717,0.000372,1.571280,0.785879,0.0100000000000000,0.0100000
2024-08-14 18:37:47.4339279,2024-08-14 18:37:47.4340932,0.1653,0.000123,-0.785193,0.000098,-2.355717,0.000373,1.571280,0.785879,0.0100000000000000,0.0100000
2024-08-14 18:37:47.4420383,2024-08-14 18:37:47.4421563,0.118,0.000121,-0.785197,0.000091,-2.355717,0.000376,1.571278,0.785881,0.0100000000000000,0.0100000
2024-08-14 18:37:47.4541799,2024-08-14 18:37:47.4543212,0.1413,0.000125,-0.785199,0.000093,-2.355719,0.000371,1.571279,0.785882,0.0100000000000000,0.0100000
2024-08-14 18:37:47.4622299,2024-08-14 18:37:47.4623488,0.1189,0.000120,-0.785191,0.000101,-2.355714,0.000373,1.571281,0.785880,0.0100000000000000,0.0100000
2024-08-14 18:37:47.4743707,2024-08-14 18:37:47.4745119,0.1412,0.000123,-0.785194,0.000093,-2.355711,0.000373,1.571279,0.785881,0.0100000000000000,0.0100000
2024-08-14 18:37:47.4945994,2024-08-14 18:37:47.4947258,0.1264,0.000123,-0.785194,0.000093,-2.355714,0.000373,1.571279,0.785880,0.0100000000000000,0.0100000
2024-08-14 18:37:47.5026617,2024-08-14 18:37:47.5027997,0.138,0.000126,-0.785201,0.000096,-2.355714,0.000376,1.571279,0.785883,0.0100000000000000,0.0100000
2024-08-14 18:37:47.5147915,2024-08-14 18:37:47.5149555,0.164,0.000123,-0.785194,0.000090,-2.355717,0.000374,1.571278,0.785881,0.0100000000000000,0.0100000
2024-08-14 18:37:47.5228517,2024-08-14 18:37:47.5229773,0.1256,0.000123,-0.785193,0.000090,-2.355717,0.000374,1.571279,0.785879,0.0100000000000000,0.0100000
2024-08-14 18:37:47.5349840,2024-08-14 18:37:47.5351069,0.1229,0.000124,-0.785196,0.000093,-2.355719,0.000377,1.571277,0.785881,0.0100000000000000,0.0100000
2024-08-14 18:37:47.5430307,2024-08-14 18:37:47.5431394,0.1087,0.000122,-0.785192,0.000093,-2.355719,0.000373,1.571279,0.785881,0.0100000000000000,0.0100000
2024-08-14 18:37:47.5551772,2024-08-14 18:37:47.5553134,0.1362,0.000123,-0.785195,0.000093,-2.355714,0.000373,1.571278,0.785879,0.0100000000000000,0.0100000
2024-08-14 18:37:47.5632876,2024-08-14 18:37:47.5633981,0.1105,0.000125,-0.785194,0.000093,-2.355717,0.000375,1.571278,0.785881,0.0100000000000000,0.0100000
2024-08-14 18:37:47.5754216,2024-08-14 18:37:47.5755534,0.1318,0.000122,-0.785193,0.000093,-2.355719,0.000375,1.571277,0.785881,0.0100000000000000,0.0100000
2024-08-14 18:37:47.5834870,2024-08-14 18:37:47.5836177,0.1307,0.000123,-0.785199,0.000095,-2.355714,0.000373,1.571277,0.785882,0.0100000000000000,0.0100000
2024-08-14 18:37:47.5955934,2024-08-14 18:37:47.5956912,0.0978,0.000120,-0.785191,0.000093,-2.355714,0.000373,1.571278,0.785883,0.0100000000000000,0.0100000
2024-08-14 18:37:47.6036727,2024-08-14 18:37:47.6038069,0.1342,0.000120,-0.785198,0.000090,-2.355717,0.000374,1.571278,0.785883,0.0100000000000000,0.0100000
2024-08-14 18:37:47.6137317,2024-08-14 18:37:47.6138315,0.0998,0.000120,-0.785189,0.000091,-2.355714,0.000373,1.571279,0.785880,0.0100000000000000,0.0100000
2024-08-14 18:37:47.6218102,2024-08-14 18:37:47.6219529,0.1427,0.000128,-0.785197,0.000090,-2.355714,0.000372,1.571279,0.785881,0.0100000000000000,0.0100000
2024-08-14 18:37:47.6339501,2024-08-14 18:37:47.6340921,0.142,0.000120,-0.785196,0.000090,-2.355714,0.000373,1.571279,0.785879,0.0100000000000000,0.0100000
2024-08-14 18:37:47.6419917,2024-08-14 18:37:47.6429689,0.9772,0.000126,-0.785191,0.000096,-2.355717,0.000376,1.571277,0.785881,0.0100000000000000,0.0100000
2024-08-14 18:37:47.6541348,2024-08-14 18:37:47.6542460,0.1112,0.000127,-0.785194,0.000094,-2.355719,0.000374,1.571279,0.785878,0.0100000000000000,0.0100000
2024-08-14 18:37:47.6621800,2024-08-14 18:37:47.6622636,0.0836,0.000125,-0.785197,0.000093,-2.355714,0.000373,1.571277,0.785883,0.0100000000000000,0.0100000
2024-08-14 18:37:47.6743170,2024-08-14 18:37:47.6744312,0.1142,0.000123,-0.785193,0.000093,-2.355717,0.000373,1.571279,0.785883,0.0100000000000000,0.0100000
2024-08-14 18:37:47.6824870,2024-08-14 18:37:47.6826677,0.1807,0.000121,-0.785196,0.000090,-2.355714,0.000375,1.571278,0.785882,0.0100000000000000,0.0100000
2024-08-14 18:37:47.6946719,2024-08-14 18:37:47.6947730,0.1011,0.000120,-0.785201,0.000093,-2.355722,0.000374,1.571278,0.785879,0.0100000000000000,0.0100000
2024-08-14 18:37:47.7034245,2024-08-14 18:37:47.7035105,0.086,0.000122,-0.785191,0.000093,-2.355717,0.000372,1.571279,0.785882,0.0100000000000000,0.0100000
2024-08-14 18:37:47.7155359,2024-08-14 18:37:47.7156325,0.0966,0.000122,-0.785198,0.000096,-2.355714,0.000377,1.571279,0.785882,0.0100000000000000,0.0100000
2024-08-14 18:37:47.7236015,2024-08-14 18:37:47.7237047,0.1032,0.000125,-0.785194,0.000090,-2.355714,0.000375,1.571279,0.785877,0.0100000000000000,0.0100000
2024-08-14 18:37:47.7336461,2024-08-14 18:37:47.7337569,0.1108,0.000118,-0.785194,0.000090,-2.355714,0.000373,1.571277,0.785884,0.0100000000000000,0.0100000
2024-08-14 18:37:47.7417027,2024-08-14 18:37:47.7418039,0.1012,0.000125,-0.785195,0.000095,-2.355714,0.000375,1.571279,0.785879,0.0100000000000000,0.0100000
2024-08-14 18:37:47.7538312,2024-08-14 18:37:47.7539365,0.1053,0.000128,-0.785193,0.000093,-2.355714,0.000373,1.571280,0.785884,0.0100000000000000,0.0100000
2024-08-14 18:37:47.7618801,2024-08-14 18:37:47.7619727,0.0926,0.000126,-0.785193,0.000097,-2.355719,0.000373,1.571278,0.785882,0.0100000000000000,0.0100000
2024-08-14 18:37:47.7740031,2024-08-14 18:37:47.7741079,0.1048,0.000130,-0.785194,0.000093,-2.355717,0.000373,1.571278,0.785881,0.0100000000000000,0.0100000
2024-08-14 18:37:47.7820663,2024-08-14 18:37:47.7821636,0.0973,0.000123,-0.785193,0.000093,-2.355717,0.000374,1.571279,0.785881,0.0100000000000000,0.0100000
2024-08-14 18:37:47.7942355,2024-08-14 18:37:47.7943442,0.1087,0.000125,-0.785191,0.000097,-2.355714,0.000373,1.571278,0.785881,0.0100000000000000,0.0100000
2024-08-14 18:37:47.8023041,2024-08-14 18:37:47.8024040,0.0999,0.000122,-0.785197,0.000090,-2.355709,0.000375,1.571277,0.785880,0.0100000000000000,0.0100000
2024-08-14 18:37:47.8144984,2024-08-14 18:37:47.8145978,0.0994,0.000126,-0.785194,0.000090,-2.355717,0.000373,1.571279,0.785878,0.0100000000000000,0.0100000
2024-08-14 18:37:47.8226080,2024-08-14 18:37:47.8227094,0.1014,0.000125,-0.785196,0.000098,-2.355717,0.000373,1.571278,0.785878,0.0100000000000000,0.0100000
2024-08-14 18:37:47.8347864,2024-08-14 18:37:47.8348858,0.0994,0.000120,-0.785192,0.000098,-2.355714,0.000373,1.571279,0.785880,0.0100000000000000,0.0100000
2024-08-14 18:37:47.8428994,2024-08-14 18:37:47.8429996,0.1002,0.000124,-0.785191,0.000096,-2.355714,0.000373,1.571279,0.785880,0.0100000000000000,0.0100000
2024-08-14 18:37:47.8551152,2024-08-14 18:37:47.8552165,0.1013,0.000131,-0.785198,0.000093,-2.355719,0.000372,1.571279,0.785881,0.0100000000000000,0.0100000
2024-08-14 18:37:47.8632222,2024-08-14 18:37:47.8633198,0.0976,0.000125,-0.785191,0.000093,-2.355714,0.000375,1.571279,0.785881,0.0100000000000000,0.0100000
2024-08-14 18:37:47.8754137,2024-08-14 18:37:47.8755104,0.0967,0.000127,-0.785191,0.000095,-2.355714,0.000375,1.571279,0.785880,0.0100000000000000,0.0100000
2024-08-14 18:37:47.8834843,2024-08-14 18:37:47.8835752,0.0909,0.000125,-0.785194,0.000093,-2.355716,0.000374,1.571279,0.785880,0.0100000000000000,0.0100000
2024-08-14 18:37:47.8956808,2024-08-14 18:37:47.8957786,0.0978,0.000128,-0.785196,0.000093,-2.355711,0.000373,1.571279,0.785880,0.0100000000000000,0.0100000
2024-08-14 18:37:47.9018173,2024-08-14 18:37:47.9019158,0.0985,0.000130,-0.785202,0.000093,-2.355714,0.000373,1.571280,0.785881,0.0100000000000000,0.0100000
2024-08-14 18:37:47.9139897,2024-08-14 18:37:47.9140855,0.0958,0.000120,-0.785191,0.000093,-2.355719,0.000374,1.571279,0.785880,0.0100000000000000,0.0100000
2024-08-14 18:37:47.9221244,2024-08-14 18:37:47.9222072,0.0828,0.000125,-0.785191,0.000093,-2.355714,0.000373,1.571278,0.785878,0.0100000000000000,0.0100000
2024-08-14 18:37:47.9342859,2024-08-14 18:37:47.9343755,0.0896,0.000122,-0.785200,0.000095,-2.355714,0.000375,1.571277,0.785878,0.0100000000000000,0.0100000
2024-08-14 18:37:47.9423442,2024-08-14 18:37:47.9424374,0.0932,0.000122,-0.785194,0.000093,-2.355716,0.000373,1.571279,0.785880,0.0100000000000000,0.0100000
2024-08-14 18:37:47.9544850,2024-08-14 18:37:47.9546003,0.1153,0.000122,-0.785198,0.000096,-2.355719,0.000373,1.571279,0.785880,0.0100000000000000,0.0100000
2024-08-14 18:37:47.9625354,2024-08-14 18:37:47.9626270,0.0916,0.000128,-0.785196,0.000093,-2.355717,0.000373,1.571278,0.785880,0.0100000000000000,0.0100000
2024-08-14 18:37:47.9746611,2024-08-14 18:37:47.9747592,0.0981,0.000123,-0.785198,0.000091,-2.355714,0.000371,1.571278,0.785882,0.0100000000000000,0.0100000
2024-08-14 18:37:47.9827379,2024-08-14 18:37:47.9828440,0.1061,0.000125,-0.785188,0.000095,-2.355719,0.000373,1.571278,0.785878,0.0100000000000000,0.0100000
2024-08-14 18:37:47.9948509,2024-08-14 18:37:47.9949396,0.0887,0.000128,-0.785194,0.000093,-2.355711,0.000373,1.571278,0.785880,0.0100000000000000,0.0100000
2024-08-14 18:37:48.0029426,2024-08-14 18:37:48.0030585,0.1159,0.000122,-0.785195,0.000090,-2.355714,0.000373,1.571279,0.785877,0.0100000000000000,0.0100000
2024-08-14 18:37:48.0150738,2024-08-14 18:37:48.0151606,0.0868,0.000128,-0.785194,0.000093,-2.355719,0.000373,1.571280,0.785881,0.0100000000000000,0.0100000
2024-08-14 18:37:48.0231878,2024-08-14 18:37:48.0232982,0.1104,0.000125,-0.785199,0.000096,-2.355717,0.000373,1.571280,0.785878,0.0100000000000000,0.0100000
2024-08-14 18:37:48.0353553,2024-08-14 18:37:48.0354609,0.1056,0.000123,-0.785191,0.000094,-2.355714,0.000373,1.571279,0.785879,0.0100000000000000,0.0100000
2024-08-14 18:37:48.0434476,2024-08-14 18:37:48.0435349,0.0873,0.000121,-0.785196,0.000093,-2.355715,0.000373,1.571279,0.785878,0.0100000000000000,0.0100000
2024-08-14 18:37:48.0556553,2024-08-14 18:37:48.0557524,0.0971,0.000123,-0.785194,0.000088,-2.355717,0.000374,1.571277,0.785877,0.0100000000000000,0.0100000
2024-08-14 18:37:48.0638159,2024-08-14 18:37:48.0638996,0.0837,0.000126,-0.785198,0.000096,-2.355717,0.000372,1.571278,0.785881,0.0100000000000000,0.0100000
2024-08-14 18:37:48.0739409,2024-08-14 18:37:48.0740461,0.1052,0.000122,-0.785193,0.000098,-2.355714,0.000376,1.571279,0.785881,0.0100000000000000,0.0100000
2024-08-14 18:37:48.0821031,2024-08-14 18:37:48.0822075,0.1044,0.000125,-0.785194,0.000090,-2.355711,0.000375,1.571281,0.785881,0.0100000000000000,0.0100000
2024-08-14 18:37:48.0943445,2024-08-14 18:37:48.0944413,0.0968,0.000130,-0.785196,0.000098,-2.355719,0.000376,1.571277,0.785878,0.0100000000000000,0.0100000
2024-08-14 18:37:48.1024958,2024-08-14 18:37:48.1026051,0.1093,0.000122,-0.785193,0.000095,-2.355714,0.000373,1.571279,0.785878,0.0100000000000000,0.0100000
2024-08-14 18:37:48.1147017,2024-08-14 18:37:48.1148046,0.1029,0.000125,-0.785196,0.000096,-2.355714,0.000373,1.571279,0.785880,0.0100000000000000,0.0100000
2024-08-14 18:37:48.1228769,2024-08-14 18:37:48.1229766,0.0997,0.000125,-0.785192,0.000092,-2.355714,0.000375,1.571278,0.785880,0.0100000000000000,0.0100000
2024-08-14 18:37:48.1350325,2024-08-14 18:37:48.1351273,0.0948,0.000120,-0.785195,0.000091,-2.355719,0.000373,1.571279,0.785881,0.0100000000000000,0.0100000
2024-08-14 18:37:48.1431288,2024-08-14 18:37:48.1432225,0.0937,0.000124,-0.785199,0.000093,-2.355719,0.000375,1.571281,0.785880,0.0100000000000000,0.0100000
2024-08-14 18:37:48.1553303,2024-08-14 18:37:48.1554220,0.0917,0.000128,-0.785192,0.000093,-2.355717,0.000372,1.571279,0.785881,0.0100000000000000,0.0100000
2024-08-14 18:37:48.1634310,2024-08-14 18:37:48.1635317,0.1007,0.000128,-0.785195,0.000093,-2.355711,0.000373,1.571279,0.785881,0.0100000000000000,0.0100000
2024-08-14 18:37:48.1756387,2024-08-14 18:37:48.1757401,0.1014,0.000121,-0.785194,0.000093,-2.355717,0.000373,1.571280,0.785879,0.0100000000000000,0.0100000
2024-08-14 18:37:48.1837494,2024-08-14 18:37:48.1838410,0.0916,0.000128,-0.785198,0.000096,-2.355717,0.000375,1.571275,0.785881,0.0100000000000000,0.0100000
2024-08-14 18:37:48.1938520,2024-08-14 18:37:48.1939419,0.0899,0.000128,-0.785194,0.000093,-2.355711,0.000373,1.571280,0.785878,0.0100000000000000,0.0100000
2024-08-14 18:37:48.2019243,2024-08-14 18:37:48.2020091,0.0848,0.000122,-0.785199,0.000095,-2.355719,0.000373,1.571279,0.785879,0.0100000000000000,0.0100000
2024-08-14 18:37:48.2140878,2024-08-14 18:37:48.2141789,0.0911,0.000122,-0.785196,0.000096,-2.355715,0.000373,1.571278,0.785874,0.0100000000000000,0.0100000
2024-08-14 18:37:48.2221965,2024-08-14 18:37:48.2222962,0.0997,0.000125,-0.785191,0.000093,-2.355714,0.000374,1.571280,0.785880,0.0100000000000000,0.0100000
2024-08-14 18:37:48.2344007,2024-08-14 18:37:48.2344860,0.0853,0.000125,-0.785191,0.000090,-2.355717,0.000375,1.571279,0.785880,0.0100000000000000,0.0100000
2024-08-14 18:37:48.2425480,2024-08-14 18:37:48.2426624,0.1144,0.000125,-0.785189,0.000093,-2.355717,0.000374,1.571279,0.785884,0.0100000000000000,0.0100000
2024-08-14 18:37:48.2547486,2024-08-14 18:37:48.2548388,0.0902,0.000125,-0.785191,0.000098,-2.355714,0.000373,1.571278,0.785875,0.0100000000000000,0.0100000
2024-08-14 18:37:48.2628573,2024-08-14 18:37:48.2629466,0.0893,0.000125,-0.785196,0.000093,-2.355714,0.000373,1.571280,0.785884,0.0100000000000000,0.0100000
2024-08-14 18:37:48.2750531,2024-08-14 18:37:48.2751389,0.0858,0.000128,-0.785198,0.000088,-2.355719,0.000375,1.571278,0.785882,0.0100000000000000,0.0100000
2024-08-14 18:37:48.2954029,2024-08-14 18:37:48.2955988,0.1959,0.000122,-0.785204,0.000093,-2.355712,0.000373,1.571278,0.785878,0.0100000000000000,0.0100000
2024-08-14 18:37:48.3035573,2024-08-14 18:37:48.3036858,0.1285,0.000125,-0.785194,0.000096,-2.355716,0.000376,1.571280,0.785877,0.0100000000000000,0.0100000
2024-08-14 18:37:48.3137296,2024-08-14 18:37:48.3138261,0.0965,0.000125,-0.785204,0.000093,-2.355719,0.000373,1.571278,0.785880,0.0100000000000000,0.0100000
2024-08-14 18:37:48.3218515,2024-08-14 18:37:48.3219306,0.0791,0.000122,-0.785201,0.000093,-2.355717,0.000373,1.571277,0.785878,0.0100000000000000,0.0100000
2024-08-14 18:37:48.3340196,2024-08-14 18:37:48.3340982,0.0786,0.000120,-0.785196,0.000093,-2.355717,0.000374,1.571279,0.785878,0.0100000000000000,0.0100000
2024-08-14 18:37:48.3421140,2024-08-14 18:37:48.3421985,0.0845,0.000125,-0.785194,0.000091,-2.355715,0.000373,1.571272,0.785881,0.0100000000000000,0.0100000
2024-08-14 18:37:48.3542430,2024-08-14 18:37:48.3543335,0.0905,0.000127,-0.785196,0.000093,-2.355714,0.000373,1.571279,0.785881,0.0100000000000000,0.0100000
2024-08-14 18:37:48.3623030,2024-08-14 18:37:48.3623847,0.0817,0.000122,-0.785196,0.000096,-2.355717,0.000373,1.571277,0.785881,0.0100000000000000,0.0100000
2024-08-14 18:37:48.3744285,2024-08-14 18:37:48.3745245,0.096,0.000123,-0.785199,0.000096,-2.355711,0.000373,1.571278,0.785879,0.0100000000000000,0.0100000
2024-08-14 18:37:48.3824922,2024-08-14 18:37:48.3825882,0.096,0.000127,-0.785191,0.000096,-2.355717,0.000373,1.571278,0.785879,0.0100000000000000,0.0100000
2024-08-14 18:37:48.3946128,2024-08-14 18:37:48.3946978,0.085,0.000128,-0.785200,0.000096,-2.355719,0.000373,1.571278,0.785878,0.0100000000000000,0.0100000
2024-08-14 18:37:48.4026842,2024-08-14 18:37:48.4027836,0.0994,0.000123,-0.785200,0.000092,-2.355717,0.000374,1.571280,0.785880,0.0100000000000000,0.0100000
2024-08-14 18:37:48.4148120,2024-08-14 18:37:48.4149232,0.1112,0.000125,-0.785198,0.000091,-2.355717,0.000373,1.571277,0.785878,0.0100000000000000,0.0100000
2024-08-14 18:37:48.4228728,2024-08-14 18:37:48.4229720,0.0992,0.000125,-0.785193,0.000093,-2.355711,0.000377,1.571278,0.785878,0.0100000000000000,0.0100000
2024-08-14 18:37:48.4350251,2024-08-14 18:37:48.4351113,0.0862,0.000128,-0.785196,0.000101,-2.355719,0.000373,1.571278,0.785882,0.0100000000000000,0.0100000
2024-08-14 18:37:48.4431222,2024-08-14 18:37:48.4432078,0.0856,0.000128,-0.785191,0.000096,-2.355717,0.000373,1.571278,0.785877,0.0100000000000000,0.0100000
2024-08-14 18:37:48.4553262,2024-08-14 18:37:48.4554302,0.104,0.000122,-0.785191,0.000093,-2.355711,0.000374,1.571278,0.785881,0.0100000000000000,0.0100000
2024-08-14 18:37:48.4634250,2024-08-14 18:37:48.4635138,0.0888,0.000128,-0.785196,0.000096,-2.355714,0.000373,1.571278,0.785878,0.0100000000000000,0.0100000
2024-08-14 18:37:48.4756364,2024-08-14 18:37:48.4757474,0.111,0.000125,-0.785194,0.000096,-2.355717,0.000372,1.571278,0.785881,0.0100000000000000,0.0100000
2024-08-14 18:37:48.4837968,2024-08-14 18:37:48.4838905,0.0937,0.000122,-0.785196,0.000090,-2.355719,0.000379,1.571280,0.785879,0.0100000000000000,0.0100000
2024-08-14 18:37:48.4938945,2024-08-14 18:37:48.4939873,0.0928,0.000131,-0.785198,0.000096,-2.355714,0.000373,1.571278,0.785878,0.0100000000000000,0.0100000
2024-08-14 18:37:48.5019668,2024-08-14 18:37:48.5020544,0.0876,0.000121,-0.785194,0.000093,-2.355719,0.000373,1.571279,0.785883,0.0100000000000000,0.0100000
2024-08-14 18:37:48.5140954,2024-08-14 18:37:48.5142032,0.1078,0.000125,-0.785193,0.000095,-2.355717,0.000373,1.571278,0.785880,0.0100000000000000,0.0100000
2024-08-14 18:37:48.5221685,2024-08-14 18:37:48.5222690,0.1005,0.000128,-0.785192,0.000090,-2.355714,0.000376,1.571279,0.785880,0.0100000000000000,0.0100000
2024-08-14 18:37:48.5342907,2024-08-14 18:37:48.5343849,0.0942,0.000122,-0.785193,0.000090,-2.355714,0.000375,1.571278,0.785881,0.0100000000000000,0.0100000
2024-08-14 18:37:48.5423563,2024-08-14 18:37:48.5424542,0.0979,0.000128,-0.785189,0.000088,-2.355717,0.000373,1.571280,0.785883,0.0100000000000000,0.0100000
2024-08-14 18:37:48.5544771,2024-08-14 18:37:48.5545733,0.0962,0.000125,-0.785198,0.000093,-2.355719,0.000375,1.571279,0.785877,0.0100000000000000,0.0100000
2024-08-14 18:37:48.5625453,2024-08-14 18:37:48.5626346,0.0893,0.000125,-0.785194,0.000091,-2.355717,0.000373,1.571279,0.785882,0.0100000000000000,0.0100000
2024-08-14 18:37:48.5747951,2024-08-14 18:37:48.5749131,0.118,0.000125,-0.785196,0.000096,-2.355717,0.000373,1.571279,0.785877,0.0100000000000000,0.0100000
2024-08-14 18:37:48.5828835,2024-08-14 18:37:48.5830137,0.1302,0.000123,-0.785198,0.000093,-2.355711,0.000373,1.571277,0.785881,0.0100000000000000,0.0100000
2024-08-14 18:37:48.5950893,2024-08-14 18:37:48.5951782,0.0889,0.000123,-0.785194,0.000095,-2.355719,0.000375,1.571278,0.785884,0.0100000000000000,0.0100000
2024-08-14 18:37:48.6031899,2024-08-14 18:37:48.6033203,0.1304,0.000128,-0.785199,0.000093,-2.355714,0.000376,1.571279,0.785881,0.0100000000000000,0.0100000
2024-08-14 18:37:48.6153895,2024-08-14 18:37:48.6155130,0.1235,0.000122,-0.785198,0.000093,-2.355719,0.000372,1.571279,0.785882,0.0100000000000000,0.0100000
2024-08-14 18:37:48.6235220,2024-08-14 18:37:48.6236437,0.1217,0.000122,-0.785196,0.000096,-2.355711,0.000375,1.571279,0.785878,0.0100000000000000,0.0100000
2024-08-14 18:37:48.6357301,2024-08-14 18:37:48.6358368,0.1067,0.000128,-0.785192,0.000094,-2.355719,0.000374,1.571276,0.785878,0.0100000000000000,0.0100000
2024-08-14 18:37:48.6438503,2024-08-14 18:37:48.6439346,0.0843,0.000122,-0.785201,0.000095,-2.355719,0.000373,1.571278,0.785876,0.0100000000000000,0.0100000
2024-08-14 18:37:48.6539285,2024-08-14 18:37:48.6540185,0.09,0.000128,-0.785201,0.000096,-2.355711,0.000373,1.571277,0.785878,0.0100000000000000,0.0100000
2024-08-14 18:37:48.6620550,2024-08-14 18:37:48.6621389,0.0839,0.000124,-0.785196,0.000096,-2.355714,0.000372,1.571279,0.785879,0.0100000000000000,0.0100000
2024-08-14 18:37:48.6743097,2024-08-14 18:37:48.6743992,0.0895,0.000120,-0.785196,0.000093,-2.355717,0.000372,1.571277,0.785881,0.0100000000000000,0.0100000
2024-08-14 18:37:48.6824524,2024-08-14 18:37:48.6825377,0.0853,0.000123,-0.785201,0.000093,-2.355714,0.000373,1.571280,0.785875,0.0100000000000000,0.0100000
2024-08-14 18:37:48.6947017,2024-08-14 18:37:48.6947925,0.0908,0.000123,-0.785194,0.000096,-2.355714,0.000374,1.571280,0.785876,0.0100000000000000,0.0100000
2024-08-14 18:37:48.7028188,2024-08-14 18:37:48.7029101,0.0913,0.000125,-0.785194,0.000091,-2.355719,0.000373,1.571279,0.785875,0.0100000000000000,0.0100000
2024-08-14 18:37:48.7150785,2024-08-14 18:37:48.7151867,0.1082,0.000125,-0.785196,0.000091,-2.355719,0.000377,1.571278,0.785875,0.0100000000000000,0.0100000
2024-08-14 18:37:48.7231787,2024-08-14 18:37:48.7232710,0.0923,0.000125,-0.785194,0.000098,-2.355714,0.000373,1.571278,0.785879,0.0100000000000000,0.0100000
2024-08-14 18:37:48.7353737,2024-08-14 18:37:48.7354664,0.0927,0.000123,-0.785193,0.000093,-2.355714,0.000372,1.571279,0.785877,0.0100000000000000,0.0100000
2024-08-14 18:37:48.7434984,2024-08-14 18:37:48.7435847,0.0863,0.000122,-0.785193,0.000094,-2.355719,0.000374,1.571279,0.785878,0.0100000000000000,0.0100000
2024-08-14 18:37:48.7536333,2024-08-14 18:37:48.7537207,0.0874,0.000125,-0.785191,0.000093,-2.355714,0.000375,1.571278,0.785878,0.0100000000000000,0.0100000
2024-08-14 18:37:48.7617494,2024-08-14 18:37:48.7618528,0.1034,0.000122,-0.785198,0.000090,-2.355717,0.000373,1.571280,0.785878,0.0100000000000000,0.0100000
2024-08-14 18:37:48.7739438,2024-08-14 18:37:48.7740419,0.0981,0.000120,-0.785198,0.000093,-2.355717,0.000372,1.571277,0.785881,0.0100000000000000,0.0100000
2024-08-14 18:37:48.7820861,2024-08-14 18:37:48.7821725,0.0864,0.000120,-0.785200,0.000091,-2.355717,0.000374,1.571279,0.785878,0.0100000000000000,0.0100000
2024-08-14 18:37:48.7943442,2024-08-14 18:37:48.7944533,0.1091,0.000122,-0.785196,0.000096,-2.355714,0.000378,1.571279,0.785880,0.0100000000000000,0.0100000
2024-08-14 18:37:48.8024704,2024-08-14 18:37:48.8025677,0.0973,0.000120,-0.785191,0.000093,-2.355714,0.000373,1.571279,0.785875,0.0100000000000000,0.0100000
2024-08-14 18:37:48.8147192,2024-08-14 18:37:48.8148145,0.0953,0.000125,-0.785196,0.000095,-2.355719,0.000375,1.571276,0.785877,0.0100000000000000,0.0100000
2024-08-14 18:37:48.8228705,2024-08-14 18:37:48.8229829,0.1124,0.000122,-0.785191,0.000096,-2.355711,0.000372,1.571278,0.785877,0.0100000000000000,0.0100000
2024-08-14 18:37:48.8350648,2024-08-14 18:37:48.8351515,0.0867,0.000121,-0.785192,0.000095,-2.355711,0.000375,1.571277,0.785881,0.0100000000000000,0.0100000
2024-08-14 18:37:48.8431909,2024-08-14 18:37:48.8432799,0.089,0.000121,-0.785196,0.000093,-2.355714,0.000373,1.571279,0.785880,0.0100000000000000,0.0100000
2024-08-14 18:37:48.8554528,2024-08-14 18:37:48.8555419,0.0891,0.000124,-0.785199,0.000096,-2.355714,0.000373,1.571279,0.785878,0.0100000000000000,0.0100000
2024-08-14 18:37:48.8635492,2024-08-14 18:37:48.8636555,0.1063,0.000128,-0.785199,0.000093,-2.355711,0.000373,1.571279,0.785880,0.0100000000000000,0.0100000
2024-08-14 18:37:48.8736649,2024-08-14 18:37:48.8737539,0.089,0.000127,-0.785197,0.000093,-2.355719,0.000373,1.571280,0.785878,0.0100000000000000,0.0100000
2024-08-14 18:37:48.8817743,2024-08-14 18:37:48.8818613,0.087,0.000122,-0.785193,0.000093,-2.355717,0.000376,1.571278,0.785878,0.0100000000000000,0.0100000
2024-08-14 18:37:48.8939419,2024-08-14 18:37:48.8940333,0.0914,0.000125,-0.785196,0.000092,-2.355712,0.000374,1.571279,0.785877,0.0100000000000000,0.0100000
2024-08-14 18:37:48.9020135,2024-08-14 18:37:48.9021026,0.0891,0.000125,-0.785193,0.000090,-2.355719,0.000374,1.571278,0.785877,0.0100000000000000,0.0100000
2024-08-14 18:37:48.9144133,2024-08-14 18:37:48.9145329,0.1196,0.000124,-0.785187,0.000098,-2.355717,0.000373,1.571279,0.785878,0.0100000000000000,0.0100000
2024-08-14 18:37:48.9225592,2024-08-14 18:37:48.9226533,0.0941,0.000125,-0.785193,0.000092,-2.355717,0.000378,1.571278,0.785881,0.0100000000000000,0.0100000
2024-08-14 18:37:48.9347702,2024-08-14 18:37:48.9348721,0.1019,0.000127,-0.785202,0.000093,-2.355722,0.000373,1.571277,0.785878,0.0100000000000000,0.0100000
2024-08-14 18:37:48.9428714,2024-08-14 18:37:48.9429761,0.1047,0.000128,-0.785194,0.000096,-2.355719,0.000374,1.571279,0.785881,0.0100000000000000,0.0100000
2024-08-14 18:37:48.9550963,2024-08-14 18:37:48.9552129,0.1166,0.000120,-0.785201,0.000088,-2.355714,0.000373,1.571279,0.785880,0.0100000000000000,0.0100000
2024-08-14 18:37:48.9632318,2024-08-14 18:37:48.9633168,0.085,0.000117,-0.785199,0.000089,-2.355714,0.000375,1.571278,0.785877,0.0100000000000000,0.0100000
2024-08-14 18:37:48.9754265,2024-08-14 18:37:48.9755318,0.1053,0.000120,-0.785197,0.000093,-2.355719,0.000377,1.571279,0.785879,0.0100000000000000,0.0100000
2024-08-14 18:37:48.9835011,2024-08-14 18:37:48.9835996,0.0985,0.000125,-0.785194,0.000093,-2.355714,0.000374,1.571280,0.785878,0.0100000000000000,0.0100000
2024-08-14 18:37:48.9957008,2024-08-14 18:37:48.9958052,0.1044,0.000125,-0.785196,0.000093,-2.355717,0.000373,1.571279,0.785880,0.0100000000000000,0.0100000
2024-08-14 18:37:49.0038145,2024-08-14 18:37:49.0039066,0.0921,0.000122,-0.785199,0.000093,-2.355714,0.000376,1.571279,0.785875,0.0100000000000000,0.0100000
2024-08-14 18:37:49.0138813,2024-08-14 18:37:49.0139670,0.0857,0.000123,-0.785196,0.000093,-2.355717,0.000373,1.571279,0.785878,0.0100000000000000,0.0100000
2024-08-14 18:37:49.0219502,2024-08-14 18:37:49.0220395,0.0893,0.000122,-0.785192,0.000090,-2.355714,0.000372,1.571278,0.785878,0.0100000000000000,0.0100000
2024-08-14 18:37:49.0340821,2024-08-14 18:37:49.0341834,0.1013,0.000123,-0.785196,0.000093,-2.355717,0.000375,1.571277,0.785884,0.0100000000000000,0.0100000
2024-08-14 18:37:49.0421396,2024-08-14 18:37:49.0422210,0.0814,0.000125,-0.785196,0.000093,-2.355717,0.000376,1.571278,0.785877,0.0100000000000000,0.0100000
2024-08-14 18:37:49.0542752,2024-08-14 18:37:49.0543795,0.1043,0.000128,-0.785196,0.000096,-2.355717,0.000373,1.571278,0.785883,0.0100000000000000,0.0100000
2024-08-14 18:37:49.0623289,2024-08-14 18:37:49.0624113,0.0824,0.000128,-0.785194,0.000091,-2.355717,0.000375,1.571280,0.785879,0.0100000000000000,0.0100000
2024-08-14 18:37:49.0744565,2024-08-14 18:37:49.0745532,0.0967,0.000125,-0.785193,0.000094,-2.355717,0.000374,1.571279,0.785881,0.0100000000000000,0.0100000
2024-08-14 18:37:49.0946549,2024-08-14 18:37:49.0947626,0.1077,0.000123,-0.785196,0.000096,-2.355714,0.000373,1.571278,0.785881,0.0100000000000000,0.0100000
2024-08-14 18:37:49.1027984,2024-08-14 18:37:49.1028924,0.094,0.000123,-0.785196,0.000095,-2.355714,0.000375,1.571279,0.785880,0.0100000000000000,0.0100000
2024-08-14 18:37:49.1149893,2024-08-14 18:37:49.1150783,0.089,0.000125,-0.785194,0.000096,-2.355714,0.000373,1.571280,0.785876,0.0100000000000000,0.0100000
2024-08-14 18:37:49.1230959,2024-08-14 18:37:49.1231876,0.0917,0.000122,-0.785201,0.000098,-2.355715,0.000373,1.571279,0.785878,0.0100000000000000,0.0100000
2024-08-14 18:37:49.1352300,2024-08-14 18:37:49.1353169,0.0869,0.000125,-0.785190,0.000090,-2.355719,0.000375,1.571280,0.785878,0.0100000000000000,0.0100000
2024-08-14 18:37:49.1433288,2024-08-14 18:37:49.1434134,0.0846,0.000125,-0.785194,0.000096,-2.355714,0.000374,1.571279,0.785878,0.0100000000000000,0.0100000
2024-08-14 18:37:49.1555204,2024-08-14 18:37:49.1556103,0.0899,0.000127,-0.785188,0.000096,-2.355714,0.000375,1.571278,0.785881,0.0100000000000000,0.0100000
2024-08-14 18:37:49.1636127,2024-08-14 18:37:49.1636941,0.0814,0.000122,-0.785194,0.000093,-2.355717,0.000375,1.571278,0.785880,0.0100000000000000,0.0100000
2024-08-14 18:37:49.1736772,2024-08-14 18:37:49.1737664,0.0892,0.000125,-0.785194,0.000095,-2.355717,0.000374,1.571279,0.785878,0.0100000000000000,0.0100000
2024-08-14 18:37:49.1817773,2024-08-14 18:37:49.1818592,0.0819,0.000125,-0.785199,0.000091,-2.355719,0.000375,1.571277,0.785881,0.0100000000000000,0.0100000
2024-08-14 18:37:49.1939436,2024-08-14 18:37:49.1940308,0.0872,0.000123,-0.785194,0.000096,-2.355709,0.000373,1.571279,0.785877,0.0100000000000000,0.0100000
2024-08-14 18:37:49.2020161,2024-08-14 18:37:49.2021041,0.088,0.000126,-0.785191,0.000093,-2.355717,0.000373,1.571279,0.785881,0.0100000000000000,0.0100000
2024-08-14 18:37:49.2142091,2024-08-14 18:37:49.2142944,0.0853,0.000125,-0.785196,0.000096,-2.355717,0.000373,1.571277,0.785883,0.0100000000000000,0.0100000
2024-08-14 18:37:49.2223153,2024-08-14 18:37:49.2223870,0.0717,0.000125,-0.785194,0.000096,-2.355717,0.000373,1.571278,0.785880,0.0100000000000000,0.0100000
2024-08-14 18:37:49.2345180,2024-08-14 18:37:49.2346080,0.09,0.000122,-0.785196,0.000091,-2.355714,0.000373,1.571278,0.785881,0.0100000000000000,0.0100000
2024-08-14 18:37:49.2427128,2024-08-14 18:37:49.2427984,0.0856,0.000126,-0.785199,0.000096,-2.355711,0.000373,1.571279,0.785881,0.0100000000000000,0.0100000
2024-08-14 18:37:49.2549248,2024-08-14 18:37:49.2550109,0.0861,0.000125,-0.785191,0.000098,-2.355714,0.000373,1.571279,0.785881,0.0100000000000000,0.0100000
2024-08-14 18:37:49.2630504,2024-08-14 18:37:49.2631564,0.106,0.000128,-0.785194,0.000094,-2.355719,0.000372,1.571279,0.785878,0.0100000000000000,0.0100000
2024-08-14 18:37:49.2753015,2024-08-14 18:37:49.2753909,0.0894,0.000120,-0.785193,0.000090,-2.355714,0.000373,1.571278,0.785879,0.0100000000000000,0.0100000
2024-08-14 18:37:49.2833689,2024-08-14 18:37:49.2834581,0.0892,0.000123,-0.785192,0.000093,-2.355719,0.000373,1.571278,0.785877,0.0100000000000000,0.0100000
2024-08-14 18:37:49.2955204,2024-08-14 18:37:49.2956106,0.0902,0.000125,-0.785192,0.000090,-2.355719,0.000375,1.571280,0.785878,0.0100000000000000,0.0100000
2024-08-14 18:37:49.3036288,2024-08-14 18:37:49.3037244,0.0956,0.000122,-0.785198,0.000096,-2.355714,0.000375,1.571278,0.785875,0.0100000000000000,0.0100000
2024-08-14 18:37:49.3137234,2024-08-14 18:37:49.3138074,0.084,0.000125,-0.785198,0.000088,-2.355709,0.000373,1.571279,0.785880,0.0100000000000000,0.0100000
2024-08-14 18:37:49.3217949,2024-08-14 18:37:49.3218812,0.0863,0.000126,-0.785191,0.000090,-2.355714,0.000373,1.571280,0.785881,0.0100000000000000,0.0100000
2024-08-14 18:37:49.3339815,2024-08-14 18:37:49.3340990,0.1175,0.000130,-0.785198,0.000093,-2.355717,0.000372,1.571280,0.785881,0.0100000000000000,0.0100000
2024-08-14 18:37:49.3421332,2024-08-14 18:37:49.3422177,0.0845,0.000128,-0.785199,0.000093,-2.355714,0.000373,1.571277,0.785879,0.0100000000000000,0.0100000
2024-08-14 18:37:49.3543374,2024-08-14 18:37:49.3544223,0.0849,0.000122,-0.785189,0.000093,-2.355717,0.000372,1.571278,0.785880,0.0100000000000000,0.0100000
2024-08-14 18:37:49.3624359,2024-08-14 18:37:49.3625291,0.0932,0.000124,-0.785196,0.000093,-2.355714,0.000377,1.571280,0.785878,0.0100000000000000,0.0100000
2024-08-14 18:37:49.3746311,2024-08-14 18:37:49.3747200,0.0889,0.000122,-0.785194,0.000098,-2.355714,0.000373,1.571279,0.785881,0.0100000000000000,0.0100000
2024-08-14 18:37:49.3827374,2024-08-14 18:37:49.3828287,0.0913,0.000122,-0.785195,0.000095,-2.355717,0.000372,1.571278,0.785875,0.0100000000000000,0.0100000
2024-08-14 18:37:49.3948943,2024-08-14 18:37:49.3949820,0.0877,0.000125,-0.785191,0.000096,-2.355714,0.000371,1.571279,0.785877,0.0100000000000000,0.0100000
2024-08-14 18:37:49.4029578,2024-08-14 18:37:49.4030481,0.0903,0.000128,-0.785201,0.000093,-2.355719,0.000372,1.571279,0.785884,0.0100000000000000,0.0100000
2024-08-14 18:37:49.4150683,2024-08-14 18:37:49.4151543,0.086,0.000122,-0.785191,0.000093,-2.355714,0.000377,1.571279,0.785884,0.0100000000000000,0.0100000
2024-08-14 18:37:49.4231295,2024-08-14 18:37:49.4232177,0.0882,0.000120,-0.785192,0.000096,-2.355717,0.000375,1.571279,0.785881,0.0100000000000000,0.0100000
2024-08-14 18:37:49.4352704,2024-08-14 18:37:49.4353930,0.1226,0.000125,-0.785194,0.000090,-2.355716,0.000374,1.571277,0.785883,0.0100000000000000,0.0100000
2024-08-14 18:37:49.4433111,2024-08-14 18:37:49.4433991,0.088,0.000127,-0.785196,0.000093,-2.355719,0.000373,1.571277,0.785883,0.0100000000000000,0.0100000
2024-08-14 18:37:49.4555093,2024-08-14 18:37:49.4564859,0.9766,0.000123,-0.785198,0.000091,-2.355719,0.000373,1.571279,0.785880,0.0100000000000000,0.0100000
2024-08-14 18:37:49.4636305,2024-08-14 18:37:49.4637197,0.0892,0.000120,-0.785198,0.000091,-2.355714,0.000373,1.571278,0.785882,0.0100000000000000,0.0100000
2024-08-14 18:37:49.4737202,2024-08-14 18:37:49.4738262,0.106,0.000122,-0.785196,0.000093,-2.355717,0.000373,1.571278,0.785878,0.0100000000000000,0.0100000
2024-08-14 18:37:49.4818501,2024-08-14 18:37:49.4819510,0.1009,0.000125,-0.785206,0.000088,-2.355717,0.000373,1.571278,0.785878,0.0100000000000000,0.0100000
2024-08-14 18:37:49.4940417,2024-08-14 18:37:49.4941333,0.0916,0.000127,-0.785191,0.000096,-2.355717,0.000373,1.571280,0.785875,0.0100000000000000,0.0100000
2024-08-14 18:37:49.5021164,2024-08-14 18:37:49.5022133,0.0969,0.000128,-0.785194,0.000090,-2.355714,0.000374,1.571280,0.785879,0.0100000000000000,0.0100000
2024-08-14 18:37:49.5143588,2024-08-14 18:37:49.5144510,0.0922,0.000122,-0.785192,0.000094,-2.355715,0.000372,1.571279,0.785875,0.0100000000000000,0.0100000
2024-08-14 18:37:49.5224867,2024-08-14 18:37:49.5225827,0.096,0.000125,-0.785191,0.000087,-2.355714,0.000373,1.571279,0.785877,0.0100000000000000,0.0100000
2024-08-14 18:37:49.5347440,2024-08-14 18:37:49.5348357,0.0917,0.000122,-0.785196,0.000093,-2.355719,0.000373,1.571279,0.785877,0.0100000000000000,0.0100000
2024-08-14 18:37:49.5428706,2024-08-14 18:37:49.5429568,0.0862,0.000124,-0.785195,0.000092,-2.355717,0.000376,1.571276,0.785876,0.0100000000000000,0.0100000
2024-08-14 18:37:49.5551279,2024-08-14 18:37:49.5552234,0.0955,0.000125,-0.785193,0.000091,-2.355717,0.000375,1.571278,0.785880,0.0100000000000000,0.0100000
2024-08-14 18:37:49.5632695,2024-08-14 18:37:49.5633728,0.1033,0.000122,-0.785191,0.000093,-2.355717,0.000376,1.571278,0.785877,0.0100000000000000,0.0100000
2024-08-14 18:37:49.5755167,2024-08-14 18:37:49.5756227,0.106,0.000122,-0.785199,0.000093,-2.355719,0.000372,1.571280,0.785880,0.0100000000000000,0.0100000
2024-08-14 18:37:49.5816992,2024-08-14 18:37:49.5817946,0.0954,0.000128,-0.785193,0.000094,-2.355712,0.000373,1.571278,0.785877,0.0100000000000000,0.0100000
2024-08-14 18:37:49.5938924,2024-08-14 18:37:49.5939802,0.0878,0.000127,-0.785199,0.000093,-2.355717,0.000373,1.571278,0.785876,0.0100000000000000,0.0100000
2024-08-14 18:37:49.6019690,2024-08-14 18:37:49.6020622,0.0932,0.000128,-0.785199,0.000093,-2.355717,0.000373,1.571278,0.785883,0.0100000000000000,0.0100000
2024-08-14 18:37:49.6142121,2024-08-14 18:37:49.6143003,0.0882,0.000125,-0.785199,0.000096,-2.355714,0.000373,1.571279,0.785880,0.0100000000000000,0.0100000
2024-08-14 18:37:49.6223455,2024-08-14 18:37:49.6224294,0.0839,0.000123,-0.785198,0.000096,-2.355714,0.000375,1.571280,0.785878,0.0100000000000000,0.0100000
2024-08-14 18:37:49.6345938,2024-08-14 18:37:49.6346878,0.094,0.000120,-0.785196,0.000096,-2.355711,0.000373,1.571277,0.785879,0.0100000000000000,0.0100000
2024-08-14 18:37:49.6427241,2024-08-14 18:37:49.6428155,0.0914,0.000125,-0.785197,0.000095,-2.355717,0.000374,1.571278,0.785878,0.0100000000000000,0.0100000
2024-08-14 18:37:49.6549822,2024-08-14 18:37:49.6550692,0.087,0.000125,-0.785200,0.000098,-2.355714,0.000373,1.571277,0.785881,0.0100000000000000,0.0100000
2024-08-14 18:37:49.6631104,2024-08-14 18:37:49.6631957,0.0853,0.000125,-0.785196,0.000094,-2.355717,0.000375,1.571279,0.785879,0.0100000000000000,0.0100000
2024-08-14 18:37:49.6753558,2024-08-14 18:37:49.6754537,0.0979,0.000120,-0.785194,0.000093,-2.355714,0.000373,1.571279,0.785878,0.0100000000000000,0.0100000
2024-08-14 18:37:49.6834271,2024-08-14 18:37:49.6835085,0.0814,0.000126,-0.785201,0.000095,-2.355714,0.000375,1.571278,0.785878,0.0100000000000000,0.0100000
2024-08-14 18:37:49.6956869,2024-08-14 18:37:49.6957667,0.0798,0.000125,-0.785194,0.000093,-2.355714,0.000372,1.571280,0.785884,0.0100000000000000,0.0100000
2024-08-14 18:37:49.7038411,2024-08-14 18:37:49.7039364,0.0953,0.000121,-0.785196,0.000091,-2.355720,0.000373,1.571277,0.785884,0.0100000000000000,0.0100000
2024-08-14 18:37:49.7139574,2024-08-14 18:37:49.7140356,0.0782,0.000120,-0.785197,0.000091,-2.355714,0.000374,1.571279,0.785882,0.0100000000000000,0.0100000
2024-08-14 18:37:49.7220323,2024-08-14 18:37:49.7221101,0.0778,0.000122,-0.785194,0.000095,-2.355719,0.000375,1.571278,0.785876,0.0100000000000000,0.0100000
2024-08-14 18:37:49.7342804,2024-08-14 18:37:49.7343589,0.0785,0.000125,-0.785197,0.000095,-2.355717,0.000375,1.571277,0.785884,0.0100000000000000,0.0100000
2024-08-14 18:37:49.7424057,2024-08-14 18:37:49.7424803,0.0746,0.000125,-0.785195,0.000093,-2.355720,0.000374,1.571279,0.785876,0.0100000000000000,0.0100000
2024-08-14 18:37:49.7546662,2024-08-14 18:37:49.7547449,0.0787,0.000123,-0.785197,0.000091,-2.355714,0.000379,1.571277,0.785878,0.0100000000000000,0.0100000
2024-08-14 18:37:49.7627945,2024-08-14 18:37:49.7628714,0.0769,0.000125,-0.785196,0.000093,-2.355714,0.000373,1.571278,0.785879,0.0100000000000000,0.0100000
2024-08-14 18:37:49.7750638,2024-08-14 18:37:49.7751959,0.1321,0.000125,-0.785189,0.000093,-2.355717,0.000373,1.571279,0.785882,0.0100000000000000,0.0100000
2024-08-14 18:37:49.7831675,2024-08-14 18:37:49.7832984,0.1309,0.000125,-0.785194,0.000091,-2.355717,0.000373,1.571279,0.785878,0.0100000000000000,0.0100000
2024-08-14 18:37:49.7953503,2024-08-14 18:37:49.7954433,0.093,0.000123,-0.785194,0.000095,-2.355717,0.000375,1.571280,0.785880,0.0100000000000000,0.0100000
2024-08-14 18:37:49.8034874,2024-08-14 18:37:49.8035831,0.0957,0.000124,-0.785196,0.000088,-2.355717,0.000373,1.571278,0.785878,0.0100000000000000,0.0100000
2024-08-14 18:37:49.8157289,2024-08-14 18:37:49.8158201,0.0912,0.000122,-0.785198,0.000093,-2.355717,0.000373,1.571281,0.785882,0.0100000000000000,0.0100000
2024-08-14 18:37:49.8238664,2024-08-14 18:37:49.8239538,0.0874,0.000120,-0.785196,0.000093,-2.355711,0.000375,1.571279,0.785879,0.0100000000000000,0.0100000
2024-08-14 18:37:49.8339378,2024-08-14 18:37:49.8340300,0.0922,0.000125,-0.785198,0.000093,-2.355714,0.000373,1.571279,0.785879,0.0100000000000000,0.0100000
2024-08-14 18:37:49.8420743,2024-08-14 18:37:49.8421612,0.0869,0.000122,-0.785196,0.000093,-2.355719,0.000375,1.571279,0.785881,0.0100000000000000,0.0100000
2024-08-14 18:37:49.8543244,2024-08-14 18:37:49.8544137,0.0893,0.000125,-0.785193,0.000093,-2.355717,0.000374,1.571277,0.785882,0.0100000000000000,0.0100000
2024-08-14 18:37:49.8624484,2024-08-14 18:37:49.8625365,0.0881,0.000126,-0.785197,0.000093,-2.355714,0.000375,1.571280,0.785879,0.0100000000000000,0.0100000
2024-08-14 18:37:49.8747005,2024-08-14 18:37:49.8747922,0.0917,0.000123,-0.785197,0.000094,-2.355717,0.000373,1.571280,0.785881,0.0100000000000000,0.0100000
2024-08-14 18:37:49.8950578,2024-08-14 18:37:49.8951827,0.1249,0.000128,-0.785194,0.000096,-2.355714,0.000377,1.571276,0.785881,0.0100000000000000,0.0100000
2024-08-14 18:37:49.9031520,2024-08-14 18:37:49.9032492,0.0972,0.000122,-0.785194,0.000095,-2.355719,0.000378,1.571279,0.785881,0.0100000000000000,0.0100000
2024-08-14 18:37:49.9153572,2024-08-14 18:37:49.9154631,0.1059,0.000123,-0.785196,0.000096,-2.355717,0.000373,1.571279,0.785878,0.0100000000000000,0.0100000
2024-08-14 18:37:49.9235026,2024-08-14 18:37:49.9235976,0.095,0.000125,-0.785196,0.000091,-2.355714,0.000374,1.571279,0.785878,0.0100000000000000,0.0100000
2024-08-14 18:37:49.9356858,2024-08-14 18:37:49.9358206,0.1348,0.000128,-0.785199,0.000098,-2.355717,0.000372,1.571280,0.785875,0.0100000000000000,0.0100000
2024-08-14 18:37:49.9438514,2024-08-14 18:37:49.9439573,0.1059,0.000123,-0.785196,0.000090,-2.355711,0.000373,1.571279,0.785880,0.0100000000000000,0.0100000
2024-08-14 18:37:49.9539161,2024-08-14 18:37:49.9540077,0.0916,0.000124,-0.785198,0.000098,-2.355717,0.000373,1.571279,0.785875,0.0100000000000000,0.0100000
2024-08-14 18:37:49.9620257,2024-08-14 18:37:49.9621258,0.1001,0.000126,-0.785192,0.000090,-2.355719,0.000375,1.571281,0.785874,0.0100000000000000,0.0100000
2024-08-14 18:37:49.9742257,2024-08-14 18:37:49.9743217,0.096,0.000123,-0.785193,0.000092,-2.355714,0.000377,1.571279,0.785881,0.0100000000000000,0.0100000
2024-08-14 18:37:49.9823412,2024-08-14 18:37:49.9824436,0.1024,0.000120,-0.785199,0.000096,-2.355714,0.000377,1.571279,0.785881,0.0100000000000000,0.0100000
2024-08-14 18:37:49.9945899,2024-08-14 18:37:49.9946889,0.099,0.000127,-0.785189,0.000096,-2.355717,0.000375,1.571277,0.785878,0.0100000000000000,0.0100000
2024-08-14 18:37:50.0027158,2024-08-14 18:37:50.0028090,0.0932,0.000127,-0.785193,0.000093,-2.355714,0.000373,1.571279,0.785880,0.0100000000000000,0.0100000
2024-08-14 18:37:50.0149906,2024-08-14 18:37:50.0151024,0.1118,0.000128,-0.785194,0.000095,-2.355721,0.000374,1.571280,0.785879,0.0100000000000000,0.0100000
2024-08-14 18:37:50.0231240,2024-08-14 18:37:50.0232201,0.0961,0.000124,-0.785196,0.000093,-2.355719,0.000376,1.571278,0.785880,0.0100000000000000,0.0100000
2024-08-14 18:37:50.0353167,2024-08-14 18:37:50.0354153,0.0986,0.000123,-0.785198,0.000093,-2.355712,0.000373,1.571279,0.785880,0.0100000000000000,0.0100000
2024-08-14 18:37:50.0434412,2024-08-14 18:37:50.0435317,0.0905,0.000128,-0.785201,0.000090,-2.355714,0.000373,1.571279,0.785878,0.0100000000000000,0.0100000
2024-08-14 18:37:50.0557017,2024-08-14 18:37:50.0558116,0.1099,0.000122,-0.785193,0.000093,-2.355719,0.000372,1.571278,0.785878,0.0100000000000000,0.0100000
2024-08-14 18:37:50.0638417,2024-08-14 18:37:50.0639479,0.1062,0.000122,-0.785194,0.000091,-2.355717,0.000373,1.571278,0.785879,0.0100000000000000,0.0100000
2024-08-14 18:37:50.0739119,2024-08-14 18:37:50.0740075,0.0956,0.000122,-0.785196,0.000090,-2.355717,0.000377,1.571279,0.785878,0.0100000000000000,0.0100000
2024-08-14 18:37:50.0820579,2024-08-14 18:37:50.0821661,0.1082,0.000122,-0.785196,0.000093,-2.355717,0.000375,1.571280,0.785878,0.0100000000000000,0.0100000
2024-08-14 18:37:50.0943155,2024-08-14 18:37:50.0944124,0.0969,0.000123,-0.785193,0.000096,-2.355714,0.000373,1.571280,0.785876,0.0100000000000000,0.0100000
2024-08-14 18:37:50.1024601,2024-08-14 18:37:50.1025763,0.1162,0.000122,-0.785191,0.000096,-2.355719,0.000374,1.571279,0.785881,0.0100000000000000,0.0100000
2024-08-14 18:37:50.1147059,2024-08-14 18:37:50.1147973,0.0914,0.000123,-0.785192,0.000095,-2.355717,0.000373,1.571278,0.785879,0.0100000000000000,0.0100000
2024-08-14 18:37:50.1228419,2024-08-14 18:37:50.1229308,0.0889,0.000120,-0.785196,0.000096,-2.355717,0.000373,1.571278,0.785880,0.0100000000000000,0.0100000
2024-08-14 18:37:50.1350862,2024-08-14 18:37:50.1351829,0.0967,0.000120,-0.785196,0.000096,-2.355714,0.000372,1.571278,0.785878,0.0100000000000000,0.0100000
2024-08-14 18:37:50.1431826,2024-08-14 18:37:50.1432794,0.0968,0.000128,-0.785188,0.000090,-2.355717,0.000373,1.571278,0.785878,0.0100000000000000,0.0100000
2024-08-14 18:37:50.1553946,2024-08-14 18:37:50.1555195,0.1249,0.000121,-0.785196,0.000093,-2.355714,0.000373,1.571278,0.785881,0.0100000000000000,0.0100000
2024-08-14 18:37:50.1635037,2024-08-14 18:37:50.1636024,0.0987,0.000123,-0.785194,0.000093,-2.355714,0.000373,1.571279,0.785880,0.0100000000000000,0.0100000
2024-08-14 18:37:50.1757033,2024-08-14 18:37:50.1758015,0.0982,0.000122,-0.785191,0.000093,-2.355717,0.000375,1.571279,0.785881,0.0100000000000000,0.0100000
2024-08-14 18:37:50.1837712,2024-08-14 18:37:50.1838846,0.1134,0.000125,-0.785194,0.000091,-2.355714,0.000372,1.571279,0.785878,0.0100000000000000,0.0100000
2024-08-14 18:37:50.1938786,2024-08-14 18:37:50.1939904,0.1118,0.000125,-0.785196,0.000092,-2.355717,0.000373,1.571280,0.785881,0.0100000000000000,0.0100000
2024-08-14 18:37:50.2019494,2024-08-14 18:37:50.2020623,0.1129,0.000121,-0.785191,0.000093,-2.355717,0.000373,1.571281,0.785876,0.0100000000000000,0.0100000
2024-08-14 18:37:50.2141175,2024-08-14 18:37:50.2142276,0.1101,0.000125,-0.785196,0.000093,-2.355719,0.000373,1.571278,0.785878,0.0100000000000000,0.0100000
2024-08-14 18:37:50.2222351,2024-08-14 18:37:50.2223370,0.1019,0.000128,-0.785191,0.000093,-2.355711,0.000373,1.571280,0.785878,0.0100000000000000,0.0100000
2024-08-14 18:37:50.2344355,2024-08-14 18:37:50.2345625,0.127,0.000123,-0.785198,0.000096,-2.355717,0.000373,1.571279,0.785878,0.0100000000000000,0.0100000
2024-08-14 18:37:50.2425813,2024-08-14 18:37:50.2426663,0.085,0.000120,-0.785193,0.000093,-2.355714,0.000372,1.571280,0.785881,0.0100000000000000,0.0100000
2024-08-14 18:37:50.2549547,2024-08-14 18:37:50.2550466,0.0919,0.000122,-0.785189,0.000093,-2.355711,0.000376,1.571279,0.785881,0.0100000000000000,0.0100000
2024-08-14 18:37:50.2630595,2024-08-14 18:37:50.2631465,0.087,0.000123,-0.785199,0.000096,-2.355717,0.000373,1.571281,0.785881,0.0100000000000000,0.0100000
2024-08-14 18:37:50.2752632,2024-08-14 18:37:50.2753603,0.0971,0.000125,-0.785196,0.000095,-2.355719,0.000373,1.571278,0.785880,0.0100000000000000,0.0100000
2024-08-14 18:37:50.2833302,2024-08-14 18:37:50.2834201,0.0899,0.000122,-0.785196,0.000095,-2.355719,0.000375,1.571278,0.785877,0.0100000000000000,0.0100000
2024-08-14 18:37:50.2955241,2024-08-14 18:37:50.2956346,0.1105,0.000126,-0.785194,0.000093,-2.355714,0.000375,1.571279,0.785878,0.0100000000000000,0.0100000
2024-08-14 18:37:50.3036290,2024-08-14 18:37:50.3037355,0.1065,0.000131,-0.785202,0.000096,-2.355714,0.000373,1.571277,0.785878,0.0100000000000000,0.0100000
2024-08-14 18:37:50.3136767,2024-08-14 18:37:50.3137912,0.1145,0.000123,-0.785189,0.000098,-2.355719,0.000373,1.571278,0.785875,0.0100000000000000,0.0100000
2024-08-14 18:37:50.3217505,2024-08-14 18:37:50.3218304,0.0799,0.000125,-0.785191,0.000093,-2.355711,0.000373,1.571279,0.785884,0.0100000000000000,0.0100000
2024-08-14 18:37:50.3338803,2024-08-14 18:37:50.3339839,0.1036,0.000122,-0.785194,0.000096,-2.355719,0.000372,1.571278,0.785880,0.0100000000000000,0.0100000
2024-08-14 18:37:50.3419379,2024-08-14 18:37:50.3420259,0.088,0.000125,-0.785194,0.000096,-2.355716,0.000373,1.571281,0.785879,0.0100000000000000,0.0100000
2024-08-14 18:37:50.3540793,2024-08-14 18:37:50.3541876,0.1083,0.000127,-0.785194,0.000094,-2.355716,0.000373,1.571278,0.785880,0.0100000000000000,0.0100000
2024-08-14 18:37:50.3621510,2024-08-14 18:37:50.3622828,0.1318,0.000122,-0.785196,0.000095,-2.355714,0.000374,1.571280,0.785877,0.0100000000000000,0.0100000
2024-08-14 18:37:50.3742560,2024-08-14 18:37:50.3743491,0.0931,0.000122,-0.785196,0.000090,-2.355719,0.000373,1.571279,0.785878,0.0100000000000000,0.0100000
2024-08-14 18:37:50.3823287,2024-08-14 18:37:50.3824340,0.1053,0.000123,-0.785194,0.000093,-2.355714,0.000376,1.571280,0.785878,0.0100000000000000,0.0100000
2024-08-14 18:37:50.3944381,2024-08-14 18:37:50.3945271,0.089,0.000126,-0.785199,0.000093,-2.355714,0.000375,1.571279,0.785881,0.0100000000000000,0.0100000
2024-08-14 18:37:50.4025077,2024-08-14 18:37:50.4026024,0.0947,0.000125,-0.785199,0.000096,-2.355715,0.000376,1.571279,0.785880,0.0100000000000000,0.0100000
2024-08-14 18:37:50.4146351,2024-08-14 18:37:50.4147402,0.1051,0.000123,-0.785196,0.000096,-2.355714,0.000373,1.571279,0.785875,0.0100000000000000,0.0100000
2024-08-14 18:37:50.4226904,2024-08-14 18:37:50.4227797,0.0893,0.000123,-0.785194,0.000093,-2.355714,0.000373,1.571279,0.785874,0.0100000000000000,0.0100000
2024-08-14 18:37:50.4348210,2024-08-14 18:37:50.4349240,0.103,0.000122,-0.785192,0.000092,-2.355714,0.000373,1.571276,0.785881,0.0100000000000000,0.0100000
2024-08-14 18:37:50.4428731,2024-08-14 18:37:50.4429560,0.0829,0.000130,-0.785193,0.000096,-2.355719,0.000374,1.571279,0.785877,0.0100000000000000,0.0100000
2024-08-14 18:37:50.4550111,2024-08-14 18:37:50.4551126,0.1015,0.000126,-0.785196,0.000095,-2.355717,0.000373,1.571279,0.785884,0.0100000000000000,0.0100000
2024-08-14 18:37:50.4630611,2024-08-14 18:37:50.4631445,0.0834,0.000122,-0.785201,0.000093,-2.355715,0.000374,1.571278,0.785877,0.0100000000000000,0.0100000
2024-08-14 18:37:50.4751935,2024-08-14 18:37:50.4752903,0.0968,0.000128,-0.785199,0.000096,-2.355717,0.000373,1.571279,0.785880,0.0100000000000000,0.0100000
2024-08-14 18:37:50.4832507,2024-08-14 18:37:50.4833412,0.0905,0.000117,-0.785197,0.000091,-2.355714,0.000378,1.571279,0.785880,0.0100000000000000,0.0100000
2024-08-14 18:37:50.4953716,2024-08-14 18:37:50.4954708,0.0992,0.000124,-0.785203,0.000098,-2.355714,0.000373,1.571278,0.785883,0.0100000000000000,0.0100000
2024-08-14 18:37:50.5034538,2024-08-14 18:37:50.5035694,0.1156,0.000123,-0.785196,0.000095,-2.355714,0.000373,1.571280,0.785878,0.0100000000000000,0.0100000
2024-08-14 18:37:50.5155585,2024-08-14 18:37:50.5156488,0.0903,0.000125,-0.785194,0.000098,-2.355717,0.000375,1.571278,0.785879,0.0100000000000000,0.0100000
2024-08-14 18:37:50.5236256,2024-08-14 18:37:50.5237150,0.0894,0.000125,-0.785194,0.000090,-2.355714,0.000372,1.571280,0.785880,0.0100000000000000,0.0100000
2024-08-14 18:37:50.5336971,2024-08-14 18:37:50.5337841,0.087,0.000125,-0.785196,0.000096,-2.355714,0.000374,1.571278,0.785882,0.0100000000000000,0.0100000
2024-08-14 18:37:50.5417592,2024-08-14 18:37:50.5418476,0.0884,0.000125,-0.785196,0.000096,-2.355717,0.000373,1.571280,0.785879,0.0100000000000000,0.0100000
2024-08-14 18:37:50.5538876,2024-08-14 18:37:50.5539788,0.0912,0.000123,-0.785197,0.000096,-2.355719,0.000374,1.571278,0.785881,0.0100000000000000,0.0100000
2024-08-14 18:37:50.5619461,2024-08-14 18:37:50.5620320,0.0859,0.000125,-0.785199,0.000094,-2.355711,0.000375,1.571280,0.785883,0.0100000000000000,0.0100000
2024-08-14 18:37:50.5740727,2024-08-14 18:37:50.5741634,0.0907,0.000123,-0.785194,0.000093,-2.355722,0.000376,1.571278,0.785884,0.0100000000000000,0.0100000
2024-08-14 18:37:50.5821344,2024-08-14 18:37:50.5822252,0.0908,0.000121,-0.785194,0.000096,-2.355719,0.000376,1.571277,0.785882,0.0100000000000000,0.0100000
2024-08-14 18:37:50.5943749,2024-08-14 18:37:50.5944678,0.0929,0.000125,-0.785194,0.000093,-2.355719,0.000373,1.571280,0.785882,0.0100000000000000,0.0100000
2024-08-14 18:37:50.6024468,2024-08-14 18:37:50.6025405,0.0937,0.000125,-0.785194,0.000098,-2.355721,0.000373,1.571280,0.785881,0.0100000000000000,0.0100000
2024-08-14 18:37:50.6145689,2024-08-14 18:37:50.6146651,0.0962,0.000122,-0.785191,0.000093,-2.355717,0.000373,1.571277,0.785878,0.0100000000000000,0.0100000
2024-08-14 18:37:50.6226251,2024-08-14 18:37:50.6227132,0.0881,0.000122,-0.785194,0.000090,-2.355714,0.000373,1.571279,0.785881,0.0100000000000000,0.0100000
2024-08-14 18:37:50.6347598,2024-08-14 18:37:50.6348642,0.1044,0.000123,-0.785192,0.000098,-2.355714,0.000371,1.571279,0.785881,0.0100000000000000,0.0100000
2024-08-14 18:37:50.6428112,2024-08-14 18:37:50.6429020,0.0908,0.000125,-0.785189,0.000093,-2.355714,0.000375,1.571278,0.785880,0.0100000000000000,0.0100000
2024-08-14 18:37:50.6549254,2024-08-14 18:37:50.6550117,0.0863,0.000127,-0.785198,0.000095,-2.355717,0.000375,1.571279,0.785884,0.0100000000000000,0.0100000
2024-08-14 18:37:50.6629865,2024-08-14 18:37:50.6630482,0.0617,0.000123,-0.785196,0.000098,-2.355717,0.000373,1.571280,0.785881,0.0100000000000000,0.0100000
2024-08-14 18:37:50.6751033,2024-08-14 18:37:50.6751832,0.0799,0.000120,-0.785192,0.000098,-2.355717,0.000375,1.571277,0.785884,0.0100000000000000,0.0100000
2024-08-14 18:37:50.6954347,2024-08-14 18:37:50.6955544,0.1197,0.000123,-0.785201,0.000093,-2.355714,0.000376,1.571279,0.785880,0.0100000000000000,0.0100000
2024-08-14 18:37:50.7034934,2024-08-14 18:37:50.7035883,0.0949,0.000122,-0.785194,0.000096,-2.355714,0.000373,1.571278,0.785882,0.0100000000000000,0.0100000
2024-08-14 18:37:50.7156157,2024-08-14 18:37:50.7157241,0.1084,0.000121,-0.785197,0.000090,-2.355714,0.000376,1.571278,0.785883,0.0100000000000000,0.0100000
2024-08-14 18:37:50.7236740,2024-08-14 18:37:50.7237680,0.094,0.000125,-0.785191,0.000096,-2.355715,0.000373,1.571277,0.785879,0.0100000000000000,0.0100000
2024-08-14 18:37:50.7337450,2024-08-14 18:37:50.7338484,0.1034,0.000130,-0.785191,0.000096,-2.355717,0.000374,1.571280,0.785875,0.0100000000000000,0.0100000
2024-08-14 18:37:50.7417957,2024-08-14 18:37:50.7418930,0.0973,0.000123,-0.785198,0.000096,-2.355714,0.000373,1.571280,0.785878,0.0100000000000000,0.0100000
2024-08-14 18:37:50.7543474,2024-08-14 18:37:50.7544662,0.1188,0.000122,-0.785196,0.000096,-2.355719,0.000374,1.571278,0.785881,0.0100000000000000,0.0100000
2024-08-14 18:37:50.7624618,2024-08-14 18:37:50.7626391,0.1773,0.000128,-0.785193,0.000090,-2.355719,0.000374,1.571280,0.785880,0.0100000000000000,0.0100000
2024-08-14 18:37:50.7749459,2024-08-14 18:37:50.7751665,0.2206,0.000125,-0.785193,0.000093,-2.355719,0.000375,1.571279,0.785879,0.0100000000000000,0.0100000
2024-08-14 18:37:50.7830230,2024-08-14 18:37:50.7832260,0.203,0.000123,-0.785197,0.000096,-2.355719,0.000373,1.571278,0.785877,0.0100000000000000,0.0100000
2024-08-14 18:37:50.7951323,2024-08-14 18:37:50.7953015,0.1692,0.000128,-0.785192,0.000090,-2.355719,0.000373,1.571281,0.785879,0.0100000000000000,0.0100000
2024-08-14 18:37:50.8032077,2024-08-14 18:37:50.8033739,0.1662,0.000122,-0.785194,0.000093,-2.355715,0.000373,1.571278,0.785877,0.0100000000000000,0.0100000
2024-08-14 18:37:50.8153310,2024-08-14 18:37:50.8155012,0.1702,0.000128,-0.785191,0.000093,-2.355717,0.000372,1.571280,0.785878,0.0100000000000000,0.0100000
2024-08-14 18:37:50.8234042,2024-08-14 18:37:50.8235708,0.1666,0.000125,-0.785193,0.000094,-2.355717,0.000375,1.571279,0.785876,0.0100000000000000,0.0100000
2024-08-14 18:37:50.8355384,2024-08-14 18:37:50.8357155,0.1771,0.000122,-0.785195,0.000091,-2.355717,0.000373,1.571279,0.785879,0.0100000000000000,0.0100000
2024-08-14 18:37:50.8435974,2024-08-14 18:37:50.8437631,0.1657,0.000122,-0.785198,0.000093,-2.355714,0.000374,1.571280,0.785881,0.0100000000000000,0.0100000
2024-08-14 18:37:50.8536557,2024-08-14 18:37:50.8538314,0.1757,0.000123,-0.785201,0.000095,-2.355717,0.000374,1.571276,0.785876,0.0100000000000000,0.0100000
2024-08-14 18:37:50.8617183,2024-08-14 18:37:50.8618815,0.1632,0.000122,-0.785200,0.000093,-2.355717,0.000373,1.571278,0.785878,0.0100000000000000,0.0100000
2024-08-14 18:37:50.8738488,2024-08-14 18:37:50.8740128,0.164,0.000122,-0.785192,0.000093,-2.355714,0.000373,1.571278,0.785879,0.0100000000000000,0.0100000
2024-08-14 18:37:50.8819826,2024-08-14 18:37:50.8821405,0.1579,0.000122,-0.785191,0.000093,-2.355717,0.000373,1.571276,0.785884,0.0100000000000000,0.0100000
2024-08-14 18:37:50.8941049,2024-08-14 18:37:50.8942184,0.1135,0.000125,-0.785199,0.000093,-2.355714,0.000373,1.571278,0.785877,0.0100000000000000,0.0100000
2024-08-14 18:37:50.9021672,2024-08-14 18:37:50.9022767,0.1095,0.000120,-0.785196,0.000093,-2.355719,0.000373,1.571280,0.785881,0.0100000000000000,0.0100000
2024-08-14 18:37:50.9142900,2024-08-14 18:37:50.9143991,0.1091,0.000125,-0.785193,0.000088,-2.355717,0.000373,1.571280,0.785878,0.0100000000000000,0.0100000
2024-08-14 18:37:50.9224374,2024-08-14 18:37:50.9225683,0.1309,0.000120,-0.785196,0.000095,-2.355717,0.000373,1.571276,0.785885,0.0100000000000000,0.0100000
2024-08-14 18:37:50.9345410,2024-08-14 18:37:50.9346383,0.0973,0.000125,-0.785191,0.000093,-2.355717,0.000373,1.571279,0.785877,0.0100000000000000,0.0100000
2024-08-14 18:37:50.9426061,2024-08-14 18:37:50.9426998,0.0937,0.000126,-0.785191,0.000096,-2.355711,0.000375,1.571279,0.785881,0.0100000000000000,0.0100000
2024-08-14 18:37:50.9547300,2024-08-14 18:37:50.9548250,0.095,0.000128,-0.785199,0.000093,-2.355714,0.000373,1.571279,0.785878,0.0100000000000000,0.0100000
2024-08-14 18:37:50.9628134,2024-08-14 18:37:50.9629249,0.1115,0.000127,-0.785192,0.000093,-2.355717,0.000373,1.571279,0.785878,0.0100000000000000,0.0100000
2024-08-14 18:37:50.9749281,2024-08-14 18:37:50.9750274,0.0993,0.000123,-0.785191,0.000093,-2.355717,0.000373,1.571279,0.785880,0.0100000000000000,0.0100000
2024-08-14 18:37:50.9829873,2024-08-14 18:37:50.9830751,0.0878,0.000120,-0.785196,0.000093,-2.355714,0.000374,1.571278,0.785877,0.0100000000000000,0.0100000
2024-08-14 18:37:50.9951106,2024-08-14 18:37:50.9952057,0.0951,0.000123,-0.785194,0.000096,-2.355714,0.000375,1.571278,0.785878,0.0100000000000000,0.0100000
2024-08-14 18:37:51.0031867,2024-08-14 18:37:51.0033137,0.127,0.000122,-0.785196,0.000091,-2.355719,0.000375,1.571276,0.785880,0.0100000000000000,0.0100000
2024-08-14 18:37:51.0153226,2024-08-14 18:37:51.0154459,0.1233,0.000125,-0.785196,0.000093,-2.355717,0.000372,1.571279,0.785881,0.0100000000000000,0.0100000
2024-08-14 18:37:51.0234205,2024-08-14 18:37:51.0235539,0.1334,0.000126,-0.785199,0.000096,-2.355717,0.000372,1.571280,0.785877,0.0100000000000000,0.0100000
2024-08-14 18:37:51.0355825,2024-08-14 18:37:51.0357070,0.1245,0.000122,-0.785194,0.000096,-2.355717,0.000373,1.571278,0.785881,0.0100000000000000,0.0100000
2024-08-14 18:37:51.0436753,2024-08-14 18:37:51.0437878,0.1125,0.000123,-0.785200,0.000093,-2.355720,0.000373,1.571278,0.785878,0.0100000000000000,0.0100000
2024-08-14 18:37:51.0537570,2024-08-14 18:37:51.0538744,0.1174,0.000123,-0.785199,0.000098,-2.355719,0.000377,1.571278,0.785878,0.0100000000000000,0.0100000
2024-08-14 18:37:51.0618243,2024-08-14 18:37:51.0619391,0.1148,0.000120,-0.785192,0.000095,-2.355717,0.000373,1.571280,0.785878,0.0100000000000000,0.0100000
2024-08-14 18:37:51.0739582,2024-08-14 18:37:51.0740553,0.0971,0.000122,-0.785198,0.000093,-2.355715,0.000372,1.571276,0.785882,0.0100000000000000,0.0100000
2024-08-14 18:37:51.0820349,2024-08-14 18:37:51.0821358,0.1009,0.000125,-0.785199,0.000096,-2.355716,0.000374,1.571278,0.785878,0.0100000000000000,0.0100000
2024-08-14 18:37:51.0941600,2024-08-14 18:37:51.0942602,0.1002,0.000122,-0.785194,0.000095,-2.355714,0.000373,1.571279,0.785882,0.0100000000000000,0.0100000
2024-08-14 18:37:51.1022335,2024-08-14 18:37:51.1023285,0.095,0.000123,-0.785194,0.000093,-2.355714,0.000374,1.571280,0.785878,0.0100000000000000,0.0100000
2024-08-14 18:37:51.1143607,2024-08-14 18:37:51.1144834,0.1227,0.000125,-0.785194,0.000088,-2.355714,0.000373,1.571276,0.785880,0.0100000000000000,0.0100000
2024-08-14 18:37:51.1224416,2024-08-14 18:37:51.1225678,0.1262,0.000126,-0.785194,0.000093,-2.355714,0.000372,1.571277,0.785878,0.0100000000000000,0.0100000
2024-08-14 18:37:51.1345658,2024-08-14 18:37:51.1346690,0.1032,0.000126,-0.785198,0.000093,-2.355711,0.000376,1.571279,0.785878,0.0100000000000000,0.0100000
2024-08-14 18:37:51.1426285,2024-08-14 18:37:51.1427272,0.0987,0.000123,-0.785196,0.000096,-2.355717,0.000374,1.571280,0.785878,0.0100000000000000,0.0100000
2024-08-14 18:37:51.1547643,2024-08-14 18:37:51.1548661,0.1018,0.000117,-0.785193,0.000095,-2.355717,0.000374,1.571278,0.785884,0.0100000000000000,0.0100000
2024-08-14 18:37:51.1628275,2024-08-14 18:37:51.1629224,0.0949,0.000123,-0.785189,0.000096,-2.355719,0.000373,1.571280,0.785880,0.0100000000000000,0.0100000
2024-08-14 18:37:51.1749548,2024-08-14 18:37:51.1750532,0.0984,0.000123,-0.785198,0.000096,-2.355717,0.000371,1.571278,0.785883,0.0100000000000000,0.0100000
2024-08-14 18:37:51.1830269,2024-08-14 18:37:51.1831218,0.0949,0.000125,-0.785199,0.000091,-2.355714,0.000373,1.571278,0.785880,0.0100000000000000,0.0100000
2024-08-14 18:37:51.1951554,2024-08-14 18:37:51.1952550,0.0996,0.000128,-0.785188,0.000095,-2.355711,0.000373,1.571279,0.785882,0.0100000000000000,0.0100000
2024-08-14 18:37:51.2032262,2024-08-14 18:37:51.2033219,0.0957,0.000122,-0.785191,0.000092,-2.355714,0.000372,1.571280,0.785882,0.0100000000000000,0.0100000
2024-08-14 18:37:51.2153638,2024-08-14 18:37:51.2154906,0.1268,0.000125,-0.785196,0.000090,-2.355719,0.000372,1.571278,0.785879,0.0100000000000000,0.0100000
2024-08-14 18:37:51.2234448,2024-08-14 18:37:51.2235467,0.1019,0.000128,-0.785193,0.000093,-2.355721,0.000373,1.571278,0.785882,0.0100000000000000,0.0100000
2024-08-14 18:37:51.2355659,2024-08-14 18:37:51.2356697,0.1038,0.000122,-0.785194,0.000093,-2.355717,0.000373,1.571280,0.785881,0.0100000000000000,0.0100000
2024-08-14 18:37:51.2436300,2024-08-14 18:37:51.2437311,0.1011,0.000125,-0.785198,0.000093,-2.355714,0.000373,1.571280,0.785879,0.0100000000000000,0.0100000
2024-08-14 18:37:51.2536992,2024-08-14 18:37:51.2537990,0.0998,0.000125,-0.785199,0.000091,-2.355719,0.000373,1.571278,0.785876,0.0100000000000000,0.0100000
2024-08-14 18:37:51.2618808,2024-08-14 18:37:51.2626750,0.7942,0.000120,-0.785191,0.000096,-2.355714,0.000374,1.571279,0.785881,0.0100000000000000,0.0100000
2024-08-14 18:37:51.2740118,2024-08-14 18:37:51.2741161,0.1043,0.000127,-0.785198,0.000096,-2.355719,0.000378,1.571279,0.785882,0.0100000000000000,0.0100000
2024-08-14 18:37:51.2820658,2024-08-14 18:37:51.2821522,0.0864,0.000122,-0.785198,0.000096,-2.355717,0.000373,1.571279,0.785880,0.0100000000000000,0.0100000
2024-08-14 18:37:51.2942016,2024-08-14 18:37:51.2943133,0.1117,0.000122,-0.785192,0.000093,-2.355717,0.000372,1.571279,0.785880,0.0100000000000000,0.0100000
2024-08-14 18:37:51.3022678,2024-08-14 18:37:51.3023889,0.1211,0.000123,-0.785196,0.000093,-2.355719,0.000375,1.571278,0.785881,0.0100000000000000,0.0100000
2024-08-14 18:37:51.3143891,2024-08-14 18:37:51.3145221,0.133,0.000125,-0.785189,0.000096,-2.355711,0.000375,1.571280,0.785880,0.0100000000000000,0.0100000
2024-08-14 18:37:51.3238693,2024-08-14 18:37:51.3239845,0.1152,0.000123,-0.785192,0.000092,-2.355719,0.000373,1.571278,0.785881,0.0100000000000000,0.0100000
2024-08-14 18:37:51.3339379,2024-08-14 18:37:51.3340500,0.1121,0.000120,-0.785199,0.000096,-2.355714,0.000373,1.571279,0.785881,0.0100000000000000,0.0100000
2024-08-14 18:37:51.3420010,2024-08-14 18:37:51.3421116,0.1106,0.000125,-0.785195,0.000093,-2.355717,0.000373,1.571279,0.785881,0.0100000000000000,0.0100000
2024-08-14 18:37:51.3541274,2024-08-14 18:37:51.3542548,0.1274,0.000126,-0.785189,0.000093,-2.355717,0.000375,1.571278,0.785883,0.0100000000000000,0.0100000
2024-08-14 18:37:51.3621930,2024-08-14 18:37:51.3623015,0.1085,0.000122,-0.785197,0.000088,-2.355714,0.000373,1.571278,0.785880,0.0100000000000000,0.0100000
2024-08-14 18:37:51.3743157,2024-08-14 18:37:51.3744543,0.1386,0.000128,-0.785199,0.000093,-2.355722,0.000372,1.571278,0.785884,0.0100000000000000,0.0100000
2024-08-14 18:37:51.3823972,2024-08-14 18:37:51.3825093,0.1121,0.000128,-0.785196,0.000093,-2.355719,0.000373,1.571280,0.785880,0.0100000000000000,0.0100000
2024-08-14 18:37:51.3944943,2024-08-14 18:37:51.3945867,0.0924,0.000123,-0.785196,0.000090,-2.355714,0.000375,1.571280,0.785884,0.0100000000000000,0.0100000
2024-08-14 18:37:51.4025797,2024-08-14 18:37:51.4026828,0.1031,0.000122,-0.785191,0.000091,-2.355719,0.000373,1.571279,0.785881,0.0100000000000000,0.0100000
2024-08-14 18:37:51.4146979,2024-08-14 18:37:51.4147905,0.0926,0.000126,-0.785199,0.000095,-2.355714,0.000374,1.571279,0.785878,0.0100000000000000,0.0100000
2024-08-14 18:37:51.4227605,2024-08-14 18:37:51.4228491,0.0886,0.000122,-0.785189,0.000093,-2.355715,0.000373,1.571279,0.785877,0.0100000000000000,0.0100000
2024-08-14 18:37:51.4348980,2024-08-14 18:37:51.4349980,0.1,0.000125,-0.785201,0.000096,-2.355714,0.000373,1.571279,0.785876,0.0100000000000000,0.0100000
2024-08-14 18:37:51.4429518,2024-08-14 18:37:51.4430401,0.0883,0.000125,-0.785199,0.000098,-2.355718,0.000376,1.571279,0.785879,0.0100000000000000,0.0100000
2024-08-14 18:37:51.4550776,2024-08-14 18:37:51.4551772,0.0996,0.000127,-0.785196,0.000096,-2.355714,0.000374,1.571280,0.785880,0.0100000000000000,0.0100000
2024-08-14 18:37:51.4856366,2024-08-14 18:37:51.4857585,0.1219,0.000127,-0.785194,0.000093,-2.355714,0.000373,1.571280,0.785878,0.0100000000000000,0.0100000
2024-08-14 18:37:51.4864178,2024-08-14 18:37:51.4865253,0.1075,0.000128,-0.785194,0.000092,-2.355717,0.000375,1.571279,0.785881,0.0100000000000000,0.0100000
2024-08-14 18:37:51.4956183,2024-08-14 18:37:51.4957111,0.0928,0.000128,-0.785199,0.000092,-2.355717,0.000372,1.571275,0.785880,0.0100000000000000,0.0100000
2024-08-14 18:37:51.5036848,2024-08-14 18:37:51.5037805,0.0957,0.000125,-0.785196,0.000096,-2.355714,0.000375,1.571280,0.785876,0.0100000000000000,0.0100000
2024-08-14 18:37:51.5137462,2024-08-14 18:37:51.5138332,0.087,0.000126,-0.785191,0.000093,-2.355714,0.000374,1.571277,0.785881,0.0100000000000000,0.0100000
2024-08-14 18:37:51.5218291,2024-08-14 18:37:51.5219312,0.1021,0.000123,-0.785193,0.000096,-2.355719,0.000373,1.571277,0.785875,0.0100000000000000,0.0100000
2024-08-14 18:37:51.5339491,2024-08-14 18:37:51.5340442,0.0951,0.000120,-0.785199,0.000098,-2.355717,0.000373,1.571280,0.785878,0.0100000000000000,0.0100000
2024-08-14 18:37:51.5420041,2024-08-14 18:37:51.5420897,0.0856,0.000122,-0.785192,0.000096,-2.355717,0.000373,1.571278,0.785878,0.0100000000000000,0.0100000
2024-08-14 18:37:51.5541351,2024-08-14 18:37:51.5542339,0.0988,0.000122,-0.785194,0.000096,-2.355714,0.000375,1.571278,0.785881,0.0100000000000000,0.0100000
2024-08-14 18:37:51.5621934,2024-08-14 18:37:51.5622858,0.0924,0.000125,-0.785191,0.000090,-2.355714,0.000375,1.571279,0.785877,0.0100000000000000,0.0100000
2024-08-14 18:37:51.5743225,2024-08-14 18:37:51.5744386,0.1161,0.000122,-0.785196,0.000096,-2.355717,0.000375,1.571278,0.785881,0.0100000000000000,0.0100000
2024-08-14 18:37:51.5823839,2024-08-14 18:37:51.5824912,0.1073,0.000120,-0.785198,0.000096,-2.355717,0.000373,1.571280,0.785878,0.0100000000000000,0.0100000
2024-08-14 18:37:51.5945199,2024-08-14 18:37:51.5946345,0.1146,0.000122,-0.785194,0.000098,-2.355717,0.000373,1.571279,0.785881,0.0100000000000000,0.0100000
2024-08-14 18:37:51.6025836,2024-08-14 18:37:51.6026843,0.1007,0.000120,-0.785193,0.000096,-2.355717,0.000372,1.571279,0.785882,0.0100000000000000,0.0100000
2024-08-14 18:37:51.6147041,2024-08-14 18:37:51.6148069,0.1028,0.000124,-0.785192,0.000090,-2.355717,0.000375,1.571279,0.785875,0.0100000000000000,0.0100000
2024-08-14 18:37:51.6227806,2024-08-14 18:37:51.6228883,0.1077,0.000128,-0.785196,0.000093,-2.355717,0.000373,1.571280,0.785878,0.0100000000000000,0.0100000
2024-08-14 18:37:51.6349038,2024-08-14 18:37:51.6350211,0.1173,0.000123,-0.785197,0.000096,-2.355717,0.000372,1.571279,0.785878,0.0100000000000000,0.0100000
2024-08-14 18:37:51.6429717,2024-08-14 18:37:51.6430791,0.1074,0.000122,-0.785196,0.000098,-2.355714,0.000373,1.571278,0.785875,0.0100000000000000,0.0100000
2024-08-14 18:37:51.6550951,2024-08-14 18:37:51.6552018,0.1067,0.000125,-0.785193,0.000090,-2.355719,0.000373,1.571278,0.785879,0.0100000000000000,0.0100000
2024-08-14 18:37:51.6631617,2024-08-14 18:37:51.6632609,0.0992,0.000122,-0.785195,0.000096,-2.355714,0.000374,1.571278,0.785878,0.0100000000000000,0.0100000
2024-08-14 18:37:51.6752915,2024-08-14 18:37:51.6754050,0.1135,0.000128,-0.785189,0.000096,-2.355717,0.000373,1.571279,0.785876,0.0100000000000000,0.0100000
2024-08-14 18:37:51.6833469,2024-08-14 18:37:51.6834989,0.152,0.000120,-0.785201,0.000093,-2.355711,0.000375,1.571277,0.785880,0.0100000000000000,0.0100000
2024-08-14 18:37:51.6954797,2024-08-14 18:37:51.6955887,0.109,0.000128,-0.785196,0.000090,-2.355717,0.000373,1.571281,0.785878,0.0100000000000000,0.0100000
2024-08-14 18:37:51.7035198,2024-08-14 18:37:51.7036178,0.098,0.000120,-0.785196,0.000096,-2.355719,0.000375,1.571279,0.785879,0.0100000000000000,0.0100000
2024-08-14 18:37:51.7156554,2024-08-14 18:37:51.7157661,0.1107,0.000125,-0.785193,0.000094,-2.355714,0.000374,1.571278,0.785878,0.0100000000000000,0.0100000
2024-08-14 18:37:51.7237184,2024-08-14 18:37:51.7238174,0.099,0.000125,-0.785193,0.000096,-2.355717,0.000373,1.571279,0.785879,0.0100000000000000,0.0100000
2024-08-14 18:37:51.7338011,2024-08-14 18:37:51.7339101,0.109,0.000125,-0.785194,0.000090,-2.355719,0.000374,1.571279,0.785881,0.0100000000000000,0.0100000
2024-08-14 18:37:51.7418628,2024-08-14 18:37:51.7419652,0.1024,0.000124,-0.785191,0.000090,-2.355717,0.000375,1.571278,0.785878,0.0100000000000000,0.0100000
2024-08-14 18:37:51.7540014,2024-08-14 18:37:51.7541149,0.1135,0.000117,-0.785196,0.000096,-2.355719,0.000373,1.571277,0.785880,0.0100000000000000,0.0100000
2024-08-14 18:37:51.7620609,2024-08-14 18:37:51.7621523,0.0914,0.000123,-0.785194,0.000096,-2.355714,0.000379,1.571279,0.785878,0.0100000000000000,0.0100000
2024-08-14 18:37:51.7741971,2024-08-14 18:37:51.7743202,0.1231,0.000127,-0.785198,0.000090,-2.355717,0.000373,1.571279,0.785875,0.0100000000000000,0.0100000
2024-08-14 18:37:51.7822636,2024-08-14 18:37:51.7823716,0.108,0.000127,-0.785198,0.000096,-2.355722,0.000377,1.571279,0.785881,0.0100000000000000,0.0100000
2024-08-14 18:37:51.7943850,2024-08-14 18:37:51.7944907,0.1057,0.000124,-0.785202,0.000098,-2.355714,0.000373,1.571277,0.785875,0.0100000000000000,0.0100000
2024-08-14 18:37:51.8024608,2024-08-14 18:37:51.8025558,0.095,0.000127,-0.785196,0.000093,-2.355714,0.000373,1.571276,0.785882,0.0100000000000000,0.0100000
2024-08-14 18:37:51.8145872,2024-08-14 18:37:51.8147021,0.1149,0.000123,-0.785193,0.000096,-2.355714,0.000373,1.571279,0.785880,0.0100000000000000,0.0100000
2024-08-14 18:37:51.8226489,2024-08-14 18:37:51.8227482,0.0993,0.000127,-0.785192,0.000093,-2.355719,0.000372,1.571279,0.785878,0.0100000000000000,0.0100000
2024-08-14 18:37:51.8347864,2024-08-14 18:37:51.8348939,0.1075,0.000122,-0.785196,0.000093,-2.355715,0.000378,1.571279,0.785880,0.0100000000000000,0.0100000
2024-08-14 18:37:51.8428433,2024-08-14 18:37:51.8429344,0.0911,0.000125,-0.785193,0.000093,-2.355719,0.000373,1.571278,0.785878,0.0100000000000000,0.0100000
2024-08-14 18:37:51.8549787,2024-08-14 18:37:51.8550897,0.111,0.000126,-0.785193,0.000096,-2.355717,0.000375,1.571279,0.785875,0.0100000000000000,0.0100000
2024-08-14 18:37:51.8630343,2024-08-14 18:37:51.8631218,0.0875,0.000125,-0.785196,0.000096,-2.355720,0.000373,1.571280,0.785878,0.0100000000000000,0.0100000
2024-08-14 18:37:51.8751738,2024-08-14 18:37:51.8752748,0.101,0.000125,-0.785196,0.000093,-2.355714,0.000376,1.571277,0.785880,0.0100000000000000,0.0100000
2024-08-14 18:37:51.8832310,2024-08-14 18:37:51.8833329,0.1019,0.000123,-0.785197,0.000090,-2.355717,0.000373,1.571279,0.785875,0.0100000000000000,0.0100000
2024-08-14 18:37:51.8953657,2024-08-14 18:37:51.8954722,0.1065,0.000126,-0.785193,0.000098,-2.355712,0.000373,1.571278,0.785878,0.0100000000000000,0.0100000
2024-08-14 18:37:51.9034379,2024-08-14 18:37:51.9035426,0.1047,0.000121,-0.785193,0.000098,-2.355711,0.000373,1.571280,0.785878,0.0100000000000000,0.0100000
2024-08-14 18:37:51.9155544,2024-08-14 18:37:51.9156425,0.0881,0.000121,-0.785192,0.000090,-2.355714,0.000374,1.571279,0.785878,0.0100000000000000,0.0100000
2024-08-14 18:37:51.9236309,2024-08-14 18:37:51.9237268,0.0959,0.000130,-0.785193,0.000096,-2.355714,0.000373,1.571278,0.785880,0.0100000000000000,0.0100000
2024-08-14 18:37:51.9338205,2024-08-14 18:37:51.9339160,0.0955,0.000126,-0.785194,0.000098,-2.355715,0.000373,1.571277,0.785878,0.0100000000000000,0.0100000
2024-08-14 18:37:51.9418906,2024-08-14 18:37:51.9419921,0.1015,0.000122,-0.785196,0.000090,-2.355714,0.000373,1.571279,0.785874,0.0100000000000000,0.0100000
2024-08-14 18:37:51.9540116,2024-08-14 18:37:51.9541133,0.1017,0.000125,-0.785199,0.000093,-2.355717,0.000376,1.571278,0.785878,0.0100000000000000,0.0100000
2024-08-14 18:37:51.9620766,2024-08-14 18:37:51.9621610,0.0844,0.000123,-0.785188,0.000096,-2.355719,0.000374,1.571278,0.785878,0.0100000000000000,0.0100000
2024-08-14 18:37:51.9742035,2024-08-14 18:37:51.9743108,0.1073,0.000125,-0.785198,0.000096,-2.355717,0.000372,1.571280,0.785877,0.0100000000000000,0.0100000
2024-08-14 18:37:51.9822604,2024-08-14 18:37:51.9823507,0.0903,0.000120,-0.785193,0.000090,-2.355714,0.000372,1.571279,0.785875,0.0100000000000000,0.0100000
2024-08-14 18:37:51.9943913,2024-08-14 18:37:51.9945044,0.1131,0.000123,-0.785194,0.000093,-2.355717,0.000374,1.571280,0.785880,0.0100000000000000,0.0100000
2024-08-14 18:37:52.0024908,2024-08-14 18:37:52.0025933,0.1025,0.000122,-0.785199,0.000096,-2.355717,0.000373,1.571279,0.785875,0.0100000000000000,0.0100000
2024-08-14 18:37:52.0147337,2024-08-14 18:37:52.0148360,0.1023,0.000128,-0.785188,0.000096,-2.355717,0.000372,1.571280,0.785880,0.0100000000000000,0.0100000
2024-08-14 18:37:52.0228833,2024-08-14 18:37:52.0229740,0.0907,0.000123,-0.785196,0.000095,-2.355714,0.000373,1.571279,0.785877,0.0100000000000000,0.0100000
2024-08-14 18:37:52.0350199,2024-08-14 18:37:52.0351230,0.1031,0.000125,-0.785199,0.000090,-2.355717,0.000373,1.571275,0.785877,0.0100000000000000,0.0100000
2024-08-14 18:37:52.0430877,2024-08-14 18:37:52.0431892,0.1015,0.000123,-0.785193,0.000096,-2.355717,0.000373,1.571276,0.785879,0.0100000000000000,0.0100000
2024-08-14 18:37:52.0552115,2024-08-14 18:37:52.0553115,0.1,0.000122,-0.785195,0.000096,-2.355714,0.000373,1.571278,0.785881,0.0100000000000000,0.0100000
2024-08-14 18:37:52.0632814,2024-08-14 18:37:52.0633803,0.0989,0.000129,-0.785195,0.000098,-2.355717,0.000376,1.571279,0.785876,0.0100000000000000,0.0100000
2024-08-14 18:37:52.0754044,2024-08-14 18:37:52.0754996,0.0952,0.000123,-0.785194,0.000093,-2.355714,0.000373,1.571279,0.785881,0.0100000000000000,0.0100000
2024-08-14 18:37:52.0834809,2024-08-14 18:37:52.0835828,0.1019,0.000123,-0.785199,0.000090,-2.355714,0.000378,1.571279,0.785879,0.0100000000000000,0.0100000
2024-08-14 18:37:52.0955985,2024-08-14 18:37:52.0956886,0.0901,0.000125,-0.785194,0.000091,-2.355717,0.000373,1.571280,0.785877,0.0100000000000000,0.0100000
2024-08-14 18:37:52.1036729,2024-08-14 18:37:52.1037738,0.1009,0.000125,-0.785201,0.000098,-2.355714,0.000375,1.571279,0.785877,0.0100000000000000,0.0100000
2024-08-14 18:37:52.1137395,2024-08-14 18:37:52.1138337,0.0942,0.000123,-0.785191,0.000096,-2.355714,0.000373,1.571281,0.785881,0.0100000000000000,0.0100000
2024-08-14 18:37:52.1218035,2024-08-14 18:37:52.1218914,0.0879,0.000123,-0.785193,0.000098,-2.355720,0.000373,1.571280,0.785881,0.0100000000000000,0.0100000
2024-08-14 18:37:52.1339439,2024-08-14 18:37:52.1340464,0.1025,0.000122,-0.785199,0.000096,-2.355714,0.000375,1.571279,0.785883,0.0100000000000000,0.0100000
2024-08-14 18:37:52.1420003,2024-08-14 18:37:52.1420861,0.0858,0.000125,-0.785194,0.000096,-2.355719,0.000374,1.571279,0.785876,0.0100000000000000,0.0100000
2024-08-14 18:37:52.1541322,2024-08-14 18:37:52.1542257,0.0935,0.000123,-0.785194,0.000096,-2.355717,0.000375,1.571278,0.785882,0.0100000000000000,0.0100000
2024-08-14 18:37:52.1621940,2024-08-14 18:37:52.1622795,0.0855,0.000127,-0.785199,0.000096,-2.355712,0.000373,1.571280,0.785875,0.0100000000000000,0.0100000
2024-08-14 18:37:52.1743346,2024-08-14 18:37:52.1744555,0.1209,0.000125,-0.785194,0.000096,-2.355714,0.000373,1.571281,0.785878,0.0100000000000000,0.0100000
2024-08-14 18:37:52.1824022,2024-08-14 18:37:52.1824993,0.0971,0.000122,-0.785191,0.000093,-2.355714,0.000373,1.571279,0.785878,0.0100000000000000,0.0100000
2024-08-14 18:37:52.1945207,2024-08-14 18:37:52.1946099,0.0892,0.000125,-0.785192,0.000094,-2.355714,0.000372,1.571278,0.785875,0.0100000000000000,0.0100000
2024-08-14 18:37:52.2026018,2024-08-14 18:37:52.2027098,0.108,0.000122,-0.785194,0.000094,-2.355711,0.000373,1.571278,0.785882,0.0100000000000000,0.0100000
2024-08-14 18:37:52.2147278,2024-08-14 18:37:52.2148369,0.1091,0.000122,-0.785194,0.000093,-2.355712,0.000373,1.571280,0.785880,0.0100000000000000,0.0100000
2024-08-14 18:37:52.2227869,2024-08-14 18:37:52.2228769,0.09,0.000122,-0.785193,0.000098,-2.355711,0.000373,1.571279,0.785881,0.0100000000000000,0.0100000
2024-08-14 18:37:52.2349221,2024-08-14 18:37:52.2350322,0.1101,0.000120,-0.785191,0.000096,-2.355711,0.000370,1.571278,0.785879,0.0100000000000000,0.0100000
2024-08-14 18:37:52.2429793,2024-08-14 18:37:52.2430612,0.0819,0.000120,-0.785193,0.000093,-2.355719,0.000373,1.571279,0.785882,0.0100000000000000,0.0100000
2024-08-14 18:37:52.2551155,2024-08-14 18:37:52.2552214,0.1059,0.000127,-0.785196,0.000096,-2.355714,0.000373,1.571279,0.785881,0.0100000000000000,0.0100000
2024-08-14 18:37:52.2631750,2024-08-14 18:37:52.2632660,0.091,0.000122,-0.785201,0.000093,-2.355717,0.000373,1.571277,0.785883,0.0100000000000000,0.0100000
2024-08-14 18:37:52.2754373,2024-08-14 18:37:52.2755514,0.1141,0.000125,-0.785192,0.000090,-2.355714,0.000373,1.571279,0.785883,0.0100000000000000,0.0100000
2024-08-14 18:37:52.2956751,2024-08-14 18:37:52.2958016,0.1265,0.000125,-0.785196,0.000093,-2.355711,0.000373,1.571278,0.785880,0.0100000000000000,0.0100000
2024-08-14 18:37:52.3037413,2024-08-14 18:37:52.3038562,0.1149,0.000117,-0.785198,0.000093,-2.355714,0.000376,1.571279,0.785880,0.0100000000000000,0.0100000
2024-08-14 18:37:52.3138228,2024-08-14 18:37:52.3139465,0.1237,0.000122,-0.785194,0.000096,-2.355719,0.000373,1.571279,0.785879,0.0100000000000000,0.0100000
2024-08-14 18:37:52.3220661,2024-08-14 18:37:52.3221872,0.1211,0.000122,-0.785196,0.000090,-2.355717,0.000376,1.571280,0.785878,0.0100000000000000,0.0100000
