ziyutum/ubuntu/plot/csclient.csv
ts_in,ts_out,JointPosition1,JointPosition2,JointPosition3,JointPosition4,JointPosition5,JointPosition6,JointPosition7,GripperData_Width,GripperData_Speed
2024-08-12 19:34:16.6009100,2024-08-12 19:34:16.6154558,0.000045,-0.785363,-0.000010,-2.356419,-0.000116,1.570623,0.785590,0.010000000000000,0.010000
2024-08-12 19:34:16.6082883,2024-08-12 19:34:16.6157581,0.000045,-0.785363,-0.000010,-2.356419,-0.000116,1.570623,0.785590,0.010000000000000,0.010000
2024-08-12 19:34:16.6203963,2024-08-12 19:34:16.6205789,0.000043,-0.785358,-0.000007,-2.356419,-0.000117,1.570624,0.785591,0.010000000000000,0.010000
2024-08-12 19:34:16.6284678,2024-08-12 19:34:16.6286475,0.000042,-0.785358,-0.000007,-2.356422,-0.000116,1.570625,0.785594,0.010000000000000,0.010000
2024-08-12 19:34:16.6405809,2024-08-12 19:34:16.6407795,0.000040,-0.785363,-0.000007,-2.356416,-0.000116,1.570623,0.785594,0.010000000000000,0.010000
2024-08-12 19:34:16.6486523,2024-08-12 19:34:16.6488152,0.000038,-0.785363,-0.000010,-2.356419,-0.000116,1.570624,0.785593,0.010000000000000,0.010000
2024-08-12 19:34:16.6587173,2024-08-12 19:34:16.6588927,0.000040,-0.785358,-0.000005,-2.356419,-0.000118,1.570625,0.785592,0.010000000000000,0.010000
2024-08-12 19:34:16.6667815,2024-08-12 19:34:16.6669357,0.000043,-0.785363,-0.000010,-2.356419,-0.000116,1.570620,0.785590,0.010000000000000,0.010000
2024-08-12 19:34:16.6789111,2024-08-12 19:34:16.6790950,0.000046,-0.785361,-0.000007,-2.356421,-0.000115,1.570624,0.785590,0.010000000000000,0.010000
2024-08-12 19:34:16.6869841,2024-08-12 19:34:16.6871661,0.000038,-0.785358,-0.000007,-2.356419,-0.000116,1.570620,0.785590,0.010000000000000,0.010000
2024-08-12 19:34:16.6991018,2024-08-12 19:34:16.6992820,0.000043,-0.785358,-0.000008,-2.356417,-0.000117,1.570622,0.785592,0.010000000000000,0.010000
2024-08-12 19:34:16.7071644,2024-08-12 19:34:16.7073518,0.000043,-0.785361,-0.000007,-2.356424,-0.000116,1.570620,0.785594,0.010000000000000,0.010000
2024-08-12 19:34:16.7192889,2024-08-12 19:34:16.7194599,0.000043,-0.785361,-0.000010,-2.356414,-0.000117,1.570625,0.785593,0.010000000000000,0.010000
2024-08-12 19:34:16.7273575,2024-08-12 19:34:16.7275124,0.000048,-0.785361,-0.000007,-2.356424,-0.000117,1.570622,0.785593,0.010000000000000,0.010000
2024-08-12 19:34:16.7394668,2024-08-12 19:34:16.7396051,0.000043,-0.785356,-0.000013,-2.356422,-0.000117,1.570624,0.785594,0.010000000000000,0.010000
2024-08-12 19:34:16.7475427,2024-08-12 19:34:16.7477091,0.000048,-0.785358,-0.000007,-2.356422,-0.000116,1.570622,0.785591,0.010000000000000,0.010000
2024-08-12 19:34:16.7596666,2024-08-12 19:34:16.7598801,0.000043,-0.785358,-0.000005,-2.356419,-0.000117,1.570625,0.785592,0.010000000000000,0.010000
2024-08-12 19:34:16.7677745,2024-08-12 19:34:16.7679686,0.000047,-0.785361,-0.000005,-2.356422,-0.000117,1.570621,0.785592,0.010000000000000,0.010000
2024-08-12 19:34:16.7799002,2024-08-12 19:34:16.7800787,0.000041,-0.785351,-0.000010,-2.356419,-0.000117,1.570622,0.785589,0.010000000000000,0.010000
2024-08-12 19:34:16.7879576,2024-08-12 19:34:16.7881351,0.000040,-0.785361,-0.000007,-2.356421,-0.000116,1.570622,0.785589,0.010000000000000,0.010000
2024-08-12 19:34:16.8000826,2024-08-12 19:34:16.8002734,0.000040,-0.785361,-0.000010,-2.356419,-0.000118,1.570626,0.785592,0.010000000000000,0.010000
2024-08-12 19:34:16.8081537,2024-08-12 19:34:16.8083321,0.000043,-0.785361,-0.000005,-2.356421,-0.000116,1.570623,0.785592,0.010000000000000,0.010000
2024-08-12 19:34:16.8202732,2024-08-12 19:34:16.8204525,0.000043,-0.785361,-0.000010,-2.356422,-0.000117,1.570622,0.785594,0.010000000000000,0.010000
2024-08-12 19:34:16.8283359,2024-08-12 19:34:16.8285048,0.000045,-0.785366,-0.000007,-2.356419,-0.000118,1.570625,0.785595,0.010000000000000,0.010000
2024-08-12 19:34:16.8404708,2024-08-12 19:34:16.8406675,0.000040,-0.785353,-0.000005,-2.356422,-0.000118,1.570626,0.785591,0.010000000000000,0.010000
2024-08-12 19:34:16.8485284,2024-08-12 19:34:16.8487000,0.000044,-0.785363,-0.000010,-2.356421,-0.000116,1.570621,0.785592,0.010000000000000,0.010000
2024-08-12 19:34:16.8586123,2024-08-12 19:34:16.8587872,0.000043,-0.785361,-0.000007,-2.356421,-0.000117,1.570619,0.785591,0.010000000000000,0.010000
2024-08-12 19:34:16.8666709,2024-08-12 19:34:16.8668619,0.000048,-0.785356,-0.000013,-2.356427,-0.000117,1.570622,0.785589,0.010000000000000,0.010000
2024-08-12 19:34:16.8787672,2024-08-12 19:34:16.8789764,0.000040,-0.785363,-0.000003,-2.356414,-0.000115,1.570624,0.785593,0.010000000000000,0.010000
2024-08-12 19:34:16.8868188,2024-08-12 19:34:16.8870495,0.000046,-0.785358,-0.000010,-2.356422,-0.000116,1.570624,0.785593,0.010000000000000,0.010000
2024-08-12 19:34:16.8989514,2024-08-12 19:34:16.8991486,0.000046,-0.785356,-0.000005,-2.356419,-0.000117,1.570621,0.785592,0.010000000000000,0.010000
2024-08-12 19:34:16.9070039,2024-08-12 19:34:16.9071873,0.000044,-0.785361,-0.000005,-2.356424,-0.000116,1.570623,0.785593,0.010000000000000,0.010000
2024-08-12 19:34:16.9191186,2024-08-12 19:34:16.9192897,0.000040,-0.785358,-0.000007,-2.356422,-0.000116,1.570622,0.785593,0.010000000000000,0.010000
2024-08-12 19:34:16.9272865,2024-08-12 19:34:16.9274411,0.000042,-0.785358,-0.000005,-2.356422,-0.000117,1.570624,0.785591,0.010000000000000,0.010000
2024-08-12 19:34:16.9394166,2024-08-12 19:34:16.9396216,0.000045,-0.785358,-0.000005,-2.356422,-0.000116,1.570625,0.785589,0.010000000000000,0.010000
2024-08-12 19:34:16.9474630,2024-08-12 19:34:16.9476084,0.000045,-0.785361,-0.000007,-2.356416,-0.000116,1.570627,0.785593,0.010000000000000,0.010000
2024-08-12 19:34:16.9595986,2024-08-12 19:34:16.9598008,0.000041,-0.785356,-0.000010,-2.356422,-0.000118,1.570622,0.785592,0.010000000000000,0.010000
2024-08-12 19:34:16.9676389,2024-08-12 19:34:16.9677801,0.000043,-0.785361,-0.000005,-2.356416,-0.000117,1.570621,0.785588,0.010000000000000,0.010000
2024-08-12 19:34:16.9797774,2024-08-12 19:34:16.9799709,0.000043,-0.785361,-0.000010,-2.356419,-0.000117,1.570625,0.785592,0.010000000000000,0.010000
2024-08-12 19:34:16.9878362,2024-08-12 19:34:16.9880363,0.000045,-0.785361,-0.000007,-2.356424,-0.000117,1.570621,0.785594,0.010000000000000,0.010000
2024-08-12 19:34:16.9999573,2024-08-12 19:34:17.0001725,0.000045,-0.785361,-0.000007,-2.356424,-0.000118,1.570624,0.785593,0.010000000000000,0.010000
2024-08-12 19:34:17.0080202,2024-08-12 19:34:17.0082258,0.000038,-0.785361,-0.000005,-2.356422,-0.000118,1.570622,0.785589,0.010000000000000,0.010000
2024-08-12 19:34:17.0201343,2024-08-12 19:34:17.0203391,0.000043,-0.785363,-0.000005,-2.356419,-0.000116,1.570621,0.785592,0.010000000000000,0.010000
2024-08-12 19:34:17.0281978,2024-08-12 19:34:17.0283866,0.000045,-0.785366,-0.000007,-2.356422,-0.000117,1.570623,0.785592,0.010000000000000,0.010000
2024-08-12 19:34:17.0403094,2024-08-12 19:34:17.0404877,0.000046,-0.785361,-0.000007,-2.356421,-0.000118,1.570624,0.785594,0.010000000000000,0.010000
2024-08-12 19:34:17.0483735,2024-08-12 19:34:17.0485624,0.000041,-0.785358,-0.000005,-2.356419,-0.000117,1.570625,0.785594,0.010000000000000,0.010000
2024-08-12 19:34:17.0604855,2024-08-12 19:34:17.0606700,0.000046,-0.785358,-0.000005,-2.356424,-0.000115,1.570624,0.785594,0.010000000000000,0.010000
2024-08-12 19:34:17.0685396,2024-08-12 19:34:17.0687019,0.000048,-0.785361,-0.000010,-2.356422,-0.000117,1.570624,0.785588,0.010000000000000,0.010000
2024-08-12 19:34:17.0785937,2024-08-12 19:34:17.0787743,0.000043,-0.785364,-0.000007,-2.356421,-0.000117,1.570625,0.785591,0.010000000000000,0.010000
2024-08-12 19:34:17.0866691,2024-08-12 19:34:17.0868929,0.000041,-0.785358,-0.000005,-2.356416,-0.000116,1.570623,0.785592,0.010000000000000,0.010000
2024-08-12 19:34:17.0987850,2024-08-12 19:34:17.0990024,0.000041,-0.785363,-0.000010,-2.356427,-0.000118,1.570621,0.785592,0.010000000000000,0.010000
2024-08-12 19:34:17.1068494,2024-08-12 19:34:17.1070321,0.000041,-0.785356,-0.000007,-2.356413,-0.000118,1.570623,0.785590,0.010000000000000,0.010000
2024-08-12 19:34:17.1189711,2024-08-12 19:34:17.1191699,0.000043,-0.785358,-0.000005,-2.356419,-0.000118,1.570621,0.785590,0.010000000000000,0.010000
2024-08-12 19:34:17.1270312,2024-08-12 19:34:17.1272146,0.000046,-0.785356,-0.000007,-2.356424,-0.000118,1.570621,0.785592,0.010000000000000,0.010000
2024-08-12 19:34:17.1391604,2024-08-12 19:34:17.1393484,0.000043,-0.785358,-0.000007,-2.356416,-0.000117,1.570623,0.785592,0.010000000000000,0.010000
2024-08-12 19:34:17.1472183,2024-08-12 19:34:17.1474024,0.000045,-0.785358,-0.000005,-2.356421,-0.000118,1.570623,0.785593,0.010000000000000,0.010000
2024-08-12 19:34:17.1593343,2024-08-12 19:34:17.1595157,0.000041,-0.785358,-0.000007,-2.356416,-0.000117,1.570622,0.785592,0.010000000000000,0.010000
2024-08-12 19:34:17.1673943,2024-08-12 19:34:17.1675712,0.000042,-0.785358,-0.000007,-2.356422,-0.000116,1.570625,0.785592,0.010000000000000,0.010000
2024-08-12 19:34:17.1794865,2024-08-12 19:34:17.1796743,0.000041,-0.785358,-0.000013,-2.356422,-0.000118,1.570621,0.785592,0.010000000000000,0.010000
2024-08-12 19:34:17.1875530,2024-08-12 19:34:17.1877445,0.000042,-0.785356,-0.000010,-2.356419,-0.000115,1.570622,0.785589,0.010000000000000,0.010000
2024-08-12 19:34:17.1996636,2024-08-12 19:34:17.1998446,0.000046,-0.785353,-0.000005,-2.356419,-0.000115,1.570623,0.785589,0.010000000000000,0.010000
2024-08-12 19:34:17.2077370,2024-08-12 19:34:17.2079227,0.000042,-0.785356,-0.000005,-2.356421,-0.000117,1.570624,0.785592,0.010000000000000,0.010000
2024-08-12 19:34:17.2198458,2024-08-12 19:34:17.2200346,0.000046,-0.785363,-0.000007,-2.356419,-0.000118,1.570624,0.785592,0.010000000000000,0.010000
2024-08-12 19:34:17.2279144,2024-08-12 19:34:17.2280891,0.000040,-0.785358,-0.000005,-2.356418,-0.000117,1.570624,0.785592,0.010000000000000,0.010000
2024-08-12 19:34:17.2400472,2024-08-12 19:34:17.2402611,0.000043,-0.785363,-0.000007,-2.356419,-0.000118,1.570624,0.785593,0.010000000000000,0.010000
2024-08-12 19:34:17.2481119,2024-08-12 19:34:17.2483096,0.000039,-0.785363,-0.000010,-2.356424,-0.000117,1.570622,0.785594,0.010000000000000,0.010000
2024-08-12 19:34:17.2602272,2024-08-12 19:34:17.2604148,0.000045,-0.785363,-0.000007,-2.356416,-0.000118,1.570625,0.785590,0.010000000000000,0.010000
2024-08-12 19:34:17.2682983,2024-08-12 19:34:17.2684978,0.000045,-0.785366,-0.000007,-2.356419,-0.000116,1.570623,0.785590,0.010000000000000,0.010000
2024-08-12 19:34:17.2804082,2024-08-12 19:34:17.2805906,0.000043,-0.785363,-0.000007,-2.356419,-0.000118,1.570625,0.785590,0.010000000000000,0.010000
2024-08-12 19:34:17.2884669,2024-08-12 19:34:17.2886331,0.000042,-0.785361,-0.000007,-2.356419,-0.000117,1.570622,0.785591,0.010000000000000,0.010000
2024-08-12 19:34:17.3005926,2024-08-12 19:34:17.3008023,0.000043,-0.785361,-0.000007,-2.356421,-0.000115,1.570624,0.785593,0.010000000000000,0.010000
2024-08-12 19:34:17.3086503,2024-08-12 19:34:17.3088258,0.000040,-0.785358,-0.000010,-2.356424,-0.000115,1.570625,0.785590,0.010000000000000,0.010000
2024-08-12 19:34:17.3187066,2024-08-12 19:34:17.3188704,0.000043,-0.785363,-0.000010,-2.356419,-0.000117,1.570625,0.785589,0.010000000000000,0.010000
2024-08-12 19:34:17.3267839,2024-08-12 19:34:17.3269784,0.000037,-0.785358,-0.000005,-2.356427,-0.000117,1.570622,0.785590,0.010000000000000,0.010000
2024-08-12 19:34:17.3388961,2024-08-12 19:34:17.3390836,0.000041,-0.785358,-0.000007,-2.356421,-0.000117,1.570624,0.785592,0.010000000000000,0.010000
2024-08-12 19:34:17.3469589,2024-08-12 19:34:17.3471358,0.000046,-0.785358,-0.000007,-2.356422,-0.000115,1.570623,0.785595,0.010000000000000,0.010000
2024-08-12 19:34:17.3590794,2024-08-12 19:34:17.3592827,0.000043,-0.785366,-0.000002,-2.356419,-0.000117,1.570625,0.785590,0.010000000000000,0.010000
2024-08-12 19:34:17.3671247,2024-08-12 19:34:17.3672900,0.000040,-0.785361,-0.000007,-2.356419,-0.000115,1.570623,0.785589,0.010000000000000,0.010000
2024-08-12 19:34:17.3792628,2024-08-12 19:34:17.3794656,0.000040,-0.785363,-0.000007,-2.356421,-0.000116,1.570624,0.785593,0.010000000000000,0.010000
2024-08-12 19:34:17.3994416,2024-08-12 19:34:17.3996557,0.000040,-0.785356,-0.000010,-2.356421,-0.000117,1.570623,0.785593,0.010000000000000,0.010000
2024-08-12 19:34:17.4099574,2024-08-12 19:34:17.4101762,0.000040,-0.785358,-0.000007,-2.356422,-0.000117,1.570623,0.785592,0.010000000000000,0.010000
2024-08-12 19:34:17.4200201,2024-08-12 19:34:17.4202144,0.000045,-0.785361,-0.000007,-2.356419,-0.000117,1.570624,0.785590,0.010000000000000,0.010000
2024-08-12 19:34:17.4280713,2024-08-12 19:34:17.4282689,0.000046,-0.785356,-0.000007,-2.356419,-0.000118,1.570623,0.785590,0.010000000000000,0.010000
2024-08-12 19:34:17.4625894,2024-08-12 19:34:17.4629363,0.000042,-0.785358,-0.000007,-2.356424,-0.000117,1.570624,0.785589,0.010000000000000,0.010000
2024-08-12 19:34:17.4631706,2024-08-12 19:34:17.4633720,0.000042,-0.785363,-0.000005,-2.356423,-0.000118,1.570625,0.785593,0.010000000000000,0.010000
2024-08-12 19:34:17.4641695,2024-08-12 19:34:17.4644855,0.000043,-0.785358,-0.000007,-2.356416,-0.000117,1.570621,0.785593,0.010000000000000,0.010000
2024-08-12 19:34:17.4685128,2024-08-12 19:34:17.4688391,0.000045,-0.785363,-0.000007,-2.356422,-0.000116,1.570626,0.785592,0.010000000000000,0.010000
2024-08-12 19:34:17.4806378,2024-08-12 19:34:17.4809329,0.000041,-0.785361,-0.000007,-2.356419,-0.000117,1.570624,0.785592,0.010000000000000,0.010000
2024-08-12 19:34:17.4887081,2024-08-12 19:34:17.4890197,0.000042,-0.785356,-0.000007,-2.356419,-0.000117,1.570625,0.785593,0.010000000000000,0.010000
2024-08-12 19:34:17.4987712,2024-08-12 19:34:17.4990750,0.000043,-0.785358,-0.000005,-2.356422,-0.000117,1.570625,0.785591,0.010000000000000,0.010000
2024-08-12 19:34:17.5068290,2024-08-12 19:34:17.5071262,0.000043,-0.785361,-0.000005,-2.356421,-0.000115,1.570624,0.785589,0.010000000000000,0.010000
2024-08-12 19:34:17.5189514,2024-08-12 19:34:17.5192445,0.000045,-0.785363,-0.000007,-2.356419,-0.000117,1.570625,0.785589,0.010000000000000,0.010000
2024-08-12 19:34:17.5269722,2024-08-12 19:34:17.5272621,0.000042,-0.785361,-0.000007,-2.356422,-0.000117,1.570625,0.785592,0.010000000000000,0.010000
2024-08-12 19:34:17.5390838,2024-08-12 19:34:17.5393662,0.000042,-0.785358,-0.000007,-2.356419,-0.000118,1.570625,0.785592,0.010000000000000,0.010000
2024-08-12 19:34:17.5471512,2024-08-12 19:34:17.5474391,0.000043,-0.785361,-0.000007,-2.356417,-0.000118,1.570625,0.785592,0.010000000000000,0.010000
2024-08-12 19:34:17.5592716,2024-08-12 19:34:17.5595467,0.000040,-0.785363,-0.000007,-2.356418,-0.000117,1.570625,0.785593,0.010000000000000,0.010000
2024-08-12 19:34:17.5673327,2024-08-12 19:34:17.5676061,0.000040,-0.785356,-0.000005,-2.356422,-0.000117,1.570624,0.785594,0.010000000000000,0.010000
2024-08-12 19:34:17.5794609,2024-08-12 19:34:17.5797702,0.000045,-0.785361,-0.000005,-2.356422,-0.000116,1.570624,0.785591,0.010000000000000,0.010000
2024-08-12 19:34:17.5875213,2024-08-12 19:34:17.5878073,0.000046,-0.785358,-0.000007,-2.356419,-0.000118,1.570621,0.785591,0.010000000000000,0.010000
2024-08-12 19:34:17.5997584,2024-08-12 19:34:17.5999685,0.000040,-0.785361,-0.000005,-2.356421,-0.000116,1.570623,0.785592,0.010000000000000,0.010000
2024-08-12 19:34:17.6078213,2024-08-12 19:34:17.6080110,0.000046,-0.785363,-0.000007,-2.356422,-0.000115,1.570625,0.785588,0.010000000000000,0.010000
2024-08-12 19:34:17.6199370,2024-08-12 19:34:17.6201445,0.000043,-0.785361,-0.000005,-2.356422,-0.000118,1.570621,0.785589,0.010000000000000,0.010000
2024-08-12 19:34:17.6280009,2024-08-12 19:34:17.6281888,0.000042,-0.785361,-0.000010,-2.356418,-0.000117,1.570620,0.785592,0.010000000000000,0.010000
2024-08-12 19:34:17.6401251,2024-08-12 19:34:17.6403390,0.000040,-0.785358,-0.000005,-2.356419,-0.000118,1.570623,0.785588,0.010000000000000,0.010000
2024-08-12 19:34:17.6481815,2024-08-12 19:34:17.6483824,0.000043,-0.785358,-0.000007,-2.356421,-0.000116,1.570622,0.785592,0.010000000000000,0.010000
2024-08-12 19:34:17.6603073,2024-08-12 19:34:17.6605068,0.000045,-0.785356,-0.000007,-2.356421,-0.000115,1.570625,0.785593,0.010000000000000,0.010000
2024-08-12 19:34:17.6683603,2024-08-12 19:34:17.6685343,0.000037,-0.785358,-0.000010,-2.356419,-0.000118,1.570624,0.785592,0.010000000000000,0.010000
2024-08-12 19:34:17.6804874,2024-08-12 19:34:17.6806841,0.000043,-0.785358,-0.000007,-2.356418,-0.000114,1.570623,0.785587,0.010000000000000,0.010000
2024-08-12 19:34:17.6885407,2024-08-12 19:34:17.6887130,0.000041,-0.785361,-0.000007,-2.356429,-0.000117,1.570624,0.785590,0.010000000000000,0.010000
2024-08-12 19:34:17.6986040,2024-08-12 19:34:17.6988020,0.000044,-0.785356,-0.000005,-2.356419,-0.000118,1.570624,0.785592,0.010000000000000,0.010000
2024-08-12 19:34:17.7066640,2024-08-12 19:34:17.7068604,0.000040,-0.785358,-0.000007,-2.356419,-0.000117,1.570620,0.785594,0.010000000000000,0.010000
2024-08-12 19:34:17.7187574,2024-08-12 19:34:17.7189430,0.000043,-0.785358,-0.000010,-2.356416,-0.000120,1.570622,0.785594,0.010000000000000,0.010000
2024-08-12 19:34:17.7268229,2024-08-12 19:34:17.7270264,0.000041,-0.785361,-0.000010,-2.356416,-0.000116,1.570624,0.785593,0.010000000000000,0.010000
2024-08-12 19:34:17.7389404,2024-08-12 19:34:17.7391105,0.000042,-0.785363,-0.000007,-2.356427,-0.000117,1.570623,0.785592,0.010000000000000,0.010000
2024-08-12 19:34:17.7469970,2024-08-12 19:34:17.7471580,0.000040,-0.785366,-0.000009,-2.356419,-0.000116,1.570625,0.785589,0.010000000000000,0.010000
2024-08-12 19:34:17.7591151,2024-08-12 19:34:17.7592830,0.000040,-0.785361,-0.000007,-2.356419,-0.000118,1.570624,0.785589,0.010000000000000,0.010000
2024-08-12 19:34:17.7671818,2024-08-12 19:34:17.7673545,0.000045,-0.785358,-0.000013,-2.356421,-0.000116,1.570625,0.785589,0.010000000000000,0.010000
2024-08-12 19:34:17.7792952,2024-08-12 19:34:17.7794616,0.000040,-0.785358,-0.000007,-2.356422,-0.000118,1.570622,0.785593,0.010000000000000,0.010000
2024-08-12 19:34:17.7873511,2024-08-12 19:34:17.7875288,0.000041,-0.785363,-0.000002,-2.356424,-0.000118,1.570624,0.785594,0.010000000000000,0.010000
2024-08-12 19:34:17.7994754,2024-08-12 19:34:17.7996474,0.000043,-0.785363,-0.000010,-2.356419,-0.000115,1.570624,0.785593,0.010000000000000,0.010000
2024-08-12 19:34:17.8075401,2024-08-12 19:34:17.8077151,0.000040,-0.785356,-0.000010,-2.356418,-0.000116,1.570625,0.785589,0.010000000000000,0.010000
2024-08-12 19:34:17.8196561,2024-08-12 19:34:17.8198223,0.000045,-0.785361,-0.000005,-2.356414,-0.000117,1.570624,0.785589,0.010000000000000,0.010000
2024-08-12 19:34:17.8277210,2024-08-12 19:34:17.8278938,0.000042,-0.785358,-0.000010,-2.356416,-0.000118,1.570621,0.785591,0.010000000000000,0.010000
2024-08-12 19:34:17.8398422,2024-08-12 19:34:17.8400209,0.000043,-0.785358,-0.000007,-2.356419,-0.000116,1.570624,0.785592,0.010000000000000,0.010000
2024-08-12 19:34:17.8479065,2024-08-12 19:34:17.8480588,0.000044,-0.785363,-0.000005,-2.356418,-0.000118,1.570625,0.785593,0.010000000000000,0.010000
2024-08-12 19:34:17.8600229,2024-08-12 19:34:17.8601729,0.000040,-0.785361,-0.000005,-2.356424,-0.000116,1.570623,0.785595,0.010000000000000,0.010000
2024-08-12 19:34:17.8680786,2024-08-12 19:34:17.8682151,0.000045,-0.785353,-0.000007,-2.356419,-0.000116,1.570621,0.785594,0.010000000000000,0.010000
2024-08-12 19:34:17.8801972,2024-08-12 19:34:17.8803371,0.000040,-0.785356,-0.000013,-2.356421,-0.000117,1.570624,0.785588,0.010000000000000,0.010000
2024-08-12 19:34:17.8882727,2024-08-12 19:34:17.8884324,0.000042,-0.785358,-0.000007,-2.356422,-0.000117,1.570624,0.785589,0.010000000000000,0.010000
2024-08-12 19:34:17.9003478,2024-08-12 19:34:17.9004812,0.000046,-0.785363,-0.000007,-2.356415,-0.000117,1.570618,0.785593,0.010000000000000,0.010000
2024-08-12 19:34:17.9084100,2024-08-12 19:34:17.9085456,0.000042,-0.785358,-0.000005,-2.356421,-0.000116,1.570621,0.785594,0.010000000000000,0.010000
2024-08-12 19:34:17.9205258,2024-08-12 19:34:17.9206631,0.000041,-0.785356,-0.000010,-2.356422,-0.000118,1.570624,0.785592,0.010000000000000,0.010000
2024-08-12 19:34:17.9505963,2024-08-12 19:34:17.9507576,0.000046,-0.785356,-0.000007,-2.356424,-0.000115,1.570623,0.785593,0.010000000000000,0.010000
2024-08-12 19:34:17.9511432,2024-08-12 19:34:17.9512779,0.000045,-0.785361,-0.000010,-2.356416,-0.000118,1.570620,0.785592,0.010000000000000,0.010000
2024-08-12 19:34:17.9521479,2024-08-12 19:34:17.9523746,0.000043,-0.785356,-0.000007,-2.356421,-0.000116,1.570624,0.785592,0.010000000000000,0.010000
2024-08-12 19:34:17.9589623,2024-08-12 19:34:17.9592076,0.000042,-0.785361,-0.000005,-2.356418,-0.000117,1.570622,0.785593,0.010000000000000,0.010000
2024-08-12 19:34:17.9670213,2024-08-12 19:34:17.9672330,0.000043,-0.785366,-0.000007,-2.356418,-0.000117,1.570623,0.785595,0.010000000000000,0.010000
2024-08-12 19:34:17.9791440,2024-08-12 19:34:17.9793796,0.000048,-0.785358,-0.000010,-2.356419,-0.000118,1.570624,0.785592,0.010000000000000,0.010000
2024-08-12 19:34:17.9872076,2024-08-12 19:34:17.9874315,0.000038,-0.785358,-0.000007,-2.356429,-0.000118,1.570620,0.785591,0.010000000000000,0.010000
2024-08-12 19:34:17.9993402,2024-08-12 19:34:17.9995766,0.000040,-0.785353,-0.000005,-2.356422,-0.000117,1.570625,0.785592,0.010000000000000,0.010000
2024-08-12 19:34:18.0075259,2024-08-12 19:34:18.0077775,0.000044,-0.785363,-0.000010,-2.356416,-0.000116,1.570624,0.785591,0.010000000000000,0.010000
2024-08-12 19:34:18.0195679,2024-08-12 19:34:18.0197876,0.000044,-0.785361,-0.000005,-2.356422,-0.000117,1.570623,0.785589,0.010000000000000,0.010000
2024-08-12 19:34:18.0276419,2024-08-12 19:34:18.0278716,0.000046,-0.785361,-0.000005,-2.356419,-0.000117,1.570621,0.785591,0.010000000000000,0.010000
2024-08-12 19:34:18.0397630,2024-08-12 19:34:18.0399361,0.000041,-0.785363,-0.000002,-2.356416,-0.000116,1.570625,0.785594,0.010000000000000,0.010000
2024-08-12 19:34:18.0478245,2024-08-12 19:34:18.0479670,0.000043,-0.785356,-0.000007,-2.356417,-0.000115,1.570625,0.785592,0.010000000000000,0.010000
2024-08-12 19:34:18.0599349,2024-08-12 19:34:18.0600814,0.000041,-0.785361,-0.000007,-2.356422,-0.000117,1.570625,0.785587,0.010000000000000,0.010000
2024-08-12 19:34:18.0679961,2024-08-12 19:34:18.0681234,0.000046,-0.785361,-0.000013,-2.356419,-0.000117,1.570625,0.785589,0.010000000000000,0.010000
2024-08-12 19:34:18.0801297,2024-08-12 19:34:18.0802827,0.000043,-0.785366,-0.000005,-2.356417,-0.000117,1.570624,0.785592,0.010000000000000,0.010000
2024-08-12 19:34:18.0881772,2024-08-12 19:34:18.0882885,0.000043,-0.785361,-0.000005,-2.356422,-0.000117,1.570624,0.785592,0.010000000000000,0.010000
2024-08-12 19:34:18.1003076,2024-08-12 19:34:18.1004435,0.000045,-0.785363,-0.000010,-2.356424,-0.000117,1.570625,0.785590,0.010000000000000,0.010000
2024-08-12 19:34:18.1084140,2024-08-12 19:34:18.1085280,0.000045,-0.785363,-0.000010,-2.356421,-0.000117,1.570625,0.785592,0.010000000000000,0.010000
2024-08-12 19:34:18.1205300,2024-08-12 19:34:18.1206587,0.000042,-0.785361,-0.000004,-2.356418,-0.000116,1.570623,0.785594,0.010000000000000,0.010000
2024-08-12 19:34:18.1286067,2024-08-12 19:34:18.1287239,0.000045,-0.785363,-0.000010,-2.356416,-0.000117,1.570623,0.785594,0.010000000000000,0.010000
2024-08-12 19:34:18.1386494,2024-08-12 19:34:18.1387526,0.000042,-0.785363,-0.000010,-2.356418,-0.000117,1.570620,0.785590,0.010000000000000,0.010000
2024-08-12 19:34:18.1467377,2024-08-12 19:34:18.1468682,0.000041,-0.785358,-0.000007,-2.356419,-0.000118,1.570624,0.785592,0.010000000000000,0.010000
2024-08-12 19:34:18.1588343,2024-08-12 19:34:18.1589479,0.000043,-0.785363,-0.000005,-2.356422,-0.000115,1.570624,0.785592,0.010000000000000,0.010000
2024-08-12 19:34:18.1668986,2024-08-12 19:34:18.1670095,0.000048,-0.785358,-0.000010,-2.356419,-0.000117,1.570624,0.785593,0.010000000000000,0.010000
2024-08-12 19:34:18.1790184,2024-08-12 19:34:18.1791525,0.000038,-0.785361,-0.000007,-2.356422,-0.000117,1.570624,0.785593,0.010000000000000,0.010000
2024-08-12 19:34:18.1992382,2024-08-12 19:34:18.1993688,0.000046,-0.785361,-0.000005,-2.356422,-0.000118,1.570621,0.785594,0.010000000000000,0.010000
2024-08-12 19:34:18.2073428,2024-08-12 19:34:18.2074520,0.000045,-0.785358,-0.000005,-2.356418,-0.000117,1.570624,0.785592,0.010000000000000,0.010000
2024-08-12 19:34:18.2194926,2024-08-12 19:34:18.2196057,0.000043,-0.785363,-0.000007,-2.356416,-0.000118,1.570623,0.785591,0.010000000000000,0.010000
2024-08-12 19:34:18.2275979,2024-08-12 19:34:18.2277101,0.000046,-0.785361,-0.000010,-2.356419,-0.000118,1.570624,0.785589,0.010000000000000,0.010000
2024-08-12 19:34:18.2397585,2024-08-12 19:34:18.2398760,0.000043,-0.785356,-0.000004,-2.356422,-0.000117,1.570624,0.785592,0.010000000000000,0.010000
2024-08-12 19:34:18.2478618,2024-08-12 19:34:18.2479751,0.000040,-0.785358,-0.000007,-2.356419,-0.000117,1.570625,0.785592,0.010000000000000,0.010000
2024-08-12 19:34:18.2600217,2024-08-12 19:34:18.2601437,0.000038,-0.785358,-0.000015,-2.356414,-0.000117,1.570624,0.785596,0.010000000000000,0.010000
2024-08-12 19:34:18.2681733,2024-08-12 19:34:18.2682815,0.000046,-0.785356,-0.000005,-2.356419,-0.000118,1.570623,0.785595,0.010000000000000,0.010000
2024-08-12 19:34:18.2803322,2024-08-12 19:34:18.2804460,0.000038,-0.785361,-0.000007,-2.356424,-0.000118,1.570626,0.785590,0.010000000000000,0.010000
2024-08-12 19:34:18.2884307,2024-08-12 19:34:18.2885421,0.000043,-0.785358,-0.000002,-2.356416,-0.000117,1.570623,0.785590,0.010000000000000,0.010000
2024-08-12 19:34:18.3005942,2024-08-12 19:34:18.3007112,0.000043,-0.785361,-0.000010,-2.356419,-0.000118,1.570625,0.785590,0.010000000000000,0.010000
2024-08-12 19:34:18.3086952,2024-08-12 19:34:18.3088073,0.000043,-0.785363,-0.000005,-2.356422,-0.000118,1.570624,0.785587,0.010000000000000,0.010000
2024-08-12 19:34:18.3187937,2024-08-12 19:34:18.3202322,0.000045,-0.785356,-0.000005,-2.356426,-0.000116,1.570624,0.785590,0.010000000000000,0.010000
2024-08-12 19:34:18.3269238,2024-08-12 19:34:18.3270212,0.000043,-0.785358,-0.000007,-2.356419,-0.000116,1.570624,0.785587,0.010000000000000,0.010000
2024-08-12 19:34:18.3390768,2024-08-12 19:34:18.3391702,0.000045,-0.785361,-0.000007,-2.356421,-0.000116,1.570625,0.785591,0.010000000000000,0.010000
2024-08-12 19:34:18.3471827,2024-08-12 19:34:18.3472785,0.000043,-0.785361,-0.000007,-2.356421,-0.000115,1.570623,0.785592,0.010000000000000,0.010000
2024-08-12 19:34:18.3593457,2024-08-12 19:34:18.3594386,0.000046,-0.785358,-0.000010,-2.356418,-0.000116,1.570624,0.785593,0.010000000000000,0.010000
2024-08-12 19:34:18.3674456,2024-08-12 19:34:18.3675416,0.000040,-0.785361,-0.000007,-2.356417,-0.000116,1.570624,0.785594,0.010000000000000,0.010000
2024-08-12 19:34:18.3796039,2024-08-12 19:34:18.3796979,0.000045,-0.785366,-0.000012,-2.356419,-0.000118,1.570623,0.785592,0.010000000000000,0.010000
2024-08-12 19:34:18.3877052,2024-08-12 19:34:18.3878045,0.000040,-0.785358,-0.000007,-2.356422,-0.000117,1.570623,0.785594,0.010000000000000,0.010000
2024-08-12 19:34:18.3998627,2024-08-12 19:34:18.3999830,0.000041,-0.785358,-0.000010,-2.356422,-0.000117,1.570625,0.785591,0.010000000000000,0.010000
2024-08-12 19:34:18.4086946,2024-08-12 19:34:18.4088318,0.000045,-0.785358,-0.000010,-2.356419,-0.000116,1.570621,0.785590,0.010000000000000,0.010000
2024-08-12 19:34:18.4187460,2024-08-12 19:34:18.4188638,0.000048,-0.785356,-0.000007,-2.356417,-0.000118,1.570624,0.785590,0.010000000000000,0.010000
2024-08-12 19:34:18.4268126,2024-08-12 19:34:18.4269362,0.000045,-0.785356,-0.000005,-2.356419,-0.000117,1.570624,0.785589,0.010000000000000,0.010000
2024-08-12 19:34:18.4389228,2024-08-12 19:34:18.4390403,0.000045,-0.785361,-0.000010,-2.356421,-0.000116,1.570624,0.785589,0.010000000000000,0.010000
2024-08-12 19:34:18.4469892,2024-08-12 19:34:18.4471087,0.000043,-0.785361,-0.000010,-2.356427,-0.000117,1.570625,0.785590,0.010000000000000,0.010000
2024-08-12 19:34:18.4591075,2024-08-12 19:34:18.4592281,0.000043,-0.785361,-0.000010,-2.356419,-0.000116,1.570624,0.785595,0.010000000000000,0.010000
2024-08-12 19:34:18.4671654,2024-08-12 19:34:18.4672931,0.000046,-0.785358,-0.000010,-2.356424,-0.000117,1.570624,0.785590,0.010000000000000,0.010000
2024-08-12 19:34:18.4792865,2024-08-12 19:34:18.4794126,0.000046,-0.785361,-0.000005,-2.356422,-0.000117,1.570624,0.785589,0.010000000000000,0.010000
2024-08-12 19:34:18.4873441,2024-08-12 19:34:18.4875114,0.000043,-0.785353,-0.000007,-2.356421,-0.000116,1.570625,0.785593,0.010000000000000,0.010000
2024-08-12 19:34:18.4994799,2024-08-12 19:34:18.4996345,0.000043,-0.785363,-0.000007,-2.356421,-0.000118,1.570624,0.785594,0.010000000000000,0.010000
2024-08-12 19:34:18.5075504,2024-08-12 19:34:18.5076995,0.000046,-0.785361,-0.000010,-2.356418,-0.000118,1.570623,0.785594,0.010000000000000,0.010000
2024-08-12 19:34:18.5196688,2024-08-12 19:34:18.5197680,0.000045,-0.785361,-0.000010,-2.356416,-0.000118,1.570625,0.785586,0.010000000000000,0.010000
2024-08-12 19:34:18.5277317,2024-08-12 19:34:18.5278221,0.000043,-0.785363,-0.000005,-2.356416,-0.000117,1.570627,0.785589,0.010000000000000,0.010000
2024-08-12 19:34:18.5398455,2024-08-12 19:34:18.5399392,0.000042,-0.785363,-0.000007,-2.356416,-0.000118,1.570627,0.785594,0.010000000000000,0.010000
2024-08-12 19:34:18.5479124,2024-08-12 19:34:18.5480227,0.000040,-0.785358,-0.000007,-2.356419,-0.000117,1.570624,0.785594,0.010000000000000,0.010000
2024-08-12 19:34:18.5600315,2024-08-12 19:34:18.5601366,0.000043,-0.785361,-0.000007,-2.356416,-0.000117,1.570625,0.785594,0.010000000000000,0.010000
2024-08-12 19:34:18.5680919,2024-08-12 19:34:18.5681985,0.000040,-0.785361,-0.000007,-2.356416,-0.000118,1.570623,0.785592,0.010000000000000,0.010000
2024-08-12 19:34:18.5802078,2024-08-12 19:34:18.5803067,0.000043,-0.785358,-0.000010,-2.356423,-0.000118,1.570626,0.785590,0.010000000000000,0.010000
2024-08-12 19:34:18.5882889,2024-08-12 19:34:18.5884674,0.000040,-0.785358,-0.000007,-2.356421,-0.000118,1.570623,0.785587,0.010000000000000,0.010000
2024-08-12 19:34:18.6004024,2024-08-12 19:34:18.6005525,0.000046,-0.785361,-0.000005,-2.356419,-0.000118,1.570623,0.785590,0.010000000000000,0.010000
2024-08-12 19:34:18.6085880,2024-08-12 19:34:18.6087178,0.000040,-0.785358,-0.000007,-2.356419,-0.000118,1.570627,0.785590,0.010000000000000,0.010000
2024-08-12 19:34:18.6186411,2024-08-12 19:34:18.6187477,0.000040,-0.785366,-0.000005,-2.356419,-0.000115,1.570625,0.785589,0.010000000000000,0.010000
2024-08-12 19:34:18.6267135,2024-08-12 19:34:18.6268385,0.000043,-0.785356,-0.000007,-2.356419,-0.000117,1.570623,0.785588,0.010000000000000,0.010000
2024-08-12 19:34:18.6388312,2024-08-12 19:34:18.6389388,0.000045,-0.785353,-0.000010,-2.356418,-0.000116,1.570625,0.785592,0.010000000000000,0.010000
2024-08-12 19:34:18.6468863,2024-08-12 19:34:18.6469899,0.000040,-0.785363,-0.000010,-2.356419,-0.000117,1.570624,0.785592,0.010000000000000,0.010000
2024-08-12 19:34:18.6590008,2024-08-12 19:34:18.6590912,0.000040,-0.785359,-0.000005,-2.356417,-0.000116,1.570624,0.785592,0.010000000000000,0.010000
2024-08-12 19:34:18.6670588,2024-08-12 19:34:18.6671476,0.000041,-0.785363,-0.000010,-2.356419,-0.000117,1.570625,0.785591,0.010000000000000,0.010000
2024-08-12 19:34:18.6791817,2024-08-12 19:34:18.6792834,0.000042,-0.785363,-0.000005,-2.356421,-0.000117,1.570625,0.785590,0.010000000000000,0.010000
2024-08-12 19:34:18.6872369,2024-08-12 19:34:18.6873244,0.000042,-0.785366,-0.000010,-2.356417,-0.000116,1.570623,0.785590,0.010000000000000,0.010000
2024-08-12 19:34:18.6993587,2024-08-12 19:34:18.6994589,0.000042,-0.785358,-0.000007,-2.356424,-0.000117,1.570623,0.785591,0.010000000000000,0.010000
2024-08-12 19:34:18.7074209,2024-08-12 19:34:18.7075175,0.000040,-0.785361,-0.000007,-2.356415,-0.000116,1.570621,0.785594,0.010000000000000,0.010000
2024-08-12 19:34:18.7195380,2024-08-12 19:34:18.7196346,0.000045,-0.785356,-0.000007,-2.356413,-0.000116,1.570625,0.785586,0.010000000000000,0.010000
2024-08-12 19:34:18.7276025,2024-08-12 19:34:18.7276988,0.000040,-0.785363,-0.000005,-2.356422,-0.000118,1.570624,0.785589,0.010000000000000,0.010000
2024-08-12 19:34:18.7397162,2024-08-12 19:34:18.7398066,0.000043,-0.785366,-0.000007,-2.356419,-0.000116,1.570624,0.785592,0.010000000000000,0.010000
2024-08-12 19:34:18.7477781,2024-08-12 19:34:18.7478729,0.000042,-0.785358,-0.000013,-2.356418,-0.000117,1.570623,0.785594,0.010000000000000,0.010000
2024-08-12 19:34:18.7598971,2024-08-12 19:34:18.7600091,0.000043,-0.785361,-0.000010,-2.356421,-0.000118,1.570624,0.785589,0.010000000000000,0.010000
2024-08-12 19:34:18.7679526,2024-08-12 19:34:18.7680588,0.000041,-0.785361,-0.000007,-2.356424,-0.000116,1.570624,0.785589,0.010000000000000,0.010000
2024-08-12 19:34:18.7800392,2024-08-12 19:34:18.7801587,0.000043,-0.785361,-0.000010,-2.356421,-0.000117,1.570625,0.785591,0.010000000000000,0.010000
2024-08-12 19:34:18.7880984,2024-08-12 19:34:18.7881911,0.000045,-0.785361,-0.000005,-2.356424,-0.000115,1.570625,0.785592,0.010000000000000,0.010000
2024-08-12 19:34:18.8002124,2024-08-12 19:34:18.8003048,0.000036,-0.785366,-0.000007,-2.356417,-0.000116,1.570625,0.785591,0.010000000000000,0.010000
2024-08-12 19:34:18.8082714,2024-08-12 19:34:18.8083706,0.000040,-0.785361,-0.000005,-2.356419,-0.000116,1.570624,0.785589,0.010000000000000,0.010000
2024-08-12 19:34:18.8203870,2024-08-12 19:34:18.8204750,0.000038,-0.785361,-0.000007,-2.356424,-0.000116,1.570627,0.785592,0.010000000000000,0.010000
2024-08-12 19:34:18.8284519,2024-08-12 19:34:18.8285400,0.000048,-0.785361,-0.000010,-2.356414,-0.000116,1.570624,0.785592,0.010000000000000,0.010000
2024-08-12 19:34:18.8405662,2024-08-12 19:34:18.8406643,0.000037,-0.785361,-0.000005,-2.356418,-0.000116,1.570624,0.785596,0.010000000000000,0.010000
2024-08-12 19:34:18.8486309,2024-08-12 19:34:18.8487447,0.000042,-0.785358,-0.000010,-2.356422,-0.000118,1.570625,0.785595,0.010000000000000,0.010000
2024-08-12 19:34:18.8586959,2024-08-12 19:34:18.8588078,0.000038,-0.785363,-0.000007,-2.356419,-0.000117,1.570625,0.785591,0.010000000000000,0.010000
2024-08-12 19:34:18.8667524,2024-08-12 19:34:18.8668656,0.000040,-0.785361,-0.000005,-2.356424,-0.000117,1.570623,0.785591,0.010000000000000,0.010000
2024-08-12 19:34:18.8788866,2024-08-12 19:34:18.8790315,0.000046,-0.785361,-0.000007,-2.356421,-0.000116,1.570624,0.785588,0.010000000000000,0.010000
2024-08-12 19:34:18.8869304,2024-08-12 19:34:18.8870283,0.000043,-0.785367,-0.000013,-2.356417,-0.000116,1.570624,0.785588,0.010000000000000,0.010000
2024-08-12 19:34:18.8990467,2024-08-12 19:34:18.8991554,0.000046,-0.785361,-0.000010,-2.356418,-0.000116,1.570625,0.785593,0.010000000000000,0.010000
2024-08-12 19:34:18.9071050,2024-08-12 19:34:18.9072332,0.000042,-0.785363,-0.000007,-2.356424,-0.000115,1.570627,0.785594,0.010000000000000,0.010000
2024-08-12 19:34:18.9192245,2024-08-12 19:34:18.9193334,0.000041,-0.785358,-0.000010,-2.356418,-0.000116,1.570624,0.785593,0.010000000000000,0.010000
2024-08-12 19:34:18.9272833,2024-08-12 19:34:18.9274009,0.000038,-0.785361,-0.000007,-2.356419,-0.000118,1.570624,0.785593,0.010000000000000,0.010000
2024-08-12 19:34:18.9393998,2024-08-12 19:34:18.9395064,0.000038,-0.785358,-0.000005,-2.356419,-0.000115,1.570624,0.785588,0.010000000000000,0.010000
2024-08-12 19:34:18.9474618,2024-08-12 19:34:18.9475691,0.000045,-0.785356,-0.000010,-2.356418,-0.000117,1.570624,0.785588,0.010000000000000,0.010000
2024-08-12 19:34:18.9595989,2024-08-12 19:34:18.9597202,0.000040,-0.785358,-0.000012,-2.356419,-0.000118,1.570625,0.785594,0.010000000000000,0.010000
2024-08-12 19:34:18.9676392,2024-08-12 19:34:18.9677465,0.000042,-0.785358,-0.000005,-2.356419,-0.000118,1.570623,0.785593,0.010000000000000,0.010000
2024-08-12 19:34:18.9797560,2024-08-12 19:34:18.9798666,0.000043,-0.785361,-0.000010,-2.356419,-0.000118,1.570624,0.785590,0.010000000000000,0.010000
2024-08-12 19:34:18.9999434,2024-08-12 19:34:19.0000470,0.000045,-0.785358,-0.000010,-2.356416,-0.000117,1.570624,0.785593,0.010000000000000,0.010000
2024-08-12 19:34:19.0079987,2024-08-12 19:34:19.0080805,0.000046,-0.785366,-0.000010,-2.356416,-0.000117,1.570624,0.785594,0.010000000000000,0.010000
2024-08-12 19:34:19.0201076,2024-08-12 19:34:19.0201911,0.000043,-0.785358,-0.000007,-2.356416,-0.000118,1.570625,0.785590,0.010000000000000,0.010000
2024-08-12 19:34:19.0281871,2024-08-12 19:34:19.0282890,0.000046,-0.785356,-0.000010,-2.356413,-0.000117,1.570626,0.785592,0.010000000000000,0.010000
2024-08-12 19:34:19.0402726,2024-08-12 19:34:19.0403584,0.000038,-0.785363,-0.000007,-2.356419,-0.000115,1.570625,0.785586,0.010000000000000,0.010000
2024-08-12 19:34:19.0483314,2024-08-12 19:34:19.0483953,0.000043,-0.785363,-0.000007,-2.356418,-0.000117,1.570624,0.785589,0.010000000000000,0.010000
2024-08-12 19:34:19.0604481,2024-08-12 19:34:19.0605353,0.000048,-0.785366,-0.000007,-2.356423,-0.000115,1.570623,0.785594,0.010000000000000,0.010000
2024-08-12 19:34:19.0685080,2024-08-12 19:34:19.0685896,0.000042,-0.785361,-0.000010,-2.356416,-0.000118,1.570624,0.785596,0.010000000000000,0.010000
2024-08-12 19:34:19.0806278,2024-08-12 19:34:19.0807102,0.000040,-0.785358,-0.000007,-2.356421,-0.000117,1.570624,0.785589,0.010000000000000,0.010000
2024-08-12 19:34:19.0886837,2024-08-12 19:34:19.0887624,0.000041,-0.785366,-0.000010,-2.356416,-0.000118,1.570628,0.785589,0.010000000000000,0.010000
2024-08-12 19:34:19.0987505,2024-08-12 19:34:19.0988316,0.000043,-0.785361,-0.000007,-2.356421,-0.000117,1.570624,0.785591,0.010000000000000,0.010000
2024-08-12 19:34:19.1068067,2024-08-12 19:34:19.1068818,0.000041,-0.785366,-0.000007,-2.356419,-0.000114,1.570625,0.785592,0.010000000000000,0.010000
2024-08-12 19:34:19.1189256,2024-08-12 19:34:19.1190060,0.000040,-0.785361,-0.000013,-2.356424,-0.000116,1.570624,0.785590,0.010000000000000,0.010000
2024-08-12 19:34:19.1269899,2024-08-12 19:34:19.1270684,0.000045,-0.785361,-0.000005,-2.356422,-0.000117,1.570625,0.785592,0.010000000000000,0.010000
2024-08-12 19:34:19.1391041,2024-08-12 19:34:19.1391852,0.000043,-0.785358,-0.000010,-2.356421,-0.000117,1.570624,0.785594,0.010000000000000,0.010000
2024-08-12 19:34:19.1471665,2024-08-12 19:34:19.1472498,0.000043,-0.785358,-0.000007,-2.356422,-0.000117,1.570625,0.785595,0.010000000000000,0.010000
2024-08-12 19:34:19.1592803,2024-08-12 19:34:19.1593609,0.000045,-0.785356,-0.000007,-2.356416,-0.000117,1.570623,0.785589,0.010000000000000,0.010000
2024-08-12 19:34:19.1673397,2024-08-12 19:34:19.1674197,0.000045,-0.785366,-0.000007,-2.356416,-0.000117,1.570625,0.785593,0.010000000000000,0.010000
2024-08-12 19:34:19.1794554,2024-08-12 19:34:19.1795370,0.000040,-0.785358,-0.000005,-2.356416,-0.000117,1.570624,0.785591,0.010000000000000,0.010000
2024-08-12 19:34:19.1875135,2024-08-12 19:34:19.1875914,0.000043,-0.785366,-0.000005,-2.356422,-0.000116,1.570628,0.785593,0.010000000000000,0.010000
2024-08-12 19:34:19.1996291,2024-08-12 19:34:19.1997097,0.000043,-0.785358,-0.000007,-2.356416,-0.000114,1.570623,0.785589,0.010000000000000,0.010000
2024-08-12 19:34:19.2077096,2024-08-12 19:34:19.2077978,0.000043,-0.785358,-0.000002,-2.356419,-0.000117,1.570625,0.785590,0.010000000000000,0.010000
2024-08-12 19:34:19.2198685,2024-08-12 19:34:19.2199917,0.000045,-0.785358,-0.000005,-2.356419,-0.000118,1.570625,0.785592,0.010000000000000,0.010000
2024-08-12 19:34:19.2279614,2024-08-12 19:34:19.2280751,0.000046,-0.785353,-0.000005,-2.356429,-0.000116,1.570625,0.785592,0.010000000000000,0.010000
2024-08-12 19:34:19.2401492,2024-08-12 19:34:19.2402627,0.000043,-0.785358,-0.000007,-2.356422,-0.000118,1.570624,0.785590,0.010000000000000,0.010000
2024-08-12 19:34:19.2482286,2024-08-12 19:34:19.2483463,0.000041,-0.785358,-0.000005,-2.356422,-0.000115,1.570624,0.785589,0.010000000000000,0.010000
2024-08-12 19:34:19.2603394,2024-08-12 19:34:19.2604496,0.000048,-0.785363,-0.000007,-2.356419,-0.000116,1.570625,0.785594,0.010000000000000,0.010000
2024-08-12 19:34:19.2684101,2024-08-12 19:34:19.2685298,0.000042,-0.785358,-0.000007,-2.356424,-0.000116,1.570625,0.785595,0.010000000000000,0.010000
2024-08-12 19:34:19.2786064,2024-08-12 19:34:19.2787286,0.000045,-0.785361,-0.000010,-2.356422,-0.000117,1.570624,0.785589,0.010000000000000,0.010000
2024-08-12 19:34:19.2866548,2024-08-12 19:34:19.2867455,0.000043,-0.785366,-0.000005,-2.356423,-0.000116,1.570623,0.785589,0.010000000000000,0.010000
2024-08-12 19:34:19.2987734,2024-08-12 19:34:19.2988725,0.000043,-0.785356,-0.000007,-2.356426,-0.000117,1.570627,0.785591,0.010000000000000,0.010000
2024-08-12 19:34:19.3068347,2024-08-12 19:34:19.3069243,0.000045,-0.785363,-0.000012,-2.356414,-0.000116,1.570624,0.785591,0.010000000000000,0.010000
2024-08-12 19:34:19.3189618,2024-08-12 19:34:19.3190703,0.000046,-0.785363,-0.000007,-2.356422,-0.000114,1.570624,0.785594,0.010000000000000,0.010000
2024-08-12 19:34:19.3270205,2024-08-12 19:34:19.3271177,0.000045,-0.785358,-0.000007,-2.356419,-0.000116,1.570627,0.785590,0.010000000000000,0.010000
2024-08-12 19:34:19.3391289,2024-08-12 19:34:19.3392221,0.000046,-0.785358,-0.000013,-2.356416,-0.000116,1.570625,0.785586,0.010000000000000,0.010000
2024-08-12 19:34:19.3471907,2024-08-12 19:34:19.3472823,0.000046,-0.785363,-0.000005,-2.356414,-0.000115,1.570625,0.785590,0.010000000000000,0.010000
2024-08-12 19:34:19.3604220,2024-08-12 19:34:19.3605203,0.000043,-0.785361,-0.000007,-2.356408,-0.000116,1.570624,0.785593,0.010000000000000,0.010000
2024-08-12 19:34:19.3684800,2024-08-12 19:34:19.3685655,0.000042,-0.785356,-0.000005,-2.356416,-0.000116,1.570625,0.785590,0.010000000000000,0.010000
2024-08-12 19:34:19.3806207,2024-08-12 19:34:19.3807336,0.000043,-0.785361,-0.000007,-2.356419,-0.000116,1.570625,0.785592,0.010000000000000,0.010000
2024-08-12 19:34:19.3886714,2024-08-12 19:34:19.3887667,0.000035,-0.785358,-0.000007,-2.356416,-0.000118,1.570625,0.785592,0.010000000000000,0.010000
2024-08-12 19:34:19.3987459,2024-08-12 19:34:19.3988505,0.000042,-0.785361,-0.000010,-2.356421,-0.000118,1.570624,0.785589,0.010000000000000,0.010000
2024-08-12 19:34:19.4068128,2024-08-12 19:34:19.4069182,0.000043,-0.785361,-0.000007,-2.356418,-0.000117,1.570623,0.785592,0.010000000000000,0.010000
2024-08-12 19:34:19.4189426,2024-08-12 19:34:19.4190567,0.000041,-0.785356,-0.000007,-2.356421,-0.000118,1.570624,0.785592,0.010000000000000,0.010000
2024-08-12 19:34:19.4270118,2024-08-12 19:34:19.4271187,0.000045,-0.785361,-0.000013,-2.356418,-0.000117,1.570625,0.785589,0.010000000000000,0.010000
2024-08-12 19:34:19.4391410,2024-08-12 19:34:19.4392528,0.000045,-0.785358,-0.000007,-2.356422,-0.000118,1.570624,0.785590,0.010000000000000,0.010000
2024-08-12 19:34:19.4471822,2024-08-12 19:34:19.4472724,0.000043,-0.785358,-0.000007,-2.356418,-0.000117,1.570624,0.785592,0.010000000000000,0.010000
2024-08-12 19:34:19.4593079,2024-08-12 19:34:19.4593957,0.000041,-0.785363,-0.000010,-2.356416,-0.000117,1.570625,0.785593,0.010000000000000,0.010000
2024-08-12 19:34:19.4673747,2024-08-12 19:34:19.4674806,0.000040,-0.785361,-0.000007,-2.356421,-0.000117,1.570624,0.785593,0.010000000000000,0.010000
2024-08-12 19:34:19.4794927,2024-08-12 19:34:19.4795874,0.000045,-0.785361,-0.000007,-2.356427,-0.000118,1.570624,0.785587,0.010000000000000,0.010000
2024-08-12 19:34:19.4875550,2024-08-12 19:34:19.4876447,0.000046,-0.785361,-0.000007,-2.356413,-0.000115,1.570624,0.785588,0.010000000000000,0.010000
2024-08-12 19:34:19.4996937,2024-08-12 19:34:19.4998190,0.000046,-0.785363,-0.000010,-2.356419,-0.000118,1.570625,0.785592,0.010000000000000,0.010000
2024-08-12 19:34:19.5077686,2024-08-12 19:34:19.5078951,0.000040,-0.785361,-0.000005,-2.356416,-0.000116,1.570623,0.785594,0.010000000000000,0.010000
2024-08-12 19:34:19.5198790,2024-08-12 19:34:19.5199734,0.000043,-0.785363,-0.000010,-2.356419,-0.000116,1.570622,0.785592,0.010000000000000,0.010000
2024-08-12 19:34:19.5279427,2024-08-12 19:34:19.5280268,0.000040,-0.785361,-0.000013,-2.356421,-0.000117,1.570623,0.785590,0.010000000000000,0.010000
2024-08-12 19:34:19.5400625,2024-08-12 19:34:19.5401533,0.000045,-0.785363,-0.000005,-2.356421,-0.000118,1.570624,0.785588,0.010000000000000,0.010000
2024-08-12 19:34:19.5481302,2024-08-12 19:34:19.5482202,0.000043,-0.785363,-0.000010,-2.356418,-0.000115,1.570623,0.785592,0.010000000000000,0.010000
2024-08-12 19:34:19.5602552,2024-08-12 19:34:19.5603601,0.000045,-0.785358,-0.000007,-2.356419,-0.000117,1.570625,0.785593,0.010000000000000,0.010000
2024-08-12 19:34:19.5683117,2024-08-12 19:34:19.5683969,0.000046,-0.785361,-0.000015,-2.356418,-0.000117,1.570624,0.785592,0.010000000000000,0.010000
2024-08-12 19:34:19.5804339,2024-08-12 19:34:19.5805245,0.000040,-0.785366,-0.000010,-2.356418,-0.000118,1.570623,0.785589,0.010000000000000,0.010000
2024-08-12 19:34:19.5884976,2024-08-12 19:34:19.5885830,0.000048,-0.785363,-0.000007,-2.356418,-0.000118,1.570624,0.785594,0.010000000000000,0.010000
2024-08-12 19:34:19.6006282,2024-08-12 19:34:19.6007264,0.000038,-0.785358,-0.000007,-2.356413,-0.000116,1.570625,0.785591,0.010000000000000,0.010000
2024-08-12 19:34:19.6086958,2024-08-12 19:34:19.6087897,0.000037,-0.785361,-0.000005,-2.356423,-0.000116,1.570625,0.785587,0.010000000000000,0.010000
2024-08-12 19:34:19.6188787,2024-08-12 19:34:19.6189708,0.000043,-0.785361,-0.000007,-2.356419,-0.000117,1.570627,0.785593,0.010000000000000,0.010000
2024-08-12 19:34:19.6269507,2024-08-12 19:34:19.6270458,0.000041,-0.785366,-0.000010,-2.356415,-0.000118,1.570624,0.785594,0.010000000000000,0.010000
2024-08-12 19:34:19.6390665,2024-08-12 19:34:19.6391608,0.000041,-0.785361,-0.000009,-2.356423,-0.000116,1.570623,0.785592,0.010000000000000,0.010000
2024-08-12 19:34:19.6471315,2024-08-12 19:34:19.6472218,0.000048,-0.785358,-0.000007,-2.356419,-0.000117,1.570625,0.785591,0.010000000000000,0.010000
2024-08-12 19:34:19.6592578,2024-08-12 19:34:19.6593503,0.000046,-0.785366,-0.000007,-2.356421,-0.000115,1.570624,0.785592,0.010000000000000,0.010000
2024-08-12 19:34:19.6673175,2024-08-12 19:34:19.6674027,0.000044,-0.785361,-0.000007,-2.356421,-0.000118,1.570625,0.785592,0.010000000000000,0.010000
2024-08-12 19:34:19.6794591,2024-08-12 19:34:19.6795839,0.000041,-0.785361,-0.000007,-2.356419,-0.000118,1.570624,0.785593,0.010000000000000,0.010000
2024-08-12 19:34:19.6875141,2024-08-12 19:34:19.6876098,0.000040,-0.785366,-0.000007,-2.356421,-0.000118,1.570625,0.785595,0.010000000000000,0.010000
2024-08-12 19:34:19.6996445,2024-08-12 19:34:19.6997640,0.000043,-0.785361,-0.000007,-2.356418,-0.000117,1.570623,0.785589,0.010000000000000,0.010000
2024-08-12 19:34:19.7077215,2024-08-12 19:34:19.7078322,0.000046,-0.785361,-0.000005,-2.356419,-0.000115,1.570625,0.785592,0.010000000000000,0.010000
2024-08-12 19:34:19.7199802,2024-08-12 19:34:19.7200794,0.000043,-0.785358,-0.000010,-2.356421,-0.000117,1.570624,0.785591,0.010000000000000,0.010000
2024-08-12 19:34:19.7281043,2024-08-12 19:34:19.7281940,0.000039,-0.785363,-0.000007,-2.356417,-0.000115,1.570625,0.785591,0.010000000000000,0.010000
2024-08-12 19:34:19.7403513,2024-08-12 19:34:19.7404578,0.000043,-0.785358,-0.000007,-2.356416,-0.000118,1.570625,0.785592,0.010000000000000,0.010000
2024-08-12 19:34:19.7484822,2024-08-12 19:34:19.7485799,0.000038,-0.785361,-0.000010,-2.356416,-0.000117,1.570625,0.785589,0.010000000000000,0.010000
2024-08-12 19:34:19.7606861,2024-08-12 19:34:19.7607973,0.000046,-0.785366,-0.000007,-2.356421,-0.000117,1.570623,0.785589,0.010000000000000,0.010000
2024-08-12 19:34:19.7688020,2024-08-12 19:34:19.7688881,0.000042,-0.785361,-0.000013,-2.356418,-0.000116,1.570623,0.785593,0.010000000000000,0.010000
2024-08-12 19:34:19.7788800,2024-08-12 19:34:19.7789820,0.000045,-0.785361,-0.000010,-2.356421,-0.000118,1.570623,0.785593,0.010000000000000,0.010000
2024-08-12 19:34:19.7992300,2024-08-12 19:34:19.7993435,0.000048,-0.785361,-0.000005,-2.356421,-0.000117,1.570624,0.785587,0.010000000000000,0.010000
2024-08-12 19:34:19.8074192,2024-08-12 19:34:19.8075224,0.000043,-0.785366,-0.000010,-2.356418,-0.000116,1.570624,0.785590,0.010000000000000,0.010000
2024-08-12 19:34:19.8196836,2024-08-12 19:34:19.8197907,0.000045,-0.785361,-0.000007,-2.356414,-0.000117,1.570625,0.785592,0.010000000000000,0.010000
2024-08-12 19:34:19.8278160,2024-08-12 19:34:19.8279216,0.000043,-0.785356,-0.000010,-2.356423,-0.000117,1.570624,0.785592,0.010000000000000,0.010000
2024-08-12 19:34:19.8400773,2024-08-12 19:34:19.8401838,0.000038,-0.785356,-0.000005,-2.356418,-0.000117,1.570624,0.785589,0.010000000000000,0.010000
2024-08-12 19:34:19.8482045,2024-08-12 19:34:19.8483038,0.000040,-0.785363,-0.000013,-2.356418,-0.000115,1.570624,0.785591,0.010000000000000,0.010000
2024-08-12 19:34:19.8603995,2024-08-12 19:34:19.8605057,0.000041,-0.785358,-0.000010,-2.356418,-0.000118,1.570625,0.785593,0.010000000000000,0.010000
2024-08-12 19:34:19.8685248,2024-08-12 19:34:19.8686262,0.000043,-0.785361,-0.000010,-2.356413,-0.000116,1.570624,0.785595,0.010000000000000,0.010000
2024-08-12 19:34:19.8786651,2024-08-12 19:34:19.8787708,0.000048,-0.785361,-0.000007,-2.356416,-0.000117,1.570623,0.785591,0.010000000000000,0.010000
2024-08-12 19:34:19.8867418,2024-08-12 19:34:19.8868423,0.000043,-0.785358,-0.000007,-2.356416,-0.000117,1.570624,0.785586,0.010000000000000,0.010000
2024-08-12 19:34:19.8989766,2024-08-12 19:34:19.8990790,0.000042,-0.785363,-0.000007,-2.356416,-0.000117,1.570623,0.785592,0.010000000000000,0.010000
2024-08-12 19:34:19.9070473,2024-08-12 19:34:19.9071536,0.000040,-0.785358,-0.000007,-2.356422,-0.000118,1.570623,0.785594,0.010000000000000,0.010000
2024-08-12 19:34:19.9192460,2024-08-12 19:34:19.9193531,0.000042,-0.785358,-0.000013,-2.356419,-0.000117,1.570624,0.785593,0.010000000000000,0.010000
2024-08-12 19:34:19.9273444,2024-08-12 19:34:19.9274408,0.000040,-0.785358,-0.000007,-2.356419,-0.000117,1.570624,0.785588,0.010000000000000,0.010000
2024-08-12 19:34:19.9395529,2024-08-12 19:34:19.9396721,0.000045,-0.785361,-0.000010,-2.356423,-0.000117,1.570623,0.785589,0.010000000000000,0.010000
2024-08-12 19:34:19.9478040,2024-08-12 19:34:19.9478841,0.000042,-0.785361,-0.000007,-2.356423,-0.000115,1.570625,0.785594,0.010000000000000,0.010000
2024-08-12 19:34:19.9600633,2024-08-12 19:34:19.9601692,0.000040,-0.785366,-0.000010,-2.356421,-0.000117,1.570625,0.785593,0.010000000000000,0.010000
2024-08-12 19:34:19.9682015,2024-08-12 19:34:19.9683012,0.000048,-0.785361,-0.000005,-2.356417,-0.000115,1.570622,0.785588,0.010000000000000,0.010000
2024-08-12 19:34:19.9804212,2024-08-12 19:34:19.9805146,0.000045,-0.785358,-0.000007,-2.356418,-0.000117,1.570624,0.785590,0.010000000000000,0.010000
2024-08-12 19:34:19.9885492,2024-08-12 19:34:19.9886421,0.000040,-0.785361,-0.000007,-2.356416,-0.000115,1.570625,0.785590,0.010000000000000,0.010000
2024-08-12 19:34:19.9986568,2024-08-12 19:34:19.9987499,0.000038,-0.785361,-0.000007,-2.356418,-0.000118,1.570627,0.785593,0.010000000000000,0.010000
2024-08-12 19:34:20.0067285,2024-08-12 19:34:20.0068203,0.000042,-0.785358,-0.000007,-2.356418,-0.000117,1.570625,0.785594,0.010000000000000,0.010000
2024-08-12 19:34:20.0189314,2024-08-12 19:34:20.0190294,0.000043,-0.785363,-0.000010,-2.356423,-0.000117,1.570624,0.785591,0.010000000000000,0.010000
2024-08-12 19:34:20.0270029,2024-08-12 19:34:20.0270975,0.000043,-0.785358,-0.000005,-2.356421,-0.000117,1.570624,0.785588,0.010000000000000,0.010000
2024-08-12 19:34:20.0392693,2024-08-12 19:34:20.0393732,0.000046,-0.785358,-0.000005,-2.356419,-0.000116,1.570627,0.785594,0.010000000000000,0.010000
2024-08-12 19:34:20.0474059,2024-08-12 19:34:20.0475019,0.000045,-0.785358,-0.000005,-2.356421,-0.000116,1.570624,0.785592,0.010000000000000,0.010000
2024-08-12 19:34:20.0596454,2024-08-12 19:34:20.0597499,0.000046,-0.785363,-0.000007,-2.356413,-0.000116,1.570624,0.785596,0.010000000000000,0.010000
2024-08-12 19:34:20.0677743,2024-08-12 19:34:20.0678820,0.000045,-0.785358,-0.000007,-2.356423,-0.000117,1.570625,0.785592,0.010000000000000,0.010000
2024-08-12 19:34:20.0800385,2024-08-12 19:34:20.0801494,0.000045,-0.785361,-0.000005,-2.356424,-0.000115,1.570625,0.785585,0.010000000000000,0.010000
2024-08-12 19:34:20.0881675,2024-08-12 19:34:20.0882634,0.000040,-0.785358,-0.000005,-2.356422,-0.000116,1.570625,0.785589,0.010000000000000,0.010000
2024-08-12 19:34:20.1003753,2024-08-12 19:34:20.1004802,0.000043,-0.785361,-0.000007,-2.356411,-0.000116,1.570623,0.785594,0.010000000000000,0.010000
2024-08-12 19:34:20.1084455,2024-08-12 19:34:20.1085400,0.000043,-0.785356,-0.000007,-2.356418,-0.000116,1.570622,0.785594,0.010000000000000,0.010000
2024-08-12 19:34:20.1206930,2024-08-12 19:34:20.1207981,0.000043,-0.785361,-0.000007,-2.356421,-0.000118,1.570624,0.785589,0.010000000000000,0.010000
2024-08-12 19:34:20.1288021,2024-08-12 19:34:20.1288960,0.000044,-0.785358,-0.000010,-2.356416,-0.000117,1.570624,0.785587,0.010000000000000,0.010000
2024-08-12 19:34:20.1388729,2024-08-12 19:34:20.1398647,0.000041,-0.785361,-0.000013,-2.356419,-0.000116,1.570625,0.785593,0.010000000000000,0.010000
2024-08-12 19:34:20.1469569,2024-08-12 19:34:20.1470569,0.000043,-0.785363,-0.000007,-2.356418,-0.000118,1.570623,0.785593,0.010000000000000,0.010000
2024-08-12 19:34:20.1591810,2024-08-12 19:34:20.1592818,0.000040,-0.785358,-0.000007,-2.356416,-0.000118,1.570622,0.785589,0.010000000000000,0.010000
2024-08-12 19:34:20.1672768,2024-08-12 19:34:20.1673699,0.000042,-0.785366,-0.000007,-2.356421,-0.000117,1.570624,0.785589,0.010000000000000,0.010000
2024-08-12 19:34:20.1794746,2024-08-12 19:34:20.1795753,0.000043,-0.785356,-0.000005,-2.356416,-0.000120,1.570624,0.785592,0.010000000000000,0.010000
2024-08-12 19:34:20.1875722,2024-08-12 19:34:20.1876662,0.000041,-0.785361,-0.000007,-2.356421,-0.000117,1.570624,0.785591,0.010000000000000,0.010000
2024-08-12 19:34:20.1996981,2024-08-12 19:34:20.1997798,0.000045,-0.785361,-0.000005,-2.356416,-0.000116,1.570623,0.785593,0.010000000000000,0.010000
2024-08-12 19:34:20.2077801,2024-08-12 19:34:20.2078976,0.000042,-0.785363,0.000001,-2.356419,-0.000117,1.570624,0.785591,0.0100000000000000,0.010000
2024-08-12 19:34:20.2199076,2024-08-12 19:34:20.2200088,0.000046,-0.785363,-0.000005,-2.356416,-0.000116,1.570625,0.785589,0.010000000000000,0.010000
2024-08-12 19:34:20.2279637,2024-08-12 19:34:20.2280602,0.000040,-0.785361,-0.000007,-2.356422,-0.000117,1.570624,0.785590,0.010000000000000,0.010000
2024-08-12 19:34:20.2400799,2024-08-12 19:34:20.2401698,0.000042,-0.785356,-0.000007,-2.356421,-0.000117,1.570623,0.785594,0.010000000000000,0.010000
2024-08-12 19:34:20.2481540,2024-08-12 19:34:20.2482631,0.000041,-0.785361,-0.000007,-2.356416,-0.000117,1.570625,0.785596,0.010000000000000,0.010000
2024-08-12 19:34:20.2602708,2024-08-12 19:34:20.2603710,0.000043,-0.785358,-0.000005,-2.356418,-0.000118,1.570624,0.785591,0.010000000000000,0.010000
2024-08-12 19:34:20.2683238,2024-08-12 19:34:20.2684088,0.000041,-0.785358,-0.000010,-2.356419,-0.000114,1.570625,0.785590,0.010000000000000,0.010000
2024-08-12 19:34:20.2804445,2024-08-12 19:34:20.2805485,0.000040,-0.785363,-0.000013,-2.356418,-0.000116,1.570624,0.785590,0.010000000000000,0.010000
2024-08-12 19:34:20.2886116,2024-08-12 19:34:20.2886966,0.000043,-0.785358,-0.000013,-2.356418,-0.000116,1.570623,0.785592,0.010000000000000,0.010000
2024-08-12 19:34:20.2986752,2024-08-12 19:34:20.2987642,0.000042,-0.785361,-0.000010,-2.356414,-0.000117,1.570624,0.785594,0.010000000000000,0.010000
2024-08-12 19:34:20.3067437,2024-08-12 19:34:20.3068326,0.000043,-0.785358,-0.000005,-2.356419,-0.000117,1.570624,0.785592,0.010000000000000,0.010000
2024-08-12 19:34:20.3188752,2024-08-12 19:34:20.3189811,0.000042,-0.785366,-0.000007,-2.356424,-0.000120,1.570624,0.785590,0.010000000000000,0.010000
2024-08-12 19:34:20.3269304,2024-08-12 19:34:20.3270142,0.000043,-0.785356,-0.000007,-2.356419,-0.000117,1.570625,0.785592,0.010000000000000,0.010000
2024-08-12 19:34:20.3390555,2024-08-12 19:34:20.3391654,0.000035,-0.785358,-0.000010,-2.356419,-0.000116,1.570627,0.785589,0.010000000000000,0.010000
2024-08-12 19:34:20.3471154,2024-08-12 19:34:20.3472201,0.000041,-0.785361,-0.000007,-2.356419,-0.000116,1.570623,0.785592,0.010000000000000,0.010000
2024-08-12 19:34:20.3593098,2024-08-12 19:34:20.3594134,0.000043,-0.785356,-0.000010,-2.356418,-0.000115,1.570622,0.785594,0.010000000000000,0.010000
2024-08-12 19:34:20.3673668,2024-08-12 19:34:20.3674719,0.000043,-0.785358,-0.000007,-2.356421,-0.000117,1.570625,0.785594,0.010000000000000,0.010000
2024-08-12 19:34:20.3794516,2024-08-12 19:34:20.3795552,0.000048,-0.785361,-0.000010,-2.356419,-0.000117,1.570623,0.785589,0.010000000000000,0.010000
2024-08-12 19:34:20.3875103,2024-08-12 19:34:20.3876086,0.000045,-0.785361,-0.000010,-2.356413,-0.000116,1.570624,0.785590,0.010000000000000,0.010000
2024-08-12 19:34:20.3996252,2024-08-12 19:34:20.3997180,0.000041,-0.785358,-0.000010,-2.356418,-0.000118,1.570624,0.785592,0.010000000000000,0.010000
2024-08-12 19:34:20.4076968,2024-08-12 19:34:20.4077964,0.000044,-0.785361,-0.000007,-2.356418,-0.000114,1.570627,0.785589,0.010000000000000,0.010000
2024-08-12 19:34:20.4198160,2024-08-12 19:34:20.4199245,0.000043,-0.785358,-0.000010,-2.356422,-0.000115,1.570623,0.785593,0.010000000000000,0.010000
2024-08-12 19:34:20.4278745,2024-08-12 19:34:20.4279648,0.000036,-0.785363,-0.000010,-2.356424,-0.000117,1.570624,0.785594,0.010000000000000,0.010000
2024-08-12 19:34:20.4400051,2024-08-12 19:34:20.4401258,0.000038,-0.785358,-0.000010,-2.356421,-0.000117,1.570627,0.785586,0.010000000000000,0.010000
2024-08-12 19:34:20.4480606,2024-08-12 19:34:20.4481468,0.000046,-0.785361,-0.000007,-2.356419,-0.000116,1.570625,0.785586,0.010000000000000,0.010000
2024-08-12 19:34:20.4602109,2024-08-12 19:34:20.4603276,0.000048,-0.785363,-0.000013,-2.356424,-0.000117,1.570624,0.785592,0.010000000000000,0.010000
2024-08-12 19:34:20.4945990,2024-08-12 19:34:20.4947303,0.000043,-0.785361,-0.000007,-2.356418,-0.000118,1.570623,0.785592,0.010000000000000,0.010000
2024-08-12 19:34:20.4950491,2024-08-12 19:34:20.4951571,0.000042,-0.785358,-0.000005,-2.356416,-0.000116,1.570624,0.785589,0.010000000000000,0.010000
2024-08-12 19:34:20.4960467,2024-08-12 19:34:20.4961746,0.000038,-0.785358,-0.000007,-2.356418,-0.000117,1.570625,0.785589,0.010000000000000,0.010000
2024-08-12 19:34:20.5005692,2024-08-12 19:34:20.5006756,0.000040,-0.785366,-0.000005,-2.356415,-0.000118,1.570625,0.785593,0.010000000000000,0.010000
2024-08-12 19:34:20.5086325,2024-08-12 19:34:20.5087425,0.000041,-0.785358,-0.000007,-2.356419,-0.000116,1.570624,0.785593,0.010000000000000,0.010000
2024-08-12 19:34:20.5187018,2024-08-12 19:34:20.5188128,0.000046,-0.785358,-0.000005,-2.356421,-0.000117,1.570627,0.785592,0.010000000000000,0.010000
2024-08-12 19:34:20.5267624,2024-08-12 19:34:20.5268720,0.000042,-0.785358,-0.000007,-2.356419,-0.000117,1.570625,0.785591,0.010000000000000,0.010000
2024-08-12 19:34:20.5388840,2024-08-12 19:34:20.5390270,0.000040,-0.785366,-0.000007,-2.356418,-0.000118,1.570627,0.785593,0.010000000000000,0.010000
2024-08-12 19:34:20.5469498,2024-08-12 19:34:20.5470750,0.000045,-0.785356,-0.000013,-2.356417,-0.000116,1.570625,0.785592,0.010000000000000,0.010000
2024-08-12 19:34:20.5590788,2024-08-12 19:34:20.5592026,0.000041,-0.785361,-0.000010,-2.356418,-0.000117,1.570624,0.785588,0.010000000000000,0.010000
2024-08-12 19:34:20.5671393,2024-08-12 19:34:20.5672646,0.000043,-0.785356,-0.000010,-2.356418,-0.000118,1.570625,0.785590,0.010000000000000,0.010000
2024-08-12 19:34:20.5792576,2024-08-12 19:34:20.5793669,0.000045,-0.785361,-0.000010,-2.356424,-0.000118,1.570625,0.785593,0.010000000000000,0.010000
2024-08-12 19:34:20.5994463,2024-08-12 19:34:20.5995556,0.000043,-0.785358,-0.000005,-2.356418,-0.000117,1.570627,0.785592,0.010000000000000,0.010000
2024-08-12 19:34:20.6075135,2024-08-12 19:34:20.6076216,0.000043,-0.785361,-0.000010,-2.356422,-0.000117,1.570625,0.785590,0.010000000000000,0.010000
2024-08-12 19:34:20.6196343,2024-08-12 19:34:20.6197362,0.000043,-0.785363,-0.000005,-2.356416,-0.000118,1.570624,0.785589,0.010000000000000,0.010000
2024-08-12 19:34:20.6277038,2024-08-12 19:34:20.6278288,0.000043,-0.785369,-0.000007,-2.356422,-0.000118,1.570625,0.785592,0.010000000000000,0.010000
2024-08-12 19:34:20.6398226,2024-08-12 19:34:20.6399245,0.000040,-0.785361,-0.000007,-2.356418,-0.000116,1.570625,0.785592,0.010000000000000,0.010000
2024-08-12 19:34:20.6478830,2024-08-12 19:34:20.6479719,0.000042,-0.785358,-0.000007,-2.356419,-0.000117,1.570622,0.785592,0.010000000000000,0.010000
2024-08-12 19:34:20.6600136,2024-08-12 19:34:20.6601214,0.000046,-0.785361,-0.000005,-2.356421,-0.000116,1.570625,0.785594,0.010000000000000,0.010000
2024-08-12 19:34:20.6680663,2024-08-12 19:34:20.6681587,0.000042,-0.785358,-0.000010,-2.356418,-0.000117,1.570625,0.785594,0.010000000000000,0.010000
2024-08-12 19:34:20.6801977,2024-08-12 19:34:20.6803054,0.000040,-0.785361,-0.000010,-2.356416,-0.000118,1.570624,0.785591,0.010000000000000,0.010000
2024-08-12 19:34:20.6882421,2024-08-12 19:34:20.6883300,0.000045,-0.785361,-0.000007,-2.356421,-0.000116,1.570625,0.785590,0.010000000000000,0.010000
2024-08-12 19:34:20.7003582,2024-08-12 19:34:20.7004572,0.000038,-0.785358,-0.000005,-2.356416,-0.000118,1.570624,0.785592,0.010000000000000,0.010000
2024-08-12 19:34:20.7084243,2024-08-12 19:34:20.7085179,0.000040,-0.785361,-0.000007,-2.356423,-0.000116,1.570625,0.785593,0.010000000000000,0.010000
2024-08-12 19:34:20.7205367,2024-08-12 19:34:20.7206402,0.000041,-0.785356,-0.000010,-2.356418,-0.000116,1.570624,0.785592,0.010000000000000,0.010000
2024-08-12 19:34:20.7286021,2024-08-12 19:34:20.7287018,0.000045,-0.785363,-0.000005,-2.356421,-0.000118,1.570624,0.785590,0.010000000000000,0.010000
2024-08-12 19:34:20.7386643,2024-08-12 19:34:20.7387557,0.000040,-0.785363,-0.000010,-2.356418,-0.000118,1.570627,0.785589,0.010000000000000,0.010000
2024-08-12 19:34:20.7467241,2024-08-12 19:34:20.7468207,0.000041,-0.785366,-0.000005,-2.356421,-0.000116,1.570624,0.785590,0.010000000000000,0.010000
2024-08-12 19:34:20.7588466,2024-08-12 19:34:20.7589515,0.000042,-0.785358,-0.000010,-2.356422,-0.000117,1.570625,0.785594,0.010000000000000,0.010000
2024-08-12 19:34:20.7668990,2024-08-12 19:34:20.7669795,0.000042,-0.785361,-0.000010,-2.356421,-0.000116,1.570623,0.785592,0.010000000000000,0.010000
2024-08-12 19:34:20.7790312,2024-08-12 19:34:20.7791404,0.000040,-0.785361,-0.000005,-2.356413,-0.000116,1.570624,0.785592,0.010000000000000,0.010000
2024-08-12 19:34:20.7870986,2024-08-12 19:34:20.7871962,0.000045,-0.785358,-0.000005,-2.356421,-0.000117,1.570627,0.785593,0.010000000000000,0.010000
2024-08-12 19:34:20.7992230,2024-08-12 19:34:20.7993403,0.000043,-0.785356,-0.000005,-2.356423,-0.000117,1.570623,0.785588,0.010000000000000,0.010000
2024-08-12 19:34:20.8072736,2024-08-12 19:34:20.8073705,0.000045,-0.785361,-0.000005,-2.356419,-0.000116,1.570625,0.785589,0.010000000000000,0.010000
2024-08-12 19:34:20.8193928,2024-08-12 19:34:20.8194969,0.000040,-0.785358,-0.000010,-2.356416,-0.000117,1.570624,0.785589,0.010000000000000,0.010000
2024-08-12 19:34:20.8274579,2024-08-12 19:34:20.8275633,0.000042,-0.785363,-0.000007,-2.356421,-0.000116,1.570622,0.785587,0.010000000000000,0.010000
2024-08-12 19:34:20.8395757,2024-08-12 19:34:20.8396742,0.000045,-0.785361,-0.000010,-2.356418,-0.000118,1.570625,0.785592,0.010000000000000,0.010000
2024-08-12 19:34:20.8476686,2024-08-12 19:34:20.8477869,0.000043,-0.785363,-0.000010,-2.356418,-0.000115,1.570625,0.785593,0.010000000000000,0.010000
2024-08-12 19:34:20.8598196,2024-08-12 19:34:20.8599445,0.000041,-0.785358,-0.000007,-2.356419,-0.000116,1.570625,0.785592,0.010000000000000,0.010000
2024-08-12 19:34:20.8678883,2024-08-12 19:34:20.8680039,0.000045,-0.785358,-0.000010,-2.356419,-0.000116,1.570627,0.785592,0.010000000000000,0.010000
2024-08-12 19:34:20.8800186,2024-08-12 19:34:20.8801427,0.000042,-0.785358,-0.000010,-2.356418,-0.000117,1.570624,0.785590,0.010000000000000,0.010000
2024-08-12 19:34:20.8880605,2024-08-12 19:34:20.8881497,0.000041,-0.785361,-0.000007,-2.356416,-0.000117,1.570624,0.785591,0.010000000000000,0.010000
2024-08-12 19:34:20.9001936,2024-08-12 19:34:20.9003068,0.000043,-0.785361,-0.000005,-2.356416,-0.000116,1.570625,0.785590,0.010000000000000,0.010000
2024-08-12 19:34:20.9082591,2024-08-12 19:34:20.9083641,0.000043,-0.785358,-0.000010,-2.356421,-0.000117,1.570625,0.785592,0.010000000000000,0.010000
2024-08-12 19:34:20.9203854,2024-08-12 19:34:20.9205206,0.000044,-0.785361,-0.000010,-2.356418,-0.000117,1.570625,0.785593,0.010000000000000,0.010000
2024-08-12 19:34:20.9284405,2024-08-12 19:34:20.9285363,0.000041,-0.785363,-0.000013,-2.356418,-0.000118,1.570625,0.785593,0.010000000000000,0.010000
2024-08-12 19:34:20.9405726,2024-08-12 19:34:20.9406885,0.000043,-0.785363,-0.000007,-2.356414,-0.000117,1.570624,0.785594,0.010000000000000,0.010000
2024-08-12 19:34:20.9486370,2024-08-12 19:34:20.9487378,0.000043,-0.785358,-0.000010,-2.356419,-0.000117,1.570625,0.785594,0.010000000000000,0.010000
2024-08-12 19:34:20.9588226,2024-08-12 19:34:20.9588984,0.000043,-0.785358,-0.000007,-2.356418,-0.000117,1.570624,0.785589,0.010000000000000,0.010000
2024-08-12 19:34:20.9668938,2024-08-12 19:34:20.9670024,0.000043,-0.785358,-0.000007,-2.356421,-0.000116,1.570624,0.785590,0.010000000000000,0.010000
2024-08-12 19:34:20.9790180,2024-08-12 19:34:20.9791437,0.000046,-0.785361,-0.000010,-2.356419,-0.000118,1.570624,0.785593,0.010000000000000,0.010000
2024-08-12 19:34:20.9870746,2024-08-12 19:34:20.9871797,0.000046,-0.785358,-0.000007,-2.356416,-0.000116,1.570628,0.785593,0.010000000000000,0.010000
2024-08-12 19:34:20.9991937,2024-08-12 19:34:20.9992933,0.000046,-0.785358,-0.000007,-2.356416,-0.000116,1.570625,0.785591,0.010000000000000,0.010000
2024-08-12 19:34:21.0072605,2024-08-12 19:34:21.0073559,0.000041,-0.785356,-0.000007,-2.356418,-0.000116,1.570625,0.785589,0.010000000000000,0.010000
2024-08-12 19:34:21.0193814,2024-08-12 19:34:21.0194788,0.000040,-0.785369,-0.000005,-2.356421,-0.000117,1.570625,0.785593,0.010000000000000,0.010000
2024-08-12 19:34:21.0274420,2024-08-12 19:34:21.0275374,0.000040,-0.785358,-0.000007,-2.356421,-0.000117,1.570627,0.785592,0.010000000000000,0.010000
2024-08-12 19:34:21.0395634,2024-08-12 19:34:21.0396773,0.000042,-0.785361,-0.000007,-2.356418,-0.000118,1.570624,0.785589,0.010000000000000,0.010000
2024-08-12 19:34:21.0476196,2024-08-12 19:34:21.0477136,0.000040,-0.785363,-0.000010,-2.356418,-0.000116,1.570625,0.785589,0.010000000000000,0.010000
2024-08-12 19:34:21.0597544,2024-08-12 19:34:21.0598602,0.000040,-0.785358,-0.000007,-2.356419,-0.000116,1.570627,0.785592,0.010000000000000,0.010000
2024-08-12 19:34:21.0678028,2024-08-12 19:34:21.0678884,0.000040,-0.785358,-0.000007,-2.356416,-0.000118,1.570623,0.785591,0.010000000000000,0.010000
2024-08-12 19:34:21.0799341,2024-08-12 19:34:21.0800381,0.000045,-0.785361,-0.000013,-2.356416,-0.000116,1.570623,0.785592,0.010000000000000,0.010000
2024-08-12 19:34:21.0879864,2024-08-12 19:34:21.0880771,0.000043,-0.785361,-0.000007,-2.356421,-0.000115,1.570624,0.785592,0.010000000000000,0.010000
2024-08-12 19:34:21.1001149,2024-08-12 19:34:21.1002219,0.000043,-0.785363,-0.000005,-2.356416,-0.000117,1.570624,0.785588,0.010000000000000,0.010000
2024-08-12 19:34:21.1081845,2024-08-12 19:34:21.1082862,0.000040,-0.785363,-0.000010,-2.356418,-0.000116,1.570624,0.785590,0.010000000000000,0.010000
2024-08-12 19:34:21.1202968,2024-08-12 19:34:21.1203897,0.000040,-0.785361,-0.000007,-2.356423,-0.000118,1.570625,0.785592,0.010000000000000,0.010000
2024-08-12 19:34:21.1283620,2024-08-12 19:34:21.1284602,0.000041,-0.785361,-0.000010,-2.356416,-0.000118,1.570625,0.785594,0.010000000000000,0.010000
2024-08-12 19:34:21.1405045,2024-08-12 19:34:21.1406224,0.000045,-0.785366,-0.000010,-2.356416,-0.000117,1.570625,0.785590,0.010000000000000,0.010000
2024-08-12 19:34:21.1485605,2024-08-12 19:34:21.1486557,0.000045,-0.785358,-0.000007,-2.356419,-0.000117,1.570624,0.785587,0.010000000000000,0.010000
2024-08-12 19:34:21.1586027,2024-08-12 19:34:21.1587075,0.000040,-0.785361,-0.000005,-2.356416,-0.000117,1.570624,0.785594,0.010000000000000,0.010000
2024-08-12 19:34:21.1666552,2024-08-12 19:34:21.1667386,0.000040,-0.785358,-0.000010,-2.356418,-0.000116,1.570625,0.785594,0.010000000000000,0.010000
2024-08-12 19:34:21.1787893,2024-08-12 19:34:21.1788957,0.000042,-0.785361,-0.000007,-2.356423,-0.000117,1.570625,0.785591,0.010000000000000,0.010000
2024-08-12 19:34:21.1868400,2024-08-12 19:34:21.1869300,0.000043,-0.785356,-0.000007,-2.356416,-0.000118,1.570624,0.785589,0.010000000000000,0.010000
2024-08-12 19:34:21.1989694,2024-08-12 19:34:21.1990951,0.000042,-0.785366,-0.000005,-2.356416,-0.000116,1.570625,0.785593,0.010000000000000,0.010000
2024-08-12 19:34:21.2070313,2024-08-12 19:34:21.2071247,0.000041,-0.785363,-0.000007,-2.356418,-0.000118,1.570624,0.785594,0.010000000000000,0.010000
2024-08-12 19:34:21.2191555,2024-08-12 19:34:21.2192587,0.000043,-0.785361,-0.000010,-2.356413,-0.000116,1.570623,0.785589,0.010000000000000,0.010000
2024-08-12 19:34:21.2272201,2024-08-12 19:34:21.2273208,0.000043,-0.785361,-0.000007,-2.356418,-0.000116,1.570624,0.785588,0.010000000000000,0.010000
2024-08-12 19:34:21.2393361,2024-08-12 19:34:21.2394363,0.000042,-0.785363,-0.000010,-2.356418,-0.000116,1.570624,0.785594,0.010000000000000,0.010000
2024-08-12 19:34:21.2474052,2024-08-12 19:34:21.2475087,0.000040,-0.785356,-0.000007,-2.356422,-0.000116,1.570625,0.785593,0.010000000000000,0.010000
2024-08-12 19:34:21.2595422,2024-08-12 19:34:21.2596456,0.000041,-0.785356,-0.000007,-2.356421,-0.000117,1.570627,0.785588,0.010000000000000,0.010000
2024-08-12 19:34:21.2676002,2024-08-12 19:34:21.2677016,0.000041,-0.785369,-0.000005,-2.356414,-0.000116,1.570623,0.785590,0.010000000000000,0.010000
2024-08-12 19:34:21.2797206,2024-08-12 19:34:21.2798193,0.000040,-0.785363,-0.000013,-2.356418,-0.000114,1.570623,0.785593,0.010000000000000,0.010000
2024-08-12 19:34:21.2877735,2024-08-12 19:34:21.2878683,0.000045,-0.785358,-0.000010,-2.356422,-0.000116,1.570625,0.785594,0.010000000000000,0.010000
2024-08-12 19:34:21.3000229,2024-08-12 19:34:21.3001277,0.000040,-0.785363,-0.000007,-2.356416,-0.000116,1.570624,0.785593,0.010000000000000,0.010000
2024-08-12 19:34:21.3080930,2024-08-12 19:34:21.3082052,0.000043,-0.785358,-0.000007,-2.356421,-0.000114,1.570625,0.785588,0.010000000000000,0.010000
2024-08-12 19:34:21.3203051,2024-08-12 19:34:21.3203941,0.000048,-0.785361,-0.000010,-2.356419,-0.000118,1.570624,0.785586,0.010000000000000,0.010000
2024-08-12 19:34:21.3284165,2024-08-12 19:34:21.3285158,0.000043,-0.785363,-0.000005,-2.356418,-0.000118,1.570622,0.785591,0.010000000000000,0.010000
2024-08-12 19:34:21.3406204,2024-08-12 19:34:21.3407186,0.000043,-0.785361,-0.000010,-2.356424,-0.000116,1.570625,0.785594,0.010000000000000,0.010000
2024-08-12 19:34:21.3487246,2024-08-12 19:34:21.3488172,0.000048,-0.785363,-0.000010,-2.356421,-0.000116,1.570625,0.785591,0.010000000000000,0.010000
2024-08-12 19:34:21.3588163,2024-08-12 19:34:21.3589363,0.000040,-0.785366,-0.000007,-2.356416,-0.000117,1.570624,0.785591,0.010000000000000,0.010000
2024-08-12 19:34:21.3669253,2024-08-12 19:34:21.3670145,0.000045,-0.785358,-0.000007,-2.356418,-0.000116,1.570625,0.785590,0.010000000000000,0.010000
2024-08-12 19:34:21.3790894,2024-08-12 19:34:21.3791803,0.000045,-0.785358,-0.000013,-2.356421,-0.000118,1.570624,0.785591,0.010000000000000,0.010000
2024-08-12 19:34:21.3994736,2024-08-12 19:34:21.3995800,0.000040,-0.785361,-0.000007,-2.356422,-0.000116,1.570625,0.785590,0.010000000000000,0.010000
2024-08-12 19:34:21.4075815,2024-08-12 19:34:21.4076760,0.000044,-0.785356,-0.000005,-2.356419,-0.000118,1.570623,0.785592,0.010000000000000,0.010000
2024-08-12 19:34:21.4197065,2024-08-12 19:34:21.4198057,0.000043,-0.785358,-0.000010,-2.356416,-0.000117,1.570625,0.785591,0.010000000000000,0.010000
2024-08-12 19:34:21.4277766,2024-08-12 19:34:21.4278497,0.000042,-0.785361,-0.000007,-2.356416,-0.000116,1.570624,0.785590,0.010000000000000,0.010000
2024-08-12 19:34:21.4398921,2024-08-12 19:34:21.4399693,0.000041,-0.785358,-0.000007,-2.356416,-0.000114,1.570625,0.785592,0.010000000000000,0.010000
2024-08-12 19:34:21.4479599,2024-08-12 19:34:21.4480550,0.000043,-0.785363,-0.000007,-2.356423,-0.000116,1.570625,0.785589,0.010000000000000,0.010000
2024-08-12 19:34:21.4600957,2024-08-12 19:34:21.4602110,0.000049,-0.785363,-0.000005,-2.356423,-0.000118,1.570624,0.785593,0.010000000000000,0.010000
2024-08-12 19:34:21.4681499,2024-08-12 19:34:21.4682364,0.000043,-0.785364,-0.000010,-2.356413,-0.000117,1.570625,0.785594,0.010000000000000,0.010000
2024-08-12 19:34:21.4802810,2024-08-12 19:34:21.4803807,0.000038,-0.785369,-0.000005,-2.356421,-0.000116,1.570624,0.785586,0.010000000000000,0.010000
2024-08-12 19:34:21.4883446,2024-08-12 19:34:21.4884605,0.000042,-0.785363,-0.000010,-2.356418,-0.000118,1.570624,0.785588,0.010000000000000,0.010000
2024-08-12 19:34:21.5005518,2024-08-12 19:34:21.5006412,0.000045,-0.785358,-0.000010,-2.356418,-0.000117,1.570627,0.785593,0.010000000000000,0.010000
2024-08-12 19:34:21.5086304,2024-08-12 19:34:21.5087242,0.000041,-0.785361,-0.000010,-2.356421,-0.000118,1.570625,0.785592,0.010000000000000,0.010000
2024-08-12 19:34:21.5186905,2024-08-12 19:34:21.5187749,0.000051,-0.785361,-0.000013,-2.356421,-0.000115,1.570624,0.785593,0.010000000000000,0.010000
2024-08-12 19:34:21.5267660,2024-08-12 19:34:21.5268556,0.000040,-0.785363,-0.000007,-2.356418,-0.000118,1.570624,0.785594,0.010000000000000,0.010000
2024-08-12 19:34:21.5389292,2024-08-12 19:34:21.5390146,0.000042,-0.785363,-0.000005,-2.356418,-0.000116,1.570627,0.785583,0.010000000000000,0.010000
2024-08-12 19:34:21.5470048,2024-08-12 19:34:21.5470972,0.000042,-0.785356,-0.000010,-2.356416,-0.000117,1.570624,0.785590,0.010000000000000,0.010000
2024-08-12 19:34:21.5592416,2024-08-12 19:34:21.5593528,0.000043,-0.785356,-0.000005,-2.356423,-0.000116,1.570625,0.785593,0.010000000000000,0.010000
2024-08-12 19:34:21.5673871,2024-08-12 19:34:21.5674741,0.000040,-0.785358,-0.000005,-2.356416,-0.000116,1.570625,0.785593,0.010000000000000,0.010000
2024-08-12 19:34:21.5795774,2024-08-12 19:34:21.5796742,0.000040,-0.785358,-0.000010,-2.356418,-0.000117,1.570624,0.785590,0.010000000000000,0.010000
2024-08-12 19:34:21.5876732,2024-08-12 19:34:21.5877627,0.000043,-0.785361,-0.000007,-2.356423,-0.000116,1.570624,0.785589,0.010000000000000,0.010000
2024-08-12 19:34:21.5998852,2024-08-12 19:34:21.5999789,0.000043,-0.785369,-0.000005,-2.356421,-0.000116,1.570624,0.785592,0.010000000000000,0.010000
2024-08-12 19:34:21.6080399,2024-08-12 19:34:21.6081798,0.000046,-0.785366,-0.000010,-2.356418,-0.000117,1.570624,0.785592,0.010000000000000,0.010000
2024-08-12 19:34:21.6202530,2024-08-12 19:34:21.6203536,0.000045,-0.785361,-0.000010,-2.356421,-0.000116,1.570624,0.785593,0.010000000000000,0.010000
2024-08-12 19:34:21.6284449,2024-08-12 19:34:21.6285458,0.000047,-0.785358,-0.000007,-2.356421,-0.000117,1.570624,0.785591,0.010000000000000,0.010000
2024-08-12 19:34:21.6406419,2024-08-12 19:34:21.6407393,0.000045,-0.785358,-0.000005,-2.356416,-0.000118,1.570623,0.785591,0.010000000000000,0.010000
2024-08-12 19:34:21.6487470,2024-08-12 19:34:21.6488478,0.000040,-0.785363,-0.000007,-2.356421,-0.000116,1.570625,0.785594,0.010000000000000,0.010000
2024-08-12 19:34:21.6588209,2024-08-12 19:34:21.6589111,0.000046,-0.785363,-0.000007,-2.356418,-0.000117,1.570625,0.785589,0.010000000000000,0.010000
2024-08-12 19:34:21.6668842,2024-08-12 19:34:21.6669635,0.000040,-0.785361,-0.000013,-2.356421,-0.000117,1.570625,0.785593,0.010000000000000,0.010000
2024-08-12 19:34:21.6790170,2024-08-12 19:34:21.6791305,0.000038,-0.785356,-0.000007,-2.356421,-0.000116,1.570624,0.785591,0.010000000000000,0.010000
2024-08-12 19:34:21.6870754,2024-08-12 19:34:21.6871674,0.000040,-0.785366,-0.000013,-2.356416,-0.000117,1.570623,0.785592,0.010000000000000,0.010000
2024-08-12 19:34:21.6992060,2024-08-12 19:34:21.6993093,0.000045,-0.785358,-0.000005,-2.356418,-0.000117,1.570625,0.785593,0.010000000000000,0.010000
2024-08-12 19:34:21.7072703,2024-08-12 19:34:21.7073705,0.000043,-0.785356,-0.000007,-2.356413,-0.000117,1.570625,0.785590,0.010000000000000,0.010000
2024-08-12 19:34:21.7193960,2024-08-12 19:34:21.7195013,0.000040,-0.785358,-0.000010,-2.356417,-0.000117,1.570624,0.785595,0.010000000000000,0.010000
2024-08-12 19:34:21.7274661,2024-08-12 19:34:21.7275690,0.000041,-0.785363,-0.000007,-2.356423,-0.000114,1.570627,0.785590,0.010000000000000,0.010000
2024-08-12 19:34:21.7395851,2024-08-12 19:34:21.7396847,0.000043,-0.785361,-0.000005,-2.356424,-0.000117,1.570624,0.785589,0.010000000000000,0.010000
2024-08-12 19:34:21.7476557,2024-08-12 19:34:21.7477568,0.000043,-0.785366,-0.000007,-2.356421,-0.000116,1.570625,0.785591,0.010000000000000,0.010000
2024-08-12 19:34:21.7597809,2024-08-12 19:34:21.7598868,0.000040,-0.785366,-0.000010,-2.356418,-0.000117,1.570625,0.785586,0.010000000000000,0.010000
2024-08-12 19:34:21.7678440,2024-08-12 19:34:21.7679519,0.000045,-0.785358,-0.000010,-2.356421,-0.000116,1.570620,0.785589,0.010000000000000,0.010000
2024-08-12 19:34:21.7799787,2024-08-12 19:34:21.7801007,0.000043,-0.785361,-0.000007,-2.356419,-0.000117,1.570625,0.785593,0.010000000000000,0.010000
2024-08-12 19:34:21.7880345,2024-08-12 19:34:21.7881330,0.000040,-0.785358,-0.000007,-2.356418,-0.000117,1.570625,0.785593,0.010000000000000,0.010000
2024-08-12 19:34:21.8001692,2024-08-12 19:34:21.8002849,0.000044,-0.785363,-0.000007,-2.356421,-0.000117,1.570624,0.785591,0.010000000000000,0.010000
2024-08-12 19:34:21.8082722,2024-08-12 19:34:21.8084005,0.000047,-0.785361,-0.000005,-2.356416,-0.000115,1.570623,0.785593,0.010000000000000,0.010000
2024-08-12 19:34:21.8203723,2024-08-12 19:34:21.8204590,0.000043,-0.785366,-0.000005,-2.356421,-0.000117,1.570625,0.785591,0.010000000000000,0.010000
2024-08-12 19:34:21.8284409,2024-08-12 19:34:21.8285351,0.000035,-0.785356,-0.000010,-2.356416,-0.000116,1.570627,0.785587,0.010000000000000,0.010000
2024-08-12 19:34:21.8405635,2024-08-12 19:34:21.8406453,0.000045,-0.785361,-0.000005,-2.356418,-0.000117,1.570624,0.785594,0.010000000000000,0.010000
2024-08-12 19:34:21.8486286,2024-08-12 19:34:21.8487019,0.000047,-0.785356,-0.000007,-2.356418,-0.000117,1.570624,0.785593,0.010000000000000,0.010000
2024-08-12 19:34:21.8587097,2024-08-12 19:34:21.8588135,0.000045,-0.785358,-0.000013,-2.356418,-0.000117,1.570623,0.785589,0.010000000000000,0.010000
2024-08-12 19:34:21.8667617,2024-08-12 19:34:21.8668464,0.000045,-0.785361,-0.000010,-2.356421,-0.000116,1.570625,0.785588,0.010000000000000,0.010000
2024-08-12 19:34:21.8788902,2024-08-12 19:34:21.8789766,0.000041,-0.785363,-0.000005,-2.356416,-0.000116,1.570624,0.785591,0.010000000000000,0.010000
2024-08-12 19:34:21.8869515,2024-08-12 19:34:21.8870305,0.000035,-0.785361,-0.000010,-2.356421,-0.000116,1.570625,0.785594,0.010000000000000,0.010000
2024-08-12 19:34:21.8990943,2024-08-12 19:34:21.8992095,0.000040,-0.785358,-0.000010,-2.356415,-0.000118,1.570627,0.785593,0.010000000000000,0.010000
2024-08-12 19:34:21.9071656,2024-08-12 19:34:21.9072900,0.000045,-0.785363,-0.000005,-2.356413,-0.000117,1.570624,0.785589,0.010000000000000,0.010000
2024-08-12 19:34:21.9192750,2024-08-12 19:34:21.9193640,0.000042,-0.785358,-0.000013,-2.356416,-0.000118,1.570623,0.785593,0.010000000000000,0.010000
2024-08-12 19:34:21.9273518,2024-08-12 19:34:21.9274572,0.000043,-0.785366,-0.000007,-2.356413,-0.000118,1.570624,0.785592,0.010000000000000,0.010000
2024-08-12 19:34:21.9394773,2024-08-12 19:34:21.9396019,0.000045,-0.785361,-0.000005,-2.356418,-0.000117,1.570623,0.785590,0.010000000000000,0.010000
2024-08-12 19:34:21.9475410,2024-08-12 19:34:21.9476445,0.000045,-0.785361,-0.000005,-2.356419,-0.000117,1.570624,0.785591,0.010000000000000,0.010000
2024-08-12 19:34:21.9596612,2024-08-12 19:34:21.9603952,0.000041,-0.785358,-0.000010,-2.356424,-0.000116,1.570623,0.785591,0.010000000000000,0.010000
2024-08-12 19:34:21.9678517,2024-08-12 19:34:21.9679485,0.000043,-0.785363,-0.000007,-2.356418,-0.000118,1.570623,0.785592,0.010000000000000,0.010000
2024-08-12 19:34:21.9799628,2024-08-12 19:34:21.9800523,0.000037,-0.785361,-0.000007,-2.356416,-0.000117,1.570624,0.785594,0.010000000000000,0.010000
2024-08-12 19:34:21.9880404,2024-08-12 19:34:21.9881417,0.000043,-0.785363,-0.000007,-2.356418,-0.000115,1.570624,0.785591,0.010000000000000,0.010000
2024-08-12 19:34:22.0001643,2024-08-12 19:34:22.0002681,0.000045,-0.785361,-0.000010,-2.356413,-0.000115,1.570625,0.785591,0.010000000000000,0.010000
2024-08-12 19:34:22.0082247,2024-08-12 19:34:22.0083084,0.000042,-0.785363,-0.000007,-2.356413,-0.000116,1.570627,0.785590,0.010000000000000,0.010000
2024-08-12 19:34:22.0203608,2024-08-12 19:34:22.0204781,0.000040,-0.785361,-0.000005,-2.356424,-0.000117,1.570627,0.785591,0.010000000000000,0.010000
2024-08-12 19:34:22.0284992,2024-08-12 19:34:22.0285858,0.000040,-0.785361,-0.000007,-2.356416,-0.000118,1.570624,0.785590,0.010000000000000,0.010000
2024-08-12 19:34:22.0386088,2024-08-12 19:34:22.0387140,0.000040,-0.785363,-0.000010,-2.356418,-0.000116,1.570623,0.785593,0.010000000000000,0.010000
2024-08-12 19:34:22.0466357,2024-08-12 19:34:22.0467256,0.000043,-0.785358,-0.000007,-2.356416,-0.000116,1.570624,0.785591,0.010000000000000,0.010000
2024-08-12 19:34:22.0588273,2024-08-12 19:34:22.0589472,0.000043,-0.785358,-0.000007,-2.356418,-0.000116,1.570623,0.785592,0.010000000000000,0.010000
2024-08-12 19:34:22.0669421,2024-08-12 19:34:22.0670264,0.000043,-0.785361,-0.000007,-2.356418,-0.000115,1.570623,0.785593,0.010000000000000,0.010000
2024-08-12 19:34:22.0791273,2024-08-12 19:34:22.0792436,0.000043,-0.785358,-0.000007,-2.356419,-0.000117,1.570624,0.785592,0.010000000000000,0.010000
2024-08-12 19:34:22.0872863,2024-08-12 19:34:22.0874055,0.000041,-0.785356,-0.000005,-2.356418,-0.000117,1.570625,0.785590,0.010000000000000,0.010000
2024-08-12 19:34:22.0995371,2024-08-12 19:34:22.0996546,0.000041,-0.785359,-0.000007,-2.356413,-0.000116,1.570625,0.785594,0.010000000000000,0.010000
2024-08-12 19:34:22.1077370,2024-08-12 19:34:22.1078396,0.000038,-0.785358,-0.000007,-2.356416,-0.000116,1.570624,0.785590,0.010000000000000,0.010000
2024-08-12 19:34:22.1199936,2024-08-12 19:34:22.1200906,0.000046,-0.785361,-0.000007,-2.356418,-0.000116,1.570624,0.785592,0.010000000000000,0.010000
2024-08-12 19:34:22.1280705,2024-08-12 19:34:22.1281730,0.000043,-0.785363,-0.000005,-2.356418,-0.000115,1.570625,0.785592,0.010000000000000,0.010000
2024-08-12 19:34:22.1401991,2024-08-12 19:34:22.1403124,0.000043,-0.785363,-0.000010,-2.356419,-0.000118,1.570625,0.785589,0.010000000000000,0.010000
2024-08-12 19:34:22.1482641,2024-08-12 19:34:22.1483665,0.000045,-0.785358,-0.000007,-2.356416,-0.000116,1.570627,0.785593,0.010000000000000,0.010000
2024-08-12 19:34:22.1603906,2024-08-12 19:34:22.1605047,0.000047,-0.785356,-0.000007,-2.356416,-0.000118,1.570624,0.785587,0.010000000000000,0.010000
2024-08-12 19:34:22.1684433,2024-08-12 19:34:22.1685262,0.000042,-0.785361,-0.000007,-2.356421,-0.000116,1.570623,0.785588,0.010000000000000,0.010000
2024-08-12 19:34:22.1805734,2024-08-12 19:34:22.1806719,0.000048,-0.785363,-0.000007,-2.356413,-0.000117,1.570628,0.785592,0.010000000000000,0.010000
2024-08-12 19:34:22.1987930,2024-08-12 19:34:22.1989082,0.000050,-0.785361,-0.000005,-2.356418,-0.000116,1.570624,0.785594,0.010000000000000,0.010000
2024-08-12 19:34:22.2068525,2024-08-12 19:34:22.2069420,0.000045,-0.785361,-0.000007,-2.356422,-0.000116,1.570625,0.785597,0.010000000000000,0.010000
2024-08-12 19:34:22.2189763,2024-08-12 19:34:22.2190734,0.000042,-0.785356,-0.000010,-2.356423,-0.000117,1.570627,0.785590,0.010000000000000,0.010000
2024-08-12 19:34:22.2270433,2024-08-12 19:34:22.2271219,0.000038,-0.785361,-0.000010,-2.356416,-0.000116,1.570623,0.785591,0.010000000000000,0.010000
2024-08-12 19:34:22.2391622,2024-08-12 19:34:22.2392550,0.000042,-0.785361,-0.000007,-2.356424,-0.000117,1.570624,0.785590,0.010000000000000,0.010000
2024-08-12 19:34:22.2472359,2024-08-12 19:34:22.2473410,0.000043,-0.785363,-0.000007,-2.356419,-0.000118,1.570625,0.785587,0.010000000000000,0.010000
2024-08-12 19:34:22.2593527,2024-08-12 19:34:22.2594446,0.000041,-0.785366,-0.000007,-2.356423,-0.000113,1.570625,0.785593,0.010000000000000,0.010000
2024-08-12 19:34:22.2674193,2024-08-12 19:34:22.2675275,0.000040,-0.785366,-0.000013,-2.356421,-0.000118,1.570624,0.785593,0.010000000000000,0.010000
2024-08-12 19:34:22.2795445,2024-08-12 19:34:22.2796449,0.000040,-0.785358,-0.000005,-2.356418,-0.000117,1.570625,0.785590,0.010000000000000,0.010000
2024-08-12 19:34:22.2876029,2024-08-12 19:34:22.2876959,0.000040,-0.785369,-0.000009,-2.356413,-0.000118,1.570623,0.785592,0.010000000000000,0.010000
2024-08-12 19:34:22.2997305,2024-08-12 19:34:22.2998296,0.000041,-0.785353,-0.000007,-2.356419,-0.000116,1.570624,0.785595,0.010000000000000,0.010000
2024-08-12 19:34:22.3077927,2024-08-12 19:34:22.3078810,0.000045,-0.785361,-0.000010,-2.356419,-0.000116,1.570624,0.785593,0.010000000000000,0.010000
2024-08-12 19:34:22.3199153,2024-08-12 19:34:22.3200179,0.000041,-0.785363,-0.000005,-2.356418,-0.000117,1.570624,0.785589,0.010000000000000,0.010000
2024-08-12 19:34:22.3279828,2024-08-12 19:34:22.3280771,0.000045,-0.785358,-0.000005,-2.356416,-0.000117,1.570624,0.785589,0.010000000000000,0.010000
2024-08-12 19:34:22.3400972,2024-08-12 19:34:22.3401829,0.000042,-0.785361,-0.000007,-2.356421,-0.000116,1.570624,0.785594,0.010000000000000,0.010000
2024-08-12 19:34:22.3481809,2024-08-12 19:34:22.3483012,0.000037,-0.785356,-0.000012,-2.356421,-0.000117,1.570625,0.785592,0.010000000000000,0.010000
2024-08-12 19:34:22.3603046,2024-08-12 19:34:22.3604078,0.000045,-0.785361,-0.000010,-2.356421,-0.000118,1.570625,0.785589,0.010000000000000,0.010000
2024-08-12 19:34:22.3683630,2024-08-12 19:34:22.3684707,0.000041,-0.785361,-0.000007,-2.356422,-0.000116,1.570622,0.785589,0.010000000000000,0.010000
2024-08-12 19:34:22.3805533,2024-08-12 19:34:22.3806476,0.000046,-0.785361,-0.000010,-2.356418,-0.000116,1.570624,0.785592,0.010000000000000,0.010000
2024-08-12 19:34:22.3886542,2024-08-12 19:34:22.3887315,0.000041,-0.785363,-0.000005,-2.356418,-0.000117,1.570623,0.785592,0.010000000000000,0.010000
2024-08-12 19:34:22.3987312,2024-08-12 19:34:22.3988221,0.000043,-0.785358,-0.000005,-2.356421,-0.000117,1.570627,0.785592,0.010000000000000,0.010000
2024-08-12 19:34:22.4067966,2024-08-12 19:34:22.4068854,0.000040,-0.785361,-0.000007,-2.356418,-0.000117,1.570624,0.785592,0.010000000000000,0.010000
2024-08-12 19:34:22.4189724,2024-08-12 19:34:22.4190676,0.000043,-0.785356,-0.000005,-2.356424,-0.000116,1.570625,0.785594,0.010000000000000,0.010000
2024-08-12 19:34:22.4270579,2024-08-12 19:34:22.4271641,0.000040,-0.785363,-0.000007,-2.356416,-0.000118,1.570625,0.785591,0.010000000000000,0.010000
2024-08-12 19:34:22.4393029,2024-08-12 19:34:22.4393918,0.000042,-0.785358,-0.000010,-2.356423,-0.000115,1.570624,0.785588,0.010000000000000,0.010000
2024-08-12 19:34:22.4474139,2024-08-12 19:34:22.4475223,0.000045,-0.785363,-0.000007,-2.356421,-0.000118,1.570623,0.785592,0.010000000000000,0.010000
2024-08-12 19:34:22.4596864,2024-08-12 19:34:22.4597999,0.000044,-0.785353,-0.000005,-2.356421,-0.000118,1.570624,0.785594,0.010000000000000,0.010000
2024-08-12 19:34:22.4677919,2024-08-12 19:34:22.4678777,0.000045,-0.785361,-0.000005,-2.356418,-0.000117,1.570624,0.785593,0.010000000000000,0.010000
2024-08-12 19:34:22.4799863,2024-08-12 19:34:22.4800759,0.000042,-0.785358,-0.000005,-2.356416,-0.000117,1.570624,0.785590,0.010000000000000,0.010000
2024-08-12 19:34:22.4880814,2024-08-12 19:34:22.4881653,0.000042,-0.785363,-0.000010,-2.356421,-0.000117,1.570627,0.785589,0.010000000000000,0.010000
2024-08-12 19:34:22.5002773,2024-08-12 19:34:22.5003749,0.000038,-0.785366,-0.000007,-2.356424,-0.000117,1.570624,0.785593,0.010000000000000,0.010000
2024-08-12 19:34:22.5083577,2024-08-12 19:34:22.5084694,0.000042,-0.785361,-0.000010,-2.356416,-0.000117,1.570627,0.785592,0.010000000000000,0.010000
2024-08-12 19:34:22.5204771,2024-08-12 19:34:22.5205848,0.000043,-0.785356,-0.000010,-2.356416,-0.000115,1.570625,0.785587,0.010000000000000,0.010000
2024-08-12 19:34:22.5285461,2024-08-12 19:34:22.5286538,0.000044,-0.785361,-0.000007,-2.356419,-0.000117,1.570625,0.785592,0.010000000000000,0.010000
2024-08-12 19:34:22.5385877,2024-08-12 19:34:22.5386814,0.000040,-0.785361,-0.000005,-2.356419,-0.000116,1.570624,0.785594,0.010000000000000,0.010000
2024-08-12 19:34:22.5466578,2024-08-12 19:34:22.5467719,0.000043,-0.785363,-0.000005,-2.356416,-0.000117,1.570625,0.785594,0.010000000000000,0.010000
2024-08-12 19:34:22.5587801,2024-08-12 19:34:22.5588810,0.000038,-0.785361,-0.000007,-2.356421,-0.000116,1.570625,0.785590,0.010000000000000,0.010000
2024-08-12 19:34:22.5668415,2024-08-12 19:34:22.5669385,0.000043,-0.785358,-0.000007,-2.356416,-0.000117,1.570622,0.785590,0.010000000000000,0.010000
2024-08-12 19:34:22.5790061,2024-08-12 19:34:22.5791038,0.000048,-0.785361,-0.000005,-2.356424,-0.000117,1.570623,0.785588,0.010000000000000,0.010000
2024-08-12 19:34:22.5870670,2024-08-12 19:34:22.5871536,0.000043,-0.785361,-0.000010,-2.356418,-0.000116,1.570624,0.785589,0.010000000000000,0.010000
2024-08-12 19:34:22.5992795,2024-08-12 19:34:22.5993791,0.000041,-0.785361,-0.000010,-2.356421,-0.000117,1.570624,0.785592,0.010000000000000,0.010000
2024-08-12 19:34:22.6073765,2024-08-12 19:34:22.6074635,0.000040,-0.785366,-0.000005,-2.356416,-0.000118,1.570623,0.785592,0.010000000000000,0.010000
2024-08-12 19:34:22.6195824,2024-08-12 19:34:22.6196837,0.000043,-0.785359,-0.000007,-2.356416,-0.000116,1.570624,0.785592,0.010000000000000,0.010000
2024-08-12 19:34:22.6277000,2024-08-12 19:34:22.6278085,0.000045,-0.785363,-0.000007,-2.356416,-0.000116,1.570624,0.785593,0.010000000000000,0.010000
2024-08-12 19:34:22.6401372,2024-08-12 19:34:22.6402476,0.000040,-0.785361,-0.000007,-2.356424,-0.000116,1.570625,0.785589,0.010000000000000,0.010000
2024-08-12 19:34:22.6482390,2024-08-12 19:34:22.6483329,0.000041,-0.785361,-0.000005,-2.356419,-0.000118,1.570624,0.785590,0.010000000000000,0.010000
2024-08-12 19:34:22.6603946,2024-08-12 19:34:22.6604940,0.000046,-0.785361,-0.000005,-2.356416,-0.000118,1.570627,0.785591,0.010000000000000,0.010000
2024-08-12 19:34:22.6684926,2024-08-12 19:34:22.6685833,0.000048,-0.785366,-0.000010,-2.356416,-0.000116,1.570625,0.785594,0.010000000000000,0.010000
2024-08-12 19:34:22.6786055,2024-08-12 19:34:22.6787038,0.000045,-0.785361,-0.000007,-2.356419,-0.000117,1.570624,0.785592,0.010000000000000,0.010000
2024-08-12 19:34:22.6867050,2024-08-12 19:34:22.6867942,0.000043,-0.785363,-0.000010,-2.356418,-0.000116,1.570624,0.785593,0.010000000000000,0.010000
2024-08-12 19:34:22.6988712,2024-08-12 19:34:22.6989764,0.000041,-0.785369,-0.000007,-2.356421,-0.000116,1.570625,0.785589,0.010000000000000,0.010000
2024-08-12 19:34:22.7070048,2024-08-12 19:34:22.7070953,0.000043,-0.785363,-0.000007,-2.356418,-0.000117,1.570624,0.785586,0.010000000000000,0.010000
2024-08-12 19:34:22.7192078,2024-08-12 19:34:22.7192996,0.000040,-0.785361,-0.000007,-2.356422,-0.000115,1.570624,0.785590,0.010000000000000,0.010000
2024-08-12 19:34:22.7273329,2024-08-12 19:34:22.7274584,0.000042,-0.785366,-0.000005,-2.356416,-0.000118,1.570625,0.785594,0.010000000000000,0.010000
2024-08-12 19:34:22.7395528,2024-08-12 19:34:22.7396368,0.000045,-0.785363,-0.000007,-2.356418,-0.000117,1.570624,0.785591,0.010000000000000,0.010000
2024-08-12 19:34:22.7476694,2024-08-12 19:34:22.7477665,0.000045,-0.785361,-0.000007,-2.356416,-0.000115,1.570624,0.785596,0.010000000000000,0.010000
2024-08-12 19:34:22.7598388,2024-08-12 19:34:22.7599357,0.000043,-0.785358,-0.000010,-2.356416,-0.000115,1.570624,0.785589,0.010000000000000,0.010000
2024-08-12 19:34:22.7679303,2024-08-12 19:34:22.7680181,0.000042,-0.785356,-0.000007,-2.356416,-0.000117,1.570624,0.785587,0.010000000000000,0.010000
2024-08-12 19:34:22.7801318,2024-08-12 19:34:22.7802199,0.000040,-0.785361,-0.000010,-2.356418,-0.000116,1.570624,0.785592,0.010000000000000,0.010000
2024-08-12 19:34:22.7882356,2024-08-12 19:34:22.7883254,0.000043,-0.785363,-0.000007,-2.356416,-0.000116,1.570624,0.785585,0.010000000000000,0.010000
2024-08-12 19:34:22.8004308,2024-08-12 19:34:22.8005405,0.000048,-0.785358,-0.000007,-2.356418,-0.000115,1.570625,0.785593,0.010000000000000,0.010000
2024-08-12 19:34:22.8084994,2024-08-12 19:34:22.8086070,0.000043,-0.785361,-0.000007,-2.356421,-0.000118,1.570627,0.785593,0.010000000000000,0.010000
2024-08-12 19:34:22.8186038,2024-08-12 19:34:22.8187051,0.000038,-0.785358,-0.000010,-2.356419,-0.000117,1.570625,0.785592,0.010000000000000,0.010000
2024-08-12 19:34:22.8266248,2024-08-12 19:34:22.8267287,0.000043,-0.785361,-0.000005,-2.356423,-0.000115,1.570624,0.785592,0.010000000000000,0.010000
2024-08-12 19:34:22.8388002,2024-08-12 19:34:22.8389133,0.000048,-0.785358,-0.000005,-2.356421,-0.000116,1.570624,0.785592,0.010000000000000,0.010000
2024-08-12 19:34:22.8468921,2024-08-12 19:34:22.8470229,0.000043,-0.785356,-0.000007,-2.356418,-0.000116,1.570624,0.785596,0.010000000000000,0.010000
2024-08-12 19:34:22.8590917,2024-08-12 19:34:22.8592127,0.000040,-0.785361,-0.000007,-2.356418,-0.000116,1.570625,0.785592,0.010000000000000,0.010000
2024-08-12 19:34:22.8672406,2024-08-12 19:34:22.8673499,0.000045,-0.785356,-0.000007,-2.356421,-0.000118,1.570627,0.785588,0.010000000000000,0.010000
2024-08-12 19:34:22.8794628,2024-08-12 19:34:22.8795750,0.000038,-0.785358,-0.000007,-2.356424,-0.000116,1.570625,0.785589,0.010000000000000,0.010000
2024-08-12 19:34:22.8875584,2024-08-12 19:34:22.8876645,0.000042,-0.785361,-0.000007,-2.356415,-0.000117,1.570625,0.785589,0.010000000000000,0.010000
2024-08-12 19:34:22.8997798,2024-08-12 19:34:22.8999111,0.000051,-0.785362,-0.000005,-2.356421,-0.000116,1.570624,0.785591,0.010000000000000,0.010000
2024-08-12 19:34:22.9079503,2024-08-12 19:34:22.9080777,0.000040,-0.785361,-0.000007,-2.356422,-0.000116,1.570624,0.785589,0.010000000000000,0.010000
2024-08-12 19:34:22.9201270,2024-08-12 19:34:22.9202434,0.000040,-0.785366,-0.000007,-2.356421,-0.000116,1.570624,0.785594,0.010000000000000,0.010000
2024-08-12 19:34:22.9281973,2024-08-12 19:34:22.9282952,0.000043,-0.785366,-0.000005,-2.356416,-0.000116,1.570625,0.785594,0.010000000000000,0.010000
2024-08-12 19:34:22.9403134,2024-08-12 19:34:22.9404076,0.000042,-0.785361,-0.000007,-2.356413,-0.000118,1.570624,0.785589,0.010000000000000,0.010000
2024-08-12 19:34:22.9483889,2024-08-12 19:34:22.9484909,0.000040,-0.785361,-0.000007,-2.356421,-0.000117,1.570623,0.785589,0.010000000000000,0.010000
2024-08-12 19:34:22.9605171,2024-08-12 19:34:22.9606267,0.000040,-0.785361,-0.000007,-2.356421,-0.000117,1.570624,0.785592,0.010000000000000,0.010000
2024-08-12 19:34:22.9685774,2024-08-12 19:34:22.9686814,0.000040,-0.785358,-0.000007,-2.356424,-0.000116,1.570624,0.785594,0.010000000000000,0.010000
2024-08-12 19:34:22.9787768,2024-08-12 19:34:22.9788824,0.000040,-0.785361,-0.000007,-2.356421,-0.000118,1.570627,0.785593,0.010000000000000,0.010000
2024-08-12 19:34:22.9990428,2024-08-12 19:34:22.9991528,0.000042,-0.785358,-0.000007,-2.356422,-0.000117,1.570628,0.785588,0.010000000000000,0.010000
2024-08-12 19:34:23.0070976,2024-08-12 19:34:23.0071824,0.000041,-0.785366,-0.000005,-2.356421,-0.000116,1.570624,0.785588,0.010000000000000,0.010000
2024-08-12 19:34:23.0192264,2024-08-12 19:34:23.0193226,0.000040,-0.785358,-0.000007,-2.356421,-0.000116,1.570624,0.785591,0.010000000000000,0.010000
2024-08-12 19:34:23.0273091,2024-08-12 19:34:23.0274215,0.000045,-0.785353,-0.000007,-2.356421,-0.000117,1.570625,0.785589,0.010000000000000,0.010000
2024-08-12 19:34:23.0394148,2024-08-12 19:34:23.0395014,0.000043,-0.785361,-0.000007,-2.356421,-0.000116,1.570624,0.785593,0.010000000000000,0.010000
2024-08-12 19:34:23.0475019,2024-08-12 19:34:23.0476156,0.000043,-0.785356,-0.000007,-2.356418,-0.000116,1.570624,0.785592,0.010000000000000,0.010000
2024-08-12 19:34:23.0596234,2024-08-12 19:34:23.0597321,0.000040,-0.785363,-0.000007,-2.356418,-0.000116,1.570627,0.785592,0.010000000000000,0.010000
2024-08-12 19:34:23.0676775,2024-08-12 19:34:23.0677629,0.000043,-0.785366,-0.000007,-2.356421,-0.000117,1.570627,0.785592,0.010000000000000,0.010000
2024-08-12 19:34:23.0798174,2024-08-12 19:34:23.0799345,0.000043,-0.785358,-0.000005,-2.356421,-0.000117,1.570624,0.785591,0.010000000000000,0.010000
2024-08-12 19:34:23.0878692,2024-08-12 19:34:23.0879617,0.000040,-0.785361,-0.000007,-2.356419,-0.000117,1.570624,0.785590,0.010000000000000,0.010000
2024-08-12 19:34:23.1000059,2024-08-12 19:34:23.1001200,0.000040,-0.785361,-0.000007,-2.356419,-0.000118,1.570628,0.785592,0.010000000000000,0.010000
2024-08-12 19:34:23.1082485,2024-08-12 19:34:23.1083387,0.000043,-0.785366,-0.000010,-2.356416,-0.000117,1.570623,0.785592,0.010000000000000,0.010000
2024-08-12 19:34:23.1203837,2024-08-12 19:34:23.1204978,0.000045,-0.785366,-0.000002,-2.356419,-0.000116,1.570625,0.785593,0.010000000000000,0.010000
2024-08-12 19:34:23.1284555,2024-08-12 19:34:23.1285656,0.000043,-0.785358,-0.000007,-2.356416,-0.000118,1.570623,0.785591,0.010000000000000,0.010000
2024-08-12 19:34:23.1405634,2024-08-12 19:34:23.1406466,0.000041,-0.785363,-0.000007,-2.356418,-0.000116,1.570625,0.785589,0.010000000000000,0.010000
2024-08-12 19:34:23.1486451,2024-08-12 19:34:23.1487511,0.000045,-0.785369,-0.000005,-2.356413,-0.000118,1.570624,0.785588,0.010000000000000,0.010000
2024-08-12 19:34:23.1587127,2024-08-12 19:34:23.1588137,0.000040,-0.785356,-0.000005,-2.356418,-0.000117,1.570624,0.785593,0.010000000000000,0.010000
2024-08-12 19:34:23.1667786,2024-08-12 19:34:23.1669038,0.000045,-0.785358,-0.000007,-2.356421,-0.000118,1.570627,0.785594,0.010000000000000,0.010000
2024-08-12 19:34:23.1789053,2024-08-12 19:34:23.1790245,0.000040,-0.785353,-0.000005,-2.356416,-0.000118,1.570624,0.785592,0.010000000000000,0.010000
2024-08-12 19:34:23.1869658,2024-08-12 19:34:23.1870795,0.000045,-0.785358,-0.000005,-2.356413,-0.000117,1.570624,0.785592,0.010000000000000,0.010000
2024-08-12 19:34:23.1990949,2024-08-12 19:34:23.1992195,0.000040,-0.785359,-0.000010,-2.356418,-0.000116,1.570624,0.785589,0.010000000000000,0.010000
2024-08-12 19:34:23.2071511,2024-08-12 19:34:23.2072549,0.000040,-0.785363,-0.000005,-2.356421,-0.000117,1.570623,0.785592,0.010000000000000,0.010000
2024-08-12 19:34:23.2193558,2024-08-12 19:34:23.2194648,0.000043,-0.785361,-0.000010,-2.356423,-0.000114,1.570625,0.785594,0.010000000000000,0.010000
2024-08-12 19:34:23.2274284,2024-08-12 19:34:23.2275482,0.000040,-0.785362,-0.000005,-2.356419,-0.000118,1.570627,0.785593,0.010000000000000,0.010000
2024-08-12 19:34:23.2395475,2024-08-12 19:34:23.2396630,0.000038,-0.785358,-0.000007,-2.356421,-0.000117,1.570625,0.785592,0.010000000000000,0.010000
2024-08-12 19:34:23.2476204,2024-08-12 19:34:23.2477445,0.000045,-0.785363,-0.000007,-2.356416,-0.000115,1.570625,0.785589,0.010000000000000,0.010000
2024-08-12 19:34:23.2597640,2024-08-12 19:34:23.2598830,0.000037,-0.785366,-0.000005,-2.356421,-0.000118,1.570624,0.785591,0.010000000000000,0.010000
2024-08-12 19:34:23.2678227,2024-08-12 19:34:23.2679433,0.000040,-0.785359,-0.000005,-2.356421,-0.000117,1.570625,0.785594,0.010000000000000,0.010000
2024-08-12 19:34:23.2799492,2024-08-12 19:34:23.2800701,0.000038,-0.785356,-0.000010,-2.356416,-0.000117,1.570624,0.785594,0.010000000000000,0.010000
2024-08-12 19:34:23.2880065,2024-08-12 19:34:23.2881136,0.000043,-0.785363,-0.000010,-2.356421,-0.000117,1.570625,0.785596,0.010000000000000,0.010000
2024-08-12 19:34:23.3001360,2024-08-12 19:34:23.3002602,0.000047,-0.785358,-0.000005,-2.356424,-0.000118,1.570625,0.785590,0.010000000000000,0.010000
2024-08-12 19:34:23.3082483,2024-08-12 19:34:23.3083527,0.000046,-0.785363,-0.000007,-2.356419,-0.000118,1.570623,0.785588,0.010000000000000,0.010000
2024-08-12 19:34:23.3203786,2024-08-12 19:34:23.3205040,0.000043,-0.785358,-0.000005,-2.356424,-0.000117,1.570625,0.785591,0.010000000000000,0.010000
