ziyutum/ubuntu/robotControlProgram/build/robot_data.csv
timestamp, q1, q2, q3, q4, q5, q6, q7, Extra1, Extra2
2024-08-01 15:33:12.623379, 0.000134725, -0.785266, 5.80616e-05, -2.35582, 0.000350455, 1.57129, 0.785806, 0.01, 0.01
2024-08-01 15:33:12.624271, 0.000134731, -0.785259, 5.80616e-05, -2.35583, 0.000350455, 1.57129, 0.785807, 0.01, 0.01
2024-08-01 15:33:12.625221, 0.000131948, -0.785261, 5.59311e-05, -2.35583, 0.000350455, 1.5713, 0.785806, 0.01, 0.01
2024-08-01 15:33:12.626265, 0.000131949, -0.785259, 5.73514e-05, -2.35583, 0.000350455, 1.5713, 0.78581, 0.01, 0.01
2024-08-01 15:33:12.627309, 0.000134733, -0.785259, 5.78249e-05, -2.35583, 0.000347259, 1.57129, 0.785811, 0.01, 0.01
2024-08-01 15:33:12.628297, 0.000134734, -0.785261, 6.04883e-05, -2.35582, 0.000350305, 1.57129, 0.78581, 0.01, 0.01
2024-08-01 15:33:12.629289, 0.000132603, -0.785256, 6.01658e-05, -2.35583, 0.0003501, 1.5713, 0.78581, 0.01, 0.01
2024-08-01 15:33:12.630277, 0.000131239, -0.785264, 5.8763e-05, -2.35583, 0.000352269, 1.5713, 0.785807, 0.01, 0.01
2024-08-01 15:33:12.631289, 0.000134497, -0.785259, 5.82954e-05, -2.35583, 0.000350415, 1.57129, 0.785806, 0.01, 0.01
2024-08-01 15:33:12.632290, 0.000132524, -0.785259, 5.81395e-05, -2.35583, 0.000349178, 1.57129, 0.785807, 0.01, 0.01
2024-08-01 15:33:12.633262, 0.000131213, -0.785259, 5.80876e-05, -2.35582, 0.000346189, 1.57129, 0.785807, 0.01, 0.01
2024-08-01 15:33:12.634257, 0.000129573, -0.785259, 6.05759e-05, -2.35582, 0.000350966, 1.57129, 0.78581, 0.01, 0.01
2024-08-01 15:33:12.635271, 0.000133942, -0.785264, 5.52804e-05, -2.35583, 0.000350896, 1.57129, 0.785812, 0.01, 0.01
2024-08-01 15:33:12.636262, 0.000131685, -0.785259, 5.52785e-05, -2.35583, 0.000351212, 1.57129, 0.78581, 0.01, 0.01
2024-08-01 15:33:12.637255, 0.000131861, -0.785264, 5.80619e-05, -2.35583, 0.000348367, 1.57129, 0.78581, 0.01, 0.01
2024-08-01 15:33:12.638255, 0.00012979, -0.785264, 5.80617e-05, -2.35583, 0.00035237, 1.57129, 0.785806, 0.01, 0.01
2024-08-01 15:33:12.639346, 0.000129099, -0.785259, 5.80616e-05, -2.35582, 0.000350449, 1.5713, 0.785807, 0.01, 0.01
2024-08-01 15:33:12.640288, 0.000134158, -0.785261, 5.80616e-05, -2.35583, 0.000350453, 1.57129, 0.785808, 0.01, 0.01
2024-08-01 15:33:12.641280, 0.000133707, -0.785256, 6.26978e-05, -2.35583, 0.000349437, 1.5713, 0.78581, 0.01, 0.01
2024-08-01 15:33:12.642214, 0.000134391, -0.785259, 5.81182e-05, -2.35583, 0.00035137, 1.5713, 0.785812, 0.01, 0.01
2024-08-01 15:33:12.643238, 0.000132489, -0.785266, 5.90085e-05, -2.35583, 0.000349437, 1.5713, 0.78581, 0.01, 0.01
2024-08-01 15:33:12.644234, 0.000131201, -0.785264, 5.30875e-05, -2.35582, 0.000352387, 1.57129, 0.785806, 0.01, 0.01
2024-08-01 15:33:12.645289, 0.0001317, -0.785259, 6.06725e-05, -2.35583, 0.000352387, 1.57129, 0.78581, 0.01, 0.01
2024-08-01 15:33:12.646265, 0.000129361, -0.785256, 5.53126e-05, -2.35583, 0.000350455, 1.57129, 0.785806, 0.01, 0.01
2024-08-01 15:33:12.647213, 0.000132575, -0.785256, 5.80733e-05, -2.35583, 0.00035137, 1.5713, 0.785809, 0.01, 0.01
2024-08-01 15:33:12.648242, 0.000134014, -0.785259, 5.27758e-05, -2.35583, 0.000352387, 1.57129, 0.785812, 0.01, 0.01
2024-08-01 15:33:12.649249, 0.00013171, -0.785259, 6.05685e-05, -2.35582, 0.000350455, 1.5713, 0.785811, 0.01, 0.01
2024-08-01 15:33:12.650236, 0.000134654, -0.785261, 5.5278e-05, -2.35582, 0.00035137, 1.57129, 0.785812, 0.01, 0.01
2024-08-01 15:33:12.651312, 0.000129792, -0.785261, 5.52777e-05, -2.35583, 0.000349437, 1.5713, 0.785808, 0.01, 0.01
2024-08-01 15:33:12.652235, 0.000131884, -0.785257, 5.74081e-05, -2.35583, 0.000350455, 1.57129, 0.785808, 0.01, 0.01
2024-08-01 15:33:12.653232, 0.000136289, -0.785267, 5.87718e-05, -2.35583, 0.00035137, 1.57129, 0.785809, 0.01, 0.01
2024-08-01 15:33:12.654222, 0.000134417, -0.785256, 5.55143e-05, -2.35583, 0.000350455, 1.57129, 0.785807, 0.01, 0.01
2024-08-01 15:33:12.655218, 0.000131844, -0.785256, 5.81405e-05, -2.35583, 0.00035137, 1.57129, 0.78581, 0.01, 0.01
2024-08-01 15:33:12.656269, 0.000135073, -0.785256, 6.05936e-05, -2.35583, 0.00035137, 1.57129, 0.785811, 0.01, 0.01
2024-08-01 15:33:12.657268, 0.000134012, -0.785261, 6.0576e-05, -2.35583, 0.000350455, 1.5713, 0.785811, 0.01, 0.01
2024-08-01 15:33:12.658233, 0.000129578, -0.785264, 5.80645e-05, -2.35583, 0.000350455, 1.57129, 0.785809, 0.01, 0.01
2024-08-01 15:33:12.659219, 0.000133943, -0.785261, 5.27729e-05, -2.35583, 0.000349437, 1.5713, 0.785809, 0.01, 0.01
2024-08-01 15:33:12.660224, 0.000131686, -0.785256, 5.52779e-05, -2.35583, 0.000346242, 1.5713, 0.785808, 0.01, 0.01
2024-08-01 15:33:12.661282, 0.000129356, -0.785256, 5.52776e-05, -2.35583, 0.000350305, 1.57129, 0.785805, 0.01, 0.01
2024-08-01 15:33:12.662208, 0.000132574, -0.785266, 5.52776e-05, -2.35583, 0.000349082, 1.57129, 0.785812, 0.01, 0.01
2024-08-01 15:33:12.663224, 0.000136519, -0.785266, 5.52775e-05, -2.35583, 0.000351252, 1.57129, 0.785811, 0.01, 0.01
2024-08-01 15:33:12.664234, 0.000131709, -0.785261, 5.27719e-05, -2.35583, 0.000351331, 1.5713, 0.785812, 0.01, 0.01
2024-08-01 15:33:12.665278, 0.000129739, -0.785258, 5.80616e-05, -2.35583, 0.000350441, 1.57129, 0.785812, 0.01, 0.01
2024-08-01 15:33:12.666238, 0.000131213, -0.785259, 5.52775e-05, -2.35583, 0.00035045, 1.57129, 0.785811, 0.01, 0.01
2024-08-01 15:33:12.667222, 0.000134488, -0.785261, 5.52775e-05, -2.35583, 0.00034624, 1.57129, 0.785809, 0.01, 0.01
2024-08-01 15:33:12.668217, 0.000135027, -0.785261, 6.05672e-05, -2.35583, 0.000348372, 1.57129, 0.785808, 0.01, 0.01
2024-08-01 15:33:12.669252, 0.000133996, -0.785259, 5.52775e-05, -2.35583, 0.000349082, 1.57129, 0.785809, 0.01, 0.01
2024-08-01 15:33:12.670418, 0.000134488, -0.785261, 6.05672e-05, -2.35583, 0.000349319, 1.57129, 0.78581, 0.01, 0.01
2024-08-01 15:33:12.671309, 0.000135027, -0.785266, 5.80616e-05, -2.35583, 0.000351331, 1.57129, 0.785814, 0.01, 0.01
2024-08-01 15:33:12.672314, 0.000129081, -0.785259, 5.74081e-05, -2.35583, 0.000349424, 1.57129, 0.785814, 0.01, 0.01
2024-08-01 15:33:12.673296, 0.000133778, -0.785261, 5.81182e-05, -2.35583, 0.00035045, 1.5713, 0.785813, 0.01, 0.01
2024-08-01 15:33:12.674284, 0.0001295, -0.785259, 5.90085e-05, -2.35583, 0.000347257, 1.57129, 0.78581, 0.01, 0.01
2024-08-01 15:33:12.675206, 0.000133917, -0.785256, 6.08829e-05, -2.35582, 0.000347354, 1.57129, 0.785807, 0.01, 0.01
2024-08-01 15:33:12.676236, 0.000134461, -0.785264, 5.28771e-05, -2.35583, 0.000351015, 1.57129, 0.785808, 0.01, 0.01
2024-08-01 15:33:12.677238, 0.000134643, -0.785256, 6.06023e-05, -2.35583, 0.000352269, 1.5713, 0.785807, 0.01, 0.01
2024-08-01 15:33:12.678264, 0.000132573, -0.785256, 5.27836e-05, -2.35583, 0.000350415, 1.57129, 0.785814, 0.01, 0.01
2024-08-01 15:33:12.679258, 0.000134013, -0.785261, 6.05711e-05, -2.35582, 0.000352374, 1.5713, 0.785814, 0.01, 0.01
2024-08-01 15:33:12.680304, 0.000129204, -0.785266, 5.52788e-05, -2.35583, 0.000351366, 1.5713, 0.785813, 0.01, 0.01
2024-08-01 15:33:12.681302, 0.000135029, -0.785264, 5.5278e-05, -2.35582, 0.000350453, 1.5713, 0.785815, 0.01, 0.01
2024-08-01 15:33:12.682220, 0.000136502, -0.785259, 5.80617e-05, -2.35582, 0.000349437, 1.5713, 0.785809, 0.01, 0.01
2024-08-01 15:33:12.683228, 0.000129573, -0.785261, 5.80616e-05, -2.35583, 0.000349437, 1.57129, 0.785811, 0.01, 0.01
2024-08-01 15:33:12.684236, 0.000126146, -0.785256, 6.01921e-05, -2.35582, 0.000349437, 1.5713, 0.785809, 0.01, 0.01
2024-08-01 15:33:12.685227, 0.000132339, -0.785259, 5.87718e-05, -2.35583, 0.00035137, 1.57129, 0.785809, 0.01, 0.01
2024-08-01 15:33:12.686235, 0.000133935, -0.785266, 6.0804e-05, -2.35583, 0.000350455, 1.57129, 0.785816, 0.01, 0.01
2024-08-01 15:33:12.687229, 0.000131683, -0.785264, 5.53564e-05, -2.35583, 0.000349437, 1.5713, 0.785815, 0.01, 0.01
2024-08-01 15:33:12.688223, 0.000134645, -0.785259, 6.05935e-05, -2.35583, 0.00035137, 1.57129, 0.785812, 0.01, 0.01
2024-08-01 15:33:12.689228, 0.00013721, -0.785261, 5.80704e-05, -2.35583, 0.000350455, 1.5713, 0.785813, 0.01, 0.01
2024-08-01 15:33:12.690228, 0.000134724, -0.785264, 5.80645e-05, -2.35583, 0.00035137, 1.57129, 0.785809, 0.01, 0.01
2024-08-01 15:33:12.691247, 0.000131946, -0.785259, 5.52785e-05, -2.35583, 0.000350455, 1.57129, 0.785809, 0.01, 0.01
2024-08-01 15:33:12.692242, 0.000131948, -0.785259, 5.52779e-05, -2.35582, 0.000350455, 1.5713, 0.785812, 0.01, 0.01
2024-08-01 15:33:12.693232, 0.000131949, -0.785266, 5.52776e-05, -2.35582, 0.00035137, 1.5713, 0.785813, 0.01, 0.01
2024-08-01 15:33:12.694217, 0.000137239, -0.785259, 5.52776e-05, -2.35582, 0.00034842, 1.57129, 0.785813, 0.01, 0.01
2024-08-01 15:33:12.695237, 0.000131949, -0.785263, 5.52775e-05, -2.35583, 0.00035137, 1.57129, 0.785815, 0.01, 0.01
2024-08-01 15:33:12.696234, 0.000126938, -0.785259, 5.52775e-05, -2.35583, 0.00035137, 1.5713, 0.785815, 0.01, 0.01
2024-08-01 15:33:12.697227, 0.000134734, -0.785261, 5.52775e-05, -2.35583, 0.000350455, 1.5713, 0.78581, 0.01, 0.01
2024-08-01 15:33:12.698218, 0.000134734, -0.785261, 5.80616e-05, -2.35582, 0.00035137, 1.5713, 0.785808, 0.01, 0.01
2024-08-01 15:33:12.699140, 0.000131949, -0.785264, 5.80616e-05, -2.35583, 0.000347259, 1.57129, 0.78581, 0.01, 0.01
2024-08-01 15:33:12.700300, 0.000134734, -0.785261, 5.80616e-05, -2.35583, 0.000350305, 1.57129, 0.78581, 0.01, 0.01
2024-08-01 15:33:12.701240, 0.000134734, -0.785259, 5.80616e-05, -2.35582, 0.000348065, 1.57129, 0.785812, 0.01, 0.01
2024-08-01 15:33:12.702207, 0.000137239, -0.785259, 5.80616e-05, -2.35583, 0.000349319, 1.57129, 0.785813, 0.01, 0.01
2024-08-01 15:33:12.703217, 0.000131949, -0.785256, 6.05672e-05, -2.35582, 0.000351331, 1.5713, 0.785813, 0.01, 0.01
2024-08-01 15:33:12.704212, 0.000137239, -0.785266, 6.05672e-05, -2.35583, 0.000349424, 1.5713, 0.785813, 0.01, 0.01
2024-08-01 15:33:12.705210, 0.000131949, -0.785259, 5.52775e-05, -2.35583, 0.00035045, 1.5713, 0.785812, 0.01, 0.01
2024-08-01 15:33:12.706212, 0.000131949, -0.785263, 6.05672e-05, -2.35583, 0.000349436, 1.57129, 0.785808, 0.01, 0.01
2024-08-01 15:33:12.707258, 0.000134734, -0.785259, 5.80616e-05, -2.35583, 0.000350454, 1.57129, 0.785807, 0.01, 0.01
2024-08-01 15:33:12.708314, 0.000131949, -0.785261, 5.80616e-05, -2.35583, 0.00035137, 1.57129, 0.785808, 0.01, 0.01
2024-08-01 15:33:12.709217, 0.000137239, -0.785259, 5.80616e-05, -2.35582, 0.00035137, 1.57129, 0.78581, 0.01, 0.01
2024-08-01 15:33:12.710244, 0.000132603, -0.785261, 6.01921e-05, -2.35583, 0.000352387, 1.57129, 0.785808, 0.01, 0.01
2024-08-01 15:33:12.711210, 0.000131893, -0.785261, 5.59877e-05, -2.35583, 0.000350455, 1.5713, 0.785812, 0.01, 0.01
2024-08-01 15:33:12.712212, 0.000133787, -0.785259, 5.86734e-05, -2.35583, 0.000350455, 1.57129, 0.785807, 0.01, 0.01
2024-08-01 15:33:12.713235, 0.000126998, -0.785259, 5.74303e-05, -2.35583, 0.000350455, 1.5713, 0.785811, 0.01, 0.01
2024-08-01 15:33:12.714262, 0.000131134, -0.785261, 6.24874e-05, -2.35583, 0.00035137, 1.5713, 0.78581, 0.01, 0.01
2024-08-01 15:33:12.715261, 0.000134462, -0.785261, 5.87016e-05, -2.35583, 0.000350455, 1.5713, 0.785809, 0.01, 0.01
2024-08-01 15:33:12.716220, 0.000131859, -0.785266, 5.82749e-05, -2.35582, 0.000349437, 1.57129, 0.785811, 0.01, 0.01
2024-08-01 15:33:12.717208, 0.000131919, -0.785261, 6.06384e-05, -2.35583, 0.000349437, 1.57129, 0.785809, 0.01, 0.01
2024-08-01 15:33:12.718214, 0.000135099, -0.785264, 6.0591e-05, -2.35582, 0.000350455, 1.5713, 0.785809, 0.01, 0.01
2024-08-01 15:33:12.719294, 0.00012873, -0.785261, 5.52854e-05, -2.35583, 0.00035137, 1.5713, 0.78581, 0.01, 0.01
2024-08-01 15:33:12.720247, 0.000134496, -0.785264, 5.80642e-05, -2.35583, 0.000350455, 1.57129, 0.785809, 0.01, 0.01
2024-08-01 15:33:12.721212, 0.00013187, -0.785256, 5.80625e-05, -2.35583, 0.000349437, 1.57129, 0.785807, 0.01, 0.01
2024-08-01 15:33:12.722193, 0.000134707, -0.785261, 6.05675e-05, -2.35583, 0.000350455, 1.5713, 0.785809, 0.01, 0.01
2024-08-01 15:33:12.723267, 0.00013723, -0.785264, 5.52776e-05, -2.35583, 0.000349437, 1.5713, 0.785806, 0.01, 0.01
2024-08-01 15:33:12.724241, 0.000135106, -0.785266, 5.80616e-05, -2.35583, 0.000349437, 1.57129, 0.785808, 0.01, 0.01
2024-08-01 15:33:12.725241, 0.000134022, -0.785257, 5.80616e-05, -2.35582, 0.00035137, 1.57129, 0.785809, 0.01, 0.01
2024-08-01 15:33:12.726180, 0.000129207, -0.785259, 5.52775e-05, -2.35583, 0.000350455, 1.5713, 0.78581, 0.01, 0.01
2024-08-01 15:33:12.727259, 0.000132524, -0.785264, 5.27719e-05, -2.35583, 0.000349437, 1.5713, 0.785808, 0.01, 0.01
2024-08-01 15:33:12.728234, 0.000131213, -0.785264, 5.27719e-05, -2.35583, 0.000350455, 1.5713, 0.78581, 0.01, 0.01
2024-08-01 15:33:12.729255, 0.000132357, -0.785259, 5.80616e-05, -2.35583, 0.000350455, 1.57129, 0.785806, 0.01, 0.01
2024-08-01 15:33:12.730237, 0.000131157, -0.785264, 5.80616e-05, -2.35583, 0.000349437, 1.5713, 0.785807, 0.01, 0.01
2024-08-01 15:33:12.731322, 0.00012918, -0.785259, 5.80616e-05, -2.35583, 0.000349437, 1.57129, 0.785807, 0.01, 0.01
2024-08-01 15:33:12.732392, 0.000131861, -0.785264, 5.52775e-05, -2.35583, 0.000352387, 1.57129, 0.785809, 0.01, 0.01
2024-08-01 15:33:12.733261, 0.000134704, -0.785264, 5.52775e-05, -2.35583, 0.000346242, 1.5713, 0.785805, 0.01, 0.01
2024-08-01 15:33:12.734248, 0.000134724, -0.785261, 5.80616e-05, -2.35583, 0.000351322, 1.5713, 0.785808, 0.01, 0.01
2024-08-01 15:33:12.735246, 0.000129441, -0.785261, 5.80616e-05, -2.35583, 0.0003501, 1.57129, 0.785809, 0.01, 0.01
2024-08-01 15:33:12.736255, 0.000129818, -0.785259, 6.30729e-05, -2.35582, 0.000350336, 1.57129, 0.785805, 0.01, 0.01
2024-08-01 15:33:12.737251, 0.000136529, -0.785264, 5.52775e-05, -2.35583, 0.000350415, 1.5713, 0.785806, 0.01, 0.01
2024-08-01 15:33:12.738245, 0.000129582, -0.785261, 5.74081e-05, -2.35583, 0.000351357, 1.5713, 0.785807, 0.01, 0.01
2024-08-01 15:33:12.739247, 0.000133944, -0.785259, 5.87718e-05, -2.35583, 0.00034817, 1.57129, 0.785809, 0.01, 0.01
2024-08-01 15:33:12.740271, 0.000131686, -0.785261, 5.55143e-05, -2.35582, 0.000349388, 1.57129, 0.78581, 0.01, 0.01
2024-08-01 15:33:12.741293, 0.000131862, -0.785264, 5.28508e-05, -2.35582, 0.000352032, 1.57129, 0.78581, 0.01, 0.01
2024-08-01 15:33:12.742265, 0.00012979, -0.785267, 5.53038e-05, -2.35583, 0.000350336, 1.57129, 0.785808, 0.01, 0.01
2024-08-01 15:33:12.743244, 0.000134014, -0.785261, 5.80704e-05, -2.35583, 0.000349398, 1.5713, 0.78581, 0.01, 0.01
2024-08-01 15:33:12.744225, 0.000132363, -0.785259, 6.05702e-05, -2.35583, 0.000350441, 1.57129, 0.78581, 0.01, 0.01
2024-08-01 15:33:12.745225, 0.000131813, -0.785259, 5.52785e-05, -2.35582, 0.00035045, 1.5713, 0.785806, 0.01, 0.01
2024-08-01 15:33:12.746225, 0.000128845, -0.785259, 5.74084e-05, -2.35583, 0.000350453, 1.57129, 0.785807, 0.01, 0.01
2024-08-01 15:33:12.747220, 0.000130915, -0.785261, 5.87719e-05, -2.35582, 0.000350454, 1.5713, 0.785807, 0.01, 0.01
2024-08-01 15:33:12.748235, 0.000131605, -0.785256, 5.82984e-05, -2.35583, 0.000349437, 1.57129, 0.785811, 0.01, 0.01
2024-08-01 15:33:12.749275, 0.000134619, -0.785259, 5.81405e-05, -2.35583, 0.00035137, 1.57129, 0.785811, 0.01, 0.01
2024-08-01 15:33:12.750248, 0.000131911, -0.785256, 5.80879e-05, -2.35583, 0.000349192, 1.5713, 0.785806, 0.01, 0.01
2024-08-01 15:33:12.751221, 0.000134721, -0.785259, 5.27806e-05, -2.35583, 0.000347109, 1.57129, 0.785805, 0.01, 0.01
2024-08-01 15:33:12.752225, 0.00012944, -0.785256, 5.27748e-05, -2.35583, 0.000346754, 1.5713, 0.785805, 0.01, 0.01
2024-08-01 15:33:12.753237, 0.000134732, -0.785259, 5.80626e-05, -2.35583, 0.000348916, 1.5713, 0.785809, 0.01, 0.01
2024-08-01 15:33:12.754266, 0.000137239, -0.785261, 5.52779e-05, -2.35583, 0.000349942, 1.5713, 0.785807, 0.01, 0.01
2024-08-01 15:33:12.755220, 0.000131949, -0.785269, 6.05674e-05, -2.35583, 0.000348003, 1.57129, 0.785809, 0.01, 0.01
2024-08-01 15:33:12.756219, 0.000134733, -0.785259, 5.80616e-05, -2.35583, 0.000350248, 1.5713, 0.785809, 0.01, 0.01
2024-08-01 15:33:12.757287, 0.000134734, -0.785264, 5.52775e-05, -2.35582, 0.000349063, 1.57129, 0.785811, 0.01, 0.01
2024-08-01 15:33:12.758236, 0.000134734, -0.785261, 5.27719e-05, -2.35582, 0.000347134, 1.57129, 0.78581, 0.01, 0.01
2024-08-01 15:33:12.759240, 0.000134734, -0.785259, 5.80616e-05, -2.35583, 0.000349348, 1.5713, 0.785809, 0.01, 0.01
2024-08-01 15:33:12.760238, 0.000137239, -0.785266, 5.80616e-05, -2.35583, 0.000353036, 1.57129, 0.785809, 0.01, 0.01
2024-08-01 15:33:12.761235, 0.000132603, -0.785264, 5.27719e-05, -2.35583, 0.000346119, 1.57129, 0.785806, 0.01, 0.01
2024-08-01 15:33:12.762210, 0.000128734, -0.785261, 5.80616e-05, -2.35583, 0.000350264, 1.5713, 0.785807, 0.01, 0.01
2024-08-01 15:33:12.763268, 0.000131713, -0.785264, 5.80616e-05, -2.35583, 0.000350086, 1.5713, 0.785809, 0.01, 0.01
2024-08-01 15:33:12.764243, 0.000132524, -0.785259, 5.80616e-05, -2.35583, 0.000349314, 1.57129, 0.785809, 0.01, 0.01
2024-08-01 15:33:12.765224, 0.000133997, -0.785264, 5.80616e-05, -2.35582, 0.000350414, 1.57129, 0.785812, 0.01, 0.01
2024-08-01 15:33:12.766227, 0.000132358, -0.785256, 5.80616e-05, -2.35583, 0.000349424, 1.5713, 0.785812, 0.01, 0.01
2024-08-01 15:33:12.767217, 0.000133942, -0.785256, 5.80616e-05, -2.35583, 0.00035045, 1.57129, 0.785811, 0.01, 0.01
2024-08-01 15:33:12.768220, 0.00013447, -0.785256, 6.05672e-05, -2.35583, 0.000352386, 1.5713, 0.785809, 0.01, 0.01
2024-08-01 15:33:12.769220, 0.000134646, -0.785264, 5.80616e-05, -2.35583, 0.00035137, 1.57129, 0.785808, 0.01, 0.01
2024-08-01 15:33:12.770222, 0.000135079, -0.785266, 5.52775e-05, -2.35583, 0.00035137, 1.57129, 0.785812, 0.01, 0.01
2024-08-01 15:33:12.771215, 0.000134014, -0.785253, 5.52775e-05, -2.35583, 0.000350455, 1.5713, 0.785812, 0.01, 0.01
2024-08-01 15:33:12.772222, 0.000131709, -0.785261, 5.52775e-05, -2.35583, 0.000352387, 1.5713, 0.785809, 0.01, 0.01
2024-08-01 15:33:12.773217, 0.000137159, -0.785256, 5.80616e-05, -2.35583, 0.000347259, 1.57129, 0.785811, 0.01, 0.01
2024-08-01 15:33:12.774229, 0.000131923, -0.785256, 5.80616e-05, -2.35583, 0.000348372, 1.5713, 0.785814, 0.01, 0.01
2024-08-01 15:33:12.775214, 0.00012981, -0.785261, 6.01921e-05, -2.35582, 0.000349082, 1.5713, 0.785812, 0.01, 0.01
2024-08-01 15:33:12.776214, 0.000128731, -0.785259, 5.59877e-05, -2.35583, 0.000351252, 1.57129, 0.78581, 0.01, 0.01
2024-08-01 15:33:12.777213, 0.000134496, -0.785259, 5.55143e-05, -2.35583, 0.000348135, 1.5713, 0.785808, 0.01, 0.01
2024-08-01 15:33:12.778216, 0.00013187, -0.785261, 6.06462e-05, -2.35582, 0.000348359, 1.5713, 0.785812, 0.01, 0.01
2024-08-01 15:33:12.779217, 0.000131923, -0.785259, 5.80879e-05, -2.35582, 0.000350095, 1.57129, 0.785813, 0.01, 0.01
2024-08-01 15:33:12.780224, 0.000132594, -0.785264, 6.0576e-05, -2.35582, 0.000352268, 1.5713, 0.785814, 0.01, 0.01
2024-08-01 15:33:12.781224, 0.00013402, -0.785261, 5.52805e-05, -2.35583, 0.00035133, 1.57129, 0.785814, 0.01, 0.01
2024-08-01 15:33:12.782194, 0.000129206, -0.785261, 5.52785e-05, -2.35583, 0.000350441, 1.5713, 0.785815, 0.01, 0.01
2024-08-01 15:33:12.783210, 0.000132524, -0.785261, 5.49027e-05, -2.35583, 0.00035045, 1.57129, 0.785813, 0.01, 0.01
2024-08-01 15:33:12.784209, 0.000131866, -0.785261, 5.87719e-05, -2.35583, 0.000350453, 1.5713, 0.785811, 0.01, 0.01
2024-08-01 15:33:12.785215, 0.000133778, -0.785261, 5.82984e-05, -2.35583, 0.000350454, 1.5713, 0.785809, 0.01, 0.01
2024-08-01 15:33:12.786213, 0.000131631, -0.785261, 5.53565e-05, -2.35583, 0.000352387, 1.57129, 0.785808, 0.01, 0.01
2024-08-01 15:33:12.787210, 0.000132497, -0.785259, 5.53038e-05, -2.35583, 0.000350455, 1.5713, 0.785814, 0.01, 0.01
2024-08-01 15:33:12.788208, 0.000131857, -0.785264, 5.52863e-05, -2.35583, 0.000347259, 1.57129, 0.785813, 0.01, 0.01
2024-08-01 15:33:12.789206, 0.00012886, -0.785259, 6.05702e-05, -2.35582, 0.000348372, 1.57129, 0.785813, 0.01, 0.01
2024-08-01 15:33:12.790210, 0.000128789, -0.785259, 5.80626e-05, -2.35583, 0.000348837, 1.5713, 0.78581, 0.01, 0.01
2024-08-01 15:33:12.791207, 0.00013897, -0.785259, 5.80619e-05, -2.35582, 0.000349271, 1.57129, 0.785809, 0.01, 0.01
2024-08-01 15:33:12.792209, 0.000131598, -0.785261, 5.52776e-05, -2.35583, 0.000354171, 1.57129, 0.785812, 0.01, 0.01
2024-08-01 15:33:12.793208, 0.000134616, -0.785259, 5.52776e-05, -2.35582, 0.000351388, 1.57129, 0.785805, 0.01, 0.01
2024-08-01 15:33:12.794210, 0.00013191, -0.785259, 5.80616e-05, -2.35582, 0.000348731, 1.57129, 0.785811, 0.01, 0.01
2024-08-01 15:33:12.795212, 0.000134721, -0.785259, 5.80616e-05, -2.35583, 0.000351474, 1.57129, 0.785811, 0.01, 0.01
2024-08-01 15:33:12.797474, 0.000131945, -0.785256, 6.05672e-05, -2.35583, 0.000350489, 1.5713, 0.785815, 0.01, 0.01
2024-08-01 15:33:12.797499, 0.000134732, -0.785261, 5.80616e-05, -2.35583, 0.000350466, 1.57129, 0.785813, 0.01, 0.01
2024-08-01 15:33:12.800278, 0.000131949, -0.785259, 5.74081e-05, -2.35583, 0.000350458, 1.5713, 0.785809, 0.01, 0.01
2024-08-01 15:33:12.800323, 0.000129444, -0.785259, 6.0804e-05, -2.35583, 0.000348373, 1.57129, 0.785804, 0.01, 0.01
2024-08-01 15:33:12.801240, 0.000131949, -0.785261, 6.06462e-05, -2.35582, 0.00035305, 1.57129, 0.785809, 0.01, 0.01
2024-08-01 15:33:12.802225, 0.000132603, -0.785266, 6.05935e-05, -2.35583, 0.000349319, 1.57129, 0.785811, 0.01, 0.01
2024-08-01 15:33:12.803253, 0.000131239, -0.785261, 6.0576e-05, -2.35583, 0.000350415, 1.57129, 0.785814, 0.01, 0.01
2024-08-01 15:33:12.804264, 0.000127077, -0.785259, 5.52805e-05, -2.35583, 0.000349424, 1.5713, 0.785813, 0.01, 0.01
2024-08-01 15:33:12.805253, 0.000131814, -0.785259, 5.52785e-05, -2.35582, 0.00035045, 1.5713, 0.785813, 0.01, 0.01
2024-08-01 15:33:12.806253, 0.000130976, -0.785261, 5.52779e-05, -2.35583, 0.000349436, 1.5713, 0.785807, 0.01, 0.01
2024-08-01 15:33:12.807257, 0.000136915, -0.785263, 5.80617e-05, -2.35583, 0.00035137, 1.57129, 0.785806, 0.01, 0.01
2024-08-01 15:33:12.809488, 0.000134625, -0.785259, 5.52776e-05, -2.35583, 0.00034842, 1.5713, 0.78581, 0.01, 0.01
2024-08-01 15:33:12.809531, 0.000131913, -0.785264, 5.52775e-05, -2.35582, 0.00034842, 1.57129, 0.785809, 0.01, 0.01
2024-08-01 15:33:12.810249, 0.000137227, -0.785256, 5.52775e-05, -2.35582, 0.00035137, 1.57129, 0.785812, 0.01, 0.01
2024-08-01 15:33:12.811248, 0.000131945, -0.785264, 5.80616e-05, -2.35582, 0.000350455, 1.5713, 0.785813, 0.01, 0.01
2024-08-01 15:33:12.812243, 0.000129442, -0.785256, 5.52775e-05, -2.35583, 0.000350455, 1.57129, 0.785812, 0.01, 0.01
2024-08-01 15:33:12.813247, 0.000134733, -0.785259, 5.52775e-05, -2.35583, 0.00035137, 1.57129, 0.785812, 0.01, 0.01
2024-08-01 15:33:12.814257, 0.000131949, -0.785264, 6.05672e-05, -2.35583, 0.00035137, 1.57129, 0.785807, 0.01, 0.01
2024-08-01 15:33:12.815249, 0.000134733, -0.785261, 6.01921e-05, -2.35582, 0.00035137, 1.5713, 0.785809, 0.01, 0.01
2024-08-01 15:33:12.816265, 0.000131949, -0.785262, 5.59877e-05, -2.35583, 0.00035137, 1.57129, 0.785805, 0.01, 0.01
2024-08-01 15:33:12.817247, 0.000137239, -0.785259, 5.82983e-05, -2.35583, 0.000352387, 1.5713, 0.785809, 0.01, 0.01
2024-08-01 15:33:12.818261, 0.000131949, -0.785261, 5.53564e-05, -2.35583, 0.000350455, 1.5713, 0.78581, 0.01, 0.01
2024-08-01 15:33:12.819221, 0.000131949, -0.785264, 5.80879e-05, -2.35583, 0.000349437, 1.5713, 0.785811, 0.01, 0.01
2024-08-01 15:33:12.820226, 0.000132603, -0.785261, 6.02009e-05, -2.35582, 0.00034842, 1.5713, 0.785811, 0.01, 0.01
2024-08-01 15:33:12.821234, 0.000134023, -0.785264, 5.87747e-05, -2.35583, 0.00035137, 1.5713, 0.785809, 0.01, 0.01
2024-08-01 15:33:12.822212, 0.000131713, -0.785259, 6.08049e-05, -2.35583, 0.000349437, 1.57129, 0.785812, 0.01, 0.01
2024-08-01 15:33:12.823220, 0.000134655, -0.785256, 5.74873e-05, -2.35583, 0.00035137, 1.5713, 0.785809, 0.01, 0.01
2024-08-01 15:33:12.824225, 0.000134707, -0.785259, 5.60141e-05, -2.35582, 0.00035137, 1.57129, 0.785809, 0.01, 0.01
2024-08-01 15:33:12.825213, 0.000129435, -0.785264, 5.83071e-05, -2.35583, 0.000349192, 1.5713, 0.785811, 0.01, 0.01
2024-08-01 15:33:12.826266, 0.000129816, -0.785259, 5.53594e-05, -2.35583, 0.000350305, 1.57129, 0.785809, 0.01, 0.01
2024-08-01 15:33:12.827280, 0.000131238, -0.785261, 5.53048e-05, -2.35582, 0.000348065, 1.5713, 0.785811, 0.01, 0.01
2024-08-01 15:33:12.828273, 0.000134496, -0.785256, 6.05763e-05, -2.35582, 0.000350336, 1.57129, 0.785805, 0.01, 0.01
2024-08-01 15:33:12.829258, 0.00013187, -0.785266, 5.74111e-05, -2.35583, 0.000350415, 1.5713, 0.785802, 0.01, 0.01
2024-08-01 15:33:12.830236, 0.000129793, -0.785261, 5.87728e-05, -2.35582, 0.000351357, 1.5713, 0.785804, 0.01, 0.01
2024-08-01 15:33:12.831294, 0.000131231, -0.785261, 5.82987e-05, -2.35582, 0.000351366, 1.57129, 0.785805, 0.01, 0.01
2024-08-01 15:33:12.832272, 0.00013171, -0.785259, 6.06463e-05, -2.35583, 0.000350453, 1.57129, 0.785809, 0.01, 0.01
2024-08-01 15:33:12.833241, 0.000129739, -0.785256, 5.80879e-05, -2.35583, 0.000350454, 1.57129, 0.785811, 0.01, 0.01
2024-08-01 15:33:12.834278, 0.000136502, -0.785264, 5.80704e-05, -2.35582, 0.00035137, 1.57129, 0.78581, 0.01, 0.01
2024-08-01 15:33:12.835237, 0.000134863, -0.785256, 6.30758e-05, -2.35582, 0.00035137, 1.57129, 0.785809, 0.01, 0.01
2024-08-01 15:33:12.836284, 0.000131157, -0.785259, 5.52785e-05, -2.35583, 0.00035137, 1.57129, 0.785807, 0.01, 0.01
2024-08-01 15:33:12.837261, 0.000131685, -0.785259, 5.80619e-05, -2.35583, 0.00034842, 1.5713, 0.785806, 0.01, 0.01
2024-08-01 15:33:12.838271, 0.000131861, -0.785253, 5.74082e-05, -2.35582, 0.00035137, 1.5713, 0.785809, 0.01, 0.01
2024-08-01 15:33:12.839265, 0.00012979, -0.785266, 5.87718e-05, -2.35583, 0.000349437, 1.57129, 0.785809, 0.01, 0.01
2024-08-01 15:33:12.840422, 0.000134014, -0.785259, 5.55143e-05, -2.35582, 0.000350455, 1.5713, 0.785811, 0.01, 0.01
2024-08-01 15:33:12.841458, 0.000131709, -0.785256, 6.06462e-05, -2.35582, 0.000350455, 1.57129, 0.785808, 0.01, 0.01
2024-08-01 15:33:12.842283, 0.000131869, -0.785256, 5.53038e-05, -2.35582, 0.000349437, 1.5713, 0.785809, 0.01, 0.01
2024-08-01 15:33:12.843388, 0.000134707, -0.785259, 5.80704e-05, -2.35583, 0.000350455, 1.57129, 0.785809, 0.01, 0.01
2024-08-01 15:33:12.844305, 0.000134725, -0.785264, 5.80645e-05, -2.35583, 0.000349437, 1.57129, 0.785806, 0.01, 0.01
2024-08-01 15:33:12.845302, 0.000131947, -0.785253, 5.80626e-05, -2.35583, 0.000350455, 1.57129, 0.785803, 0.01, 0.01
2024-08-01 15:33:12.846417, 0.000137238, -0.785261, 5.80619e-05, -2.35583, 0.000350455, 1.57129, 0.785809, 0.01, 0.01
2024-08-01 15:33:12.847383, 0.000131949, -0.785266, 5.52776e-05, -2.35583, 0.00035137, 1.57129, 0.785809, 0.01, 0.01
2024-08-01 15:33:12.848360, 0.000134733, -0.785259, 5.52776e-05, -2.35583, 0.00035137, 1.5713, 0.785809, 0.01, 0.01
2024-08-01 15:33:12.849347, 0.000137239, -0.785264, 6.30729e-05, -2.35582, 0.000350455, 1.5713, 0.785809, 0.01, 0.01
2024-08-01 15:33:12.850330, 0.000129819, -0.785264, 5.52775e-05, -2.35583, 0.00035137, 1.57129, 0.785806, 0.01, 0.01
2024-08-01 15:33:12.852574, 0.000134023, -0.785261, 6.05672e-05, -2.35583, 0.000349437, 1.5713, 0.785806, 0.01, 0.01
2024-08-01 15:33:12.852603, 0.000134497, -0.785259, 5.27719e-05, -2.35583, 0.00034842, 1.5713, 0.785804, 0.01, 0.01
2024-08-01 15:33:12.853219, 0.000131871, -0.785256, 5.52775e-05, -2.35583, 0.000349437, 1.57129, 0.785806, 0.01, 0.01
2024-08-01 15:33:12.854258, 0.000132577, -0.785261, 5.52775e-05, -2.35583, 0.000350455, 1.5713, 0.785811, 0.01, 0.01
2024-08-01 15:33:12.855255, 0.000131231, -0.785264, 5.80616e-05, -2.35582, 0.000350455, 1.57129, 0.78581, 0.01, 0.01
2024-08-01 15:33:12.856229, 0.000137, -0.785261, 5.80616e-05, -2.35583, 0.000349437, 1.5713, 0.785809, 0.01, 0.01
2024-08-01 15:33:12.857254, 0.00013187, -0.785264, 5.80616e-05, -2.35583, 0.000347259, 1.5713, 0.785809, 0.01, 0.01
2024-08-01 15:33:12.858244, 0.000131923, -0.785259, 5.74081e-05, -2.35582, 0.000348372, 1.57129, 0.785806, 0.01, 0.01
2024-08-01 15:33:12.859268, 0.000134725, -0.785261, 6.12774e-05, -2.35582, 0.000346904, 1.57129, 0.785806, 0.01, 0.01
2024-08-01 15:33:12.860255, 0.000129816, -0.785256, 6.0804e-05, -2.35583, 0.000349271, 1.57129, 0.785806, 0.01, 0.01
2024-08-01 15:33:12.861260, 0.000131238, -0.785261, 5.81405e-05, -2.35582, 0.000348026, 1.5713, 0.785806, 0.01, 0.01
2024-08-01 15:33:12.862279, 0.000137002, -0.785261, 5.80879e-05, -2.35582, 0.000349306, 1.5713, 0.78581, 0.01, 0.01
2024-08-01 15:33:12.863290, 0.000134655, -0.785253, 6.0576e-05, -2.35582, 0.000351326, 1.57129, 0.785811, 0.01, 0.01
2024-08-01 15:33:12.864293, 0.000134707, -0.785261, 5.80645e-05, -2.35583, 0.00035044, 1.57129, 0.78581, 0.01, 0.01
2024-08-01 15:33:12.865296, 0.000132594, -0.785261, 5.80626e-05, -2.35583, 0.000349433, 1.57129, 0.785809, 0.01, 0.01
2024-08-01 15:33:12.866312, 0.00013402, -0.785256, 5.52779e-05, -2.35583, 0.000351369, 1.57129, 0.785806, 0.01, 0.01
2024-08-01 15:33:12.867242, 0.000129206, -0.785259, 5.52776e-05, -2.35583, 0.00035137, 1.57129, 0.785807, 0.01, 0.01
2024-08-01 15:33:12.868322, 0.00013187, -0.785259, 6.01922e-05, -2.35582, 0.000349437, 1.5713, 0.785811, 0.01, 0.01
2024-08-01 15:33:12.869380, 0.000134707, -0.785261, 5.59877e-05, -2.35583, 0.000349437, 1.5713, 0.785807, 0.01, 0.01
2024-08-01 15:33:12.870270, 0.0001351, -0.785256, 5.76448e-05, -2.35582, 0.00035137, 1.57129, 0.78581, 0.01, 0.01
2024-08-01 15:33:12.871364, 0.00013402, -0.785259, 5.3561e-05, -2.35583, 0.000347259, 1.5713, 0.785811, 0.01, 0.01
2024-08-01 15:33:12.872243, 0.000129581, -0.785264, 6.08303e-05, -2.35583, 0.000350305, 1.57129, 0.785809, 0.01, 0.01
2024-08-01 15:33:12.873244, 0.00013645, -0.785259, 5.53652e-05, -2.35582, 0.000345886, 1.5713, 0.785808, 0.01, 0.01
2024-08-01 15:33:12.874278, 0.00013447, -0.785259, 5.80908e-05, -2.35583, 0.000350187, 1.57129, 0.785808, 0.01, 0.01
2024-08-01 15:33:12.875338, 0.000131862, -0.785259, 5.52873e-05, -2.35583, 0.000349043, 1.57129, 0.785807, 0.01, 0.01
2024-08-01 15:33:12.876321, 0.00012979, -0.785261, 5.52808e-05, -2.35583, 0.000349306, 1.57129, 0.78581, 0.01, 0.01
2024-08-01 15:33:12.877316, 0.000134014, -0.785259, 6.05683e-05, -2.35583, 0.000351326, 1.57129, 0.78581, 0.01, 0.01
2024-08-01 15:33:12.878335, 0.000129204, -0.785259, 5.8062e-05, -2.35583, 0.00035044, 1.5713, 0.78581, 0.01, 0.01
2024-08-01 15:33:12.879324, 0.000135029, -0.785259, 5.80617e-05, -2.35583, 0.00035045, 1.57129, 0.78581, 0.01, 0.01
2024-08-01 15:33:12.880270, 0.000133997, -0.785261, 5.80616e-05, -2.35583, 0.000351369, 1.57129, 0.78581, 0.01, 0.01
2024-08-01 15:33:12.881372, 0.000131704, -0.785259, 5.80616e-05, -2.35583, 0.000349437, 1.57129, 0.785807, 0.01, 0.01
2024-08-01 15:33:12.882295, 0.000134652, -0.785261, 6.05673e-05, -2.35583, 0.000349437, 1.5713, 0.785808, 0.01, 0.01
2024-08-01 15:33:12.883294, 0.000132576, -0.785256, 5.80616e-05, -2.35582, 0.00035137, 1.57129, 0.78581, 0.01, 0.01
2024-08-01 15:33:12.884329, 0.00013123, -0.785261, 5.80616e-05, -2.35583, 0.000347259, 1.5713, 0.78581, 0.01, 0.01
2024-08-01 15:33:12.885267, 0.000134494, -0.785264, 6.05672e-05, -2.35583, 0.000350305, 1.57129, 0.785809, 0.01, 0.01
2024-08-01 15:33:12.886322, 0.00013187, -0.785258, 5.52775e-05, -2.35583, 0.0003501, 1.57129, 0.785806, 0.01, 0.01
2024-08-01 15:33:12.887271, 0.000131923, -0.785257, 6.05672e-05, -2.35583, 0.000350336, 1.57129, 0.785806, 0.01, 0.01
2024-08-01 15:33:12.888288, 0.000129435, -0.785267, 5.52775e-05, -2.35583, 0.000350415, 1.5713, 0.785809, 0.01, 0.01
2024-08-01 15:33:12.889261, 0.000134731, -0.785256, 5.52775e-05, -2.35583, 0.000349424, 1.5713, 0.785806, 0.01, 0.01
2024-08-01 15:33:12.890253, 0.000132602, -0.785264, 5.80616e-05, -2.35582, 0.000349433, 1.5713, 0.78581, 0.01, 0.01
2024-08-01 15:33:12.891263, 0.000134023, -0.785256, 5.52775e-05, -2.35583, 0.000351369, 1.5713, 0.785812, 0.01, 0.01
2024-08-01 15:33:12.892261, 0.000131713, -0.785259, 6.01921e-05, -2.35583, 0.000350454, 1.57129, 0.785811, 0.01, 0.01
2024-08-01 15:33:12.893257, 0.000134655, -0.785264, 5.59877e-05, -2.35582, 0.000349191, 1.5713, 0.785812, 0.01, 0.01
2024-08-01 15:33:12.894269, 0.000132577, -0.785264, 5.82983e-05, -2.35582, 0.000350305, 1.57129, 0.785807, 0.01, 0.01
2024-08-01 15:33:12.895274, 0.000131231, -0.785259, 5.81405e-05, -2.35583, 0.000349082, 1.57129, 0.785807, 0.01, 0.01
2024-08-01 15:33:12.896249, 0.000134494, -0.785261, 5.80879e-05, -2.35583, 0.000349319, 1.5713, 0.785808, 0.01, 0.01
2024-08-01 15:33:12.897223, 0.000137159, -0.785261, 6.0576e-05, -2.35582, 0.000350415, 1.57129, 0.785809, 0.01, 0.01
2024-08-01 15:33:12.898224, 0.000134707, -0.785261, 5.52805e-05, -2.35583, 0.000351357, 1.57129, 0.785811, 0.01, 0.01
2024-08-01 15:33:12.900996, 0.000131941, -0.785261, 5.52785e-05, -2.35583, 0.000351366, 1.5713, 0.785812, 0.01, 0.01
2024-08-01 15:33:12.901014, 0.000129441, -0.785259, 6.05676e-05, -2.35583, 0.000350453, 1.5713, 0.785812, 0.01, 0.01
2024-08-01 15:33:12.901332, 0.000129818, -0.785259, 5.80617e-05, -2.35583, 0.000353404, 1.57129, 0.785812, 0.01, 0.01
2024-08-01 15:33:12.902243, 0.000129108, -0.785259, 5.52776e-05, -2.35583, 0.000350454, 1.57129, 0.785809, 0.01, 0.01
2024-08-01 15:33:12.903352, 0.000131656, -0.785261, 5.80616e-05, -2.35583, 0.000349437, 1.57129, 0.78581, 0.01, 0.01
2024-08-01 15:33:12.904349, 0.000130924, -0.785263, 5.52775e-05, -2.35583, 0.000349437, 1.57129, 0.785809, 0.01, 0.01
2024-08-01 15:33:12.905327, 0.000126596, -0.785264, 5.52775e-05, -2.35583, 0.00035137, 1.57129, 0.785809, 0.01, 0.01
2024-08-01 15:33:12.906276, 0.000139909, -0.785259, 5.52775e-05, -2.35582, 0.000349437, 1.57129, 0.785814, 0.01, 0.01
2024-08-01 15:33:12.907253, 0.000134696, -0.785256, 5.3147e-05, -2.35583, 0.000349437, 1.57129, 0.785812, 0.01, 0.01
2024-08-01 15:33:12.908247, 0.000135096, -0.785266, 5.45674e-05, -2.35583, 0.000349437, 1.5713, 0.785813, 0.01, 0.01
2024-08-01 15:33:12.909235, 0.000134019, -0.785259, 5.50408e-05, -2.35583, 0.000350455, 1.5713, 0.785814, 0.01, 0.01
2024-08-01 15:33:12.910391, 0.000131711, -0.785259, 5.51986e-05, -2.35582, 0.000347259, 1.57129, 0.785812, 0.01, 0.01
2024-08-01 15:33:12.911279, 0.00013187, -0.785261, 5.80353e-05, -2.35583, 0.000349389, 1.5713, 0.785809, 0.01, 0.01
2024-08-01 15:33:12.912323, 0.000134707, -0.785259, 5.52688e-05, -2.35583, 0.0003501, 1.57129, 0.785809, 0.01, 0.01
2024-08-01 15:33:12.913296, 0.00013723, -0.785264, 5.52746e-05, -2.35583, 0.000351252, 1.57129, 0.785809, 0.01, 0.01
2024-08-01 15:33:12.914280, 0.000131947, -0.785259, 5.52766e-05, -2.35583, 0.000351331, 1.57129, 0.785814, 0.01, 0.01
2024-08-01 15:33:12.915274, 0.000134733, -0.785261, 6.05669e-05, -2.35583, 0.000353392, 1.57129, 0.785814, 0.01, 0.01
2024-08-01 15:33:12.916236, 0.000132603, -0.785261, 5.27718e-05, -2.35583, 0.000349433, 1.5713, 0.785815, 0.01, 0.01
2024-08-01 15:33:12.917299, 0.000136529, -0.785259, 5.80616e-05, -2.35583, 0.000351369, 1.5713, 0.785812, 0.01, 0.01
2024-08-01 15:33:12.918271, 0.000137002, -0.785261, 5.80616e-05, -2.35583, 0.00034842, 1.57129, 0.785811, 0.01, 0.01
2024-08-01 15:33:12.919274, 0.000131871, -0.785259, 5.80616e-05, -2.35583, 0.000350454, 1.5713, 0.78581, 0.01, 0.01
2024-08-01 15:33:12.920258, 0.000131923, -0.785259, 5.80616e-05, -2.35582, 0.000349437, 1.57129, 0.785809, 0.01, 0.01
2024-08-01 15:33:12.921260, 0.000134725, -0.785259, 5.27719e-05, -2.35583, 0.00035137, 1.5713, 0.785806, 0.01, 0.01
2024-08-01 15:33:12.922256, 0.000129816, -0.785259, 5.80616e-05, -2.35583, 0.000345224, 1.57129, 0.785813, 0.01, 0.01
2024-08-01 15:33:12.923296, 0.000134022, -0.785256, 5.80616e-05, -2.35583, 0.000350305, 1.57129, 0.785812, 0.01, 0.01
2024-08-01 15:33:12.924289, 0.000134496, -0.785259, 5.80616e-05, -2.35583, 0.000351015, 1.5713, 0.785812, 0.01, 0.01
2024-08-01 15:33:12.925239, 0.00013187, -0.785261, 5.80616e-05, -2.35583, 0.000349319, 1.5713, 0.785813, 0.01, 0.01
2024-08-01 15:33:12.926211, 0.000129417, -0.785266, 5.80616e-05, -2.35583, 0.000350415, 1.57129, 0.785811, 0.01, 0.01
2024-08-01 15:33:12.927205, 0.000134725, -0.785259, 6.05672e-05, -2.35582, 0.000351357, 1.5713, 0.785811, 0.01, 0.01
2024-08-01 15:33:12.928218, 0.000131947, -0.785256, 5.52775e-05, -2.35582, 0.00035045, 1.5713, 0.785809, 0.01, 0.01
2024-08-01 15:33:12.929218, 0.000131949, -0.785259, 5.80616e-05, -2.35583, 0.000350453, 1.5713, 0.78581, 0.01, 0.01
2024-08-01 15:33:12.930227, 0.000134733, -0.785264, 5.80616e-05, -2.35583, 0.000350454, 1.5713, 0.785815, 0.01, 0.01
2024-08-01 15:33:12.931282, 0.000134733, -0.785264, 5.52775e-05, -2.35583, 0.000350454, 1.57129, 0.785815, 0.01, 0.01
2024-08-01 15:33:12.932250, 0.000134734, -0.785269, 6.05672e-05, -2.35583, 0.00035137, 1.57129, 0.785815, 0.01, 0.01
2024-08-01 15:33:12.933206, 0.000131949, -0.785264, 5.80616e-05, -2.35582, 0.000350455, 1.5713, 0.785813, 0.01, 0.01
2024-08-01 15:33:12.934254, 0.000134734, -0.785267, 6.05672e-05, -2.35583, 0.000350455, 1.57129, 0.785808, 0.01, 0.01
2024-08-01 15:33:12.937517, 0.000137239, -0.785259, 5.52775e-05, -2.35583, 0.000350455, 1.5713, 0.785813, 0.01, 0.01
2024-08-01 15:33:12.937544, 0.000129444, -0.785261, 5.27719e-05, -2.35583, 0.000349437, 1.57129, 0.78581, 0.01, 0.01
2024-08-01 15:33:12.938245, 0.000135109, -0.785261, 5.80616e-05, -2.35583, 0.00035137, 1.57129, 0.785813, 0.01, 0.01
2024-08-01 15:33:12.939276, 0.000134023, -0.785266, 5.80616e-05, -2.35583, 0.00035137, 1.57129, 0.785815, 0.01, 0.01
2024-08-01 15:33:12.940266, 0.000137002, -0.785257, 5.80616e-05, -2.35583, 0.000349437, 1.57129, 0.785814, 0.01, 0.01
2024-08-01 15:33:12.941256, 0.000134655, -0.785259, 5.80616e-05, -2.35583, 0.000350455, 1.57129, 0.785812, 0.01, 0.01
2024-08-01 15:33:12.942219, 0.000134707, -0.785261, 5.80616e-05, -2.35583, 0.000350455, 1.5713, 0.785809, 0.01, 0.01
2024-08-01 15:33:12.943373, 0.000131941, -0.785259, 5.52775e-05, -2.35582, 0.00035137, 1.57129, 0.785811, 0.01, 0.01
2024-08-01 15:33:12.944287, 0.000131947, -0.785256, 6.01921e-05, -2.35583, 0.00034842, 1.57129, 0.785814, 0.01, 0.01
2024-08-01 15:33:12.945271, 0.000137238, -0.785259, 5.87718e-05, -2.35582, 0.000350455, 1.5713, 0.785814, 0.01, 0.01
2024-08-01 15:33:12.946275, 0.000131949, -0.785264, 5.82983e-05, -2.35583, 0.000350455, 1.5713, 0.785814, 0.01, 0.01
2024-08-01 15:33:12.947278, 0.000131949, -0.785264, 6.06462e-05, -2.35582, 0.00035137, 1.5713, 0.785815, 0.01, 0.01
2024-08-01 15:33:12.948221, 0.000131949, -0.785264, 5.80879e-05, -2.35583, 0.000350455, 1.57129, 0.785812, 0.01, 0.01
2024-08-01 15:33:12.949346, 0.000127313, -0.785253, 5.52863e-05, -2.35582, 0.00035137, 1.57129, 0.785812, 0.01, 0.01
2024-08-01 15:33:12.950272, 0.000134023, -0.785261, 5.52805e-05, -2.35583, 0.000350455, 1.57129, 0.785812, 0.01, 0.01
2024-08-01 15:33:12.951272, 0.000132366, -0.785266, 6.05682e-05, -2.35582, 0.00035137, 1.57129, 0.785812, 0.01, 0.01
2024-08-01 15:33:12.952228, 0.000131814, -0.785256, 5.52779e-05, -2.35583, 0.000350455, 1.5713, 0.785815, 0.01, 0.01
2024-08-01 15:33:12.953227, 0.00013376, -0.785259, 5.2772e-05, -2.35583, 0.00035137, 1.57129, 0.785814, 0.01, 0.01
2024-08-01 15:33:12.954224, 0.000134409, -0.785261, 6.5857e-05, -2.35583, 0.000350455, 1.5713, 0.785812, 0.01, 0.01
2024-08-01 15:33:12.955185, 0.000134625, -0.785259, 5.74081e-05, -2.35583, 0.000350455, 1.57129, 0.785809, 0.01, 0.01
2024-08-01 15:33:12.956328, 0.000137203, -0.785259, 5.87718e-05, -2.35582, 0.00035137, 1.57129, 0.785812, 0.01, 0.01
2024-08-01 15:33:12.957252, 0.000134722, -0.785266, 5.30086e-05, -2.35583, 0.000350455, 1.5713, 0.785809, 0.01, 0.01
2024-08-01 15:33:12.958242, 0.000131945, -0.785256, 5.81405e-05, -2.35583, 0.000349437, 1.57129, 0.785812, 0.01, 0.01
2024-08-01 15:33:12.959217, 0.000127312, -0.785256, 5.80879e-05, -2.35582, 0.000350455, 1.5713, 0.785813, 0.01, 0.01
2024-08-01 15:33:12.960260, 0.000134398, -0.785256, 6.0576e-05, -2.35583, 0.000348174, 1.57129, 0.785816, 0.01, 0.01
2024-08-01 15:33:12.961269, 0.000133786, -0.785261, 6.05702e-05, -2.35582, 0.000348372, 1.57129, 0.785815, 0.01, 0.01
2024-08-01 15:33:12.962189, 0.000131634, -0.785256, 5.80626e-05, -2.35582, 0.000348065, 1.5713, 0.78581, 0.01, 0.01
2024-08-01 15:33:12.963211, 0.000132498, -0.785259, 6.05676e-05, -2.35583, 0.000350336, 1.57129, 0.785809, 0.01, 0.01
2024-08-01 15:33:12.964211, 0.000131204, -0.785264, 5.80617e-05, -2.35582, 0.000352348, 1.57129, 0.785811, 0.01, 0.01
2024-08-01 15:33:12.965180, 0.000131701, -0.785253, 5.52776e-05, -2.35583, 0.000349424, 1.57129, 0.785809, 0.01, 0.01
2024-08-01 15:33:12.966212, 0.000131867, -0.785264, 5.52775e-05, -2.35583, 0.000349433, 1.57129, 0.785814, 0.01, 0.01
2024-08-01 15:33:12.967212, 0.000131922, -0.785261, 5.52775e-05, -2.35583, 0.000349436, 1.5713, 0.785814, 0.01, 0.01
2024-08-01 15:33:12.968224, 0.000132594, -0.785259, 6.30729e-05, -2.35583, 0.000352387, 1.5713, 0.785814, 0.01, 0.01
2024-08-01 15:33:12.969215, 0.00013402, -0.785264, 5.80616e-05, -2.35582, 0.00035137, 1.57129, 0.785813, 0.01, 0.01
2024-08-01 15:33:12.970203, 0.000134496, -0.785259, 6.01921e-05, -2.35582, 0.000350455, 1.57129, 0.785807, 0.01, 0.01
2024-08-01 15:33:12.971211, 0.00013187, -0.785259, 5.87718e-05, -2.35582, 0.000350455, 1.5713, 0.78581, 0.01, 0.01
2024-08-01 15:33:12.972215, 0.000134707, -0.785264, 6.0804e-05, -2.35583, 0.00035137, 1.5713, 0.785809, 0.01, 0.01
2024-08-01 15:33:12.973199, 0.0001351, -0.785259, 5.53564e-05, -2.35583, 0.00035137, 1.57129, 0.785812, 0.01, 0.01
2024-08-01 15:33:12.974198, 0.00013402, -0.785261, 5.80879e-05, -2.35583, 0.000347259, 1.57129, 0.785813, 0.01, 0.01
2024-08-01 15:33:12.975198, 0.000132365, -0.785259, 5.80704e-05, -2.35583, 0.000350305, 1.5713, 0.785815, 0.01, 0.01
2024-08-01 15:33:12.976201, 0.000133944, -0.785256, 5.80645e-05, -2.35583, 0.000351015, 1.57129, 0.785813, 0.01, 0.01
2024-08-01 15:33:12.977203, 0.000131686, -0.785264, 5.80626e-05, -2.35582, 0.000350336, 1.5713, 0.785813, 0.01, 0.01
2024-08-01 15:33:12.978201, 0.000131862, -0.785259, 5.52779e-05, -2.35583, 0.000351331, 1.57129, 0.785809, 0.01, 0.01
2024-08-01 15:33:12.979199, 0.00013192, -0.785261, 5.80617e-05, -2.35583, 0.000349424, 1.57129, 0.78581, 0.01, 0.01
2024-08-01 15:33:12.980222, 0.000134724, -0.785259, 6.05673e-05, -2.35583, 0.00035045, 1.5713, 0.785811, 0.01, 0.01
2024-08-01 15:33:12.981202, 0.000137236, -0.785266, 5.52775e-05, -2.35583, 0.000352386, 1.5713, 0.785815, 0.01, 0.01
2024-08-01 15:33:12.982177, 0.000131948, -0.785257, 5.27719e-05, -2.35583, 0.00035137, 1.5713, 0.785813, 0.01, 0.01
2024-08-01 15:33:12.983205, 0.000131949, -0.785259, 5.80616e-05, -2.35583, 0.000347259, 1.57129, 0.78581, 0.01, 0.01
2024-08-01 15:33:12.984200, 0.000134733, -0.785256, 5.52775e-05, -2.35583, 0.000348372, 1.57129, 0.785812, 0.01, 0.01
2024-08-01 15:33:12.985204, 0.000132603, -0.785259, 5.80616e-05, -2.35582, 0.000349082, 1.57129, 0.785812, 0.01, 0.01
2024-08-01 15:33:12.986202, 0.000131239, -0.785261, 5.80616e-05, -2.35583, 0.000349319, 1.57129, 0.785809, 0.01, 0.01
2024-08-01 15:33:12.987204, 0.000134497, -0.785261, 5.52775e-05, -2.35583, 0.000349152, 1.57129, 0.78581, 0.01, 0.01
2024-08-01 15:33:12.988209, 0.00013716, -0.785264, 5.80616e-05, -2.35583, 0.000350292, 1.57129, 0.785808, 0.01, 0.01
2024-08-01 15:33:12.989209, 0.000131923, -0.785261, 5.80616e-05, -2.35583, 0.000349078, 1.5713, 0.785813, 0.01, 0.01
2024-08-01 15:33:12.990203, 0.000131941, -0.785261, 5.80616e-05, -2.35583, 0.00035125, 1.57129, 0.785813, 0.01, 0.01
2024-08-01 15:33:12.991203, 0.000129816, -0.785266, 5.80616e-05, -2.35583, 0.000346202, 1.5713, 0.785813, 0.01, 0.01
2024-08-01 15:33:12.992201, 0.000131238, -0.785266, 5.52775e-05, -2.35582, 0.000349376, 1.5713, 0.78581, 0.01, 0.01
2024-08-01 15:33:12.993201, 0.000137002, -0.785259, 5.80616e-05, -2.35583, 0.000350095, 1.5713, 0.785808, 0.01, 0.01
2024-08-01 15:33:12.994205, 0.000132524, -0.785266, 5.52775e-05, -2.35583, 0.00035125, 1.5713, 0.785814, 0.01, 0.01
2024-08-01 15:33:12.995197, 0.000133997, -0.785259, 5.52775e-05, -2.35583, 0.000352347, 1.5713, 0.785808, 0.01, 0.01
2024-08-01 15:33:12.996201, 0.000131704, -0.785261, 5.52775e-05, -2.35583, 0.000352374, 1.57129, 0.785812, 0.01, 0.01
2024-08-01 15:33:12.997224, 0.000137157, -0.785264, 5.52775e-05, -2.35583, 0.00035045, 1.5713, 0.785813, 0.01, 0.01
2024-08-01 15:33:12.998200, 0.000131922, -0.785261, 5.52775e-05, -2.35583, 0.000350453, 1.5713, 0.785811, 0.01, 0.01
2024-08-01 15:33:12.999198, 0.000132594, -0.785261, 5.80616e-05, -2.35583, 0.000352387, 1.5713, 0.785809, 0.01, 0.01
2024-08-01 15:33:13.000230, 0.00013402, -0.785259, 6.05672e-05, -2.35583, 0.000349437, 1.57129, 0.785806, 0.01, 0.01
2024-08-01 15:33:13.001189, 0.000137655, -0.785259, 5.52775e-05, -2.35583, 0.000350455, 1.5713, 0.785808, 0.01, 0.01
2024-08-01 15:33:13.002194, 0.000133944, -0.785259, 5.80616e-05, -2.35583, 0.000347259, 1.5713, 0.785812, 0.01, 0.01
2024-08-01 15:33:13.003215, 0.000129181, -0.785256, 5.80616e-05, -2.35583, 0.000349389, 1.57129, 0.785812, 0.01, 0.01
2024-08-01 15:33:13.004200, 0.000132515, -0.785259, 5.80616e-05, -2.35583, 0.0003501, 1.57129, 0.785813, 0.01, 0.01
2024-08-01 15:33:13.005203, 0.000133994, -0.785259, 5.52775e-05, -2.35583, 0.000348056, 1.57129, 0.785812, 0.01, 0.01
2024-08-01 15:33:13.006197, 0.000132357, -0.785261, 5.52775e-05, -2.35583, 0.000350265, 1.5713, 0.785811, 0.01, 0.01
2024-08-01 15:33:13.007196, 0.000133941, -0.785266, 5.80616e-05, -2.35582, 0.000351002, 1.5713, 0.785809, 0.01, 0.01
2024-08-01 15:33:13.008227, 0.000131685, -0.785259, 5.52775e-05, -2.35583, 0.000349315, 1.5713, 0.785806, 0.01, 0.01
2024-08-01 15:33:13.009221, 0.000129356, -0.785259, 5.80616e-05, -2.35583, 0.000350414, 1.57129, 0.785804, 0.01, 0.01
2024-08-01 15:33:13.010218, 0.000134704, -0.785259, 6.01921e-05, -2.35583, 0.000348406, 1.5713, 0.785812, 0.01, 0.01
2024-08-01 15:33:13.011307, 0.000129809, -0.785256, 5.87718e-05, -2.35582, 0.00035045, 1.5713, 0.785813, 0.01, 0.01
2024-08-01 15:33:13.012230, 0.000136526, -0.785264, 6.0804e-05, -2.35582, 0.000351369, 1.57129, 0.78581, 0.01, 0.01
2024-08-01 15:33:13.013214, 0.000139785, -0.785259, 5.81405e-05, -2.35583, 0.000350454, 1.57129, 0.785811, 0.01, 0.01
2024-08-01 15:33:13.014241, 0.00013187, -0.785261, 6.05935e-05, -2.35583, 0.000350454, 1.57129, 0.785809, 0.01, 0.01
2024-08-01 15:33:13.015223, 0.000127287, -0.785266, 5.52863e-05, -2.35582, 0.000349437, 1.57129, 0.785809, 0.01, 0.01
2024-08-01 15:33:13.016213, 0.00013123, -0.785259, 5.80645e-05, -2.35583, 0.00035137, 1.57129, 0.785808, 0.01, 0.01
2024-08-01 15:33:13.017198, 0.000129579, -0.785266, 5.80626e-05, -2.35582, 0.00035137, 1.57129, 0.785809, 0.01, 0.01
2024-08-01 15:33:13.018189, 0.000136449, -0.785261, 5.80619e-05, -2.35583, 0.00035137, 1.5713, 0.78581, 0.01, 0.01
2024-08-01 15:33:13.019296, 0.00013447, -0.785259, 6.01922e-05, -2.35583, 0.000349437, 1.57129, 0.785812, 0.01, 0.01
2024-08-01 15:33:13.020240, 0.000131862, -0.785261, 5.59877e-05, -2.35583, 0.000352387, 1.57129, 0.785812, 0.01, 0.01
2024-08-01 15:33:13.021219, 0.000132574, -0.785264, 5.82983e-05, -2.35582, 0.000349437, 1.57129, 0.78581, 0.01, 0.01
2024-08-01 15:33:13.022208, 0.000134014, -0.785264, 5.53564e-05, -2.35583, 0.000347259, 1.57129, 0.785806, 0.01, 0.01
2024-08-01 15:33:13.023241, 0.000134494, -0.785261, 5.53038e-05, -2.35583, 0.000349389, 1.57129, 0.785803, 0.01, 0.01
2024-08-01 15:33:13.024215, 0.000134654, -0.785261, 5.80704e-05, -2.35582, 0.0003501, 1.57129, 0.785805, 0.01, 0.01
2024-08-01 15:33:13.025199, 0.000129792, -0.785266, 5.52805e-05, -2.35583, 0.000349319, 1.57129, 0.785806, 0.01, 0.01
2024-08-01 15:33:13.026231, 0.000134014, -0.785264, 5.80626e-05, -2.35583, 0.000347219, 1.57129, 0.785808, 0.01, 0.01
2024-08-01 15:33:13.027296, 0.000129204, -0.785261, 5.52779e-05, -2.35582, 0.000351309, 1.57129, 0.785812, 0.01, 0.01
2024-08-01 15:33:13.028227, 0.000126858, -0.785253, 6.05674e-05, -2.35582, 0.000346899, 1.5713, 0.785811, 0.01, 0.01
2024-08-01 15:33:13.029213, 0.000135082, -0.785256, 6.01922e-05, -2.35583, 0.000347235, 1.57129, 0.785809, 0.01, 0.01
2024-08-01 15:33:13.030266, 0.00013439, -0.785266, 6.37831e-05, -2.35583, 0.00035006, 1.5713, 0.785805, 0.01, 0.01
2024-08-01 15:33:13.031220, 0.000131, -0.785256, 5.82983e-05, -2.35583, 0.000351238, 1.5713, 0.785806, 0.01, 0.01
2024-08-01 15:33:13.032265, 0.000126997, -0.785264, 5.53564e-05, -2.35583, 0.000351326, 1.57129, 0.785808, 0.01, 0.01
2024-08-01 15:33:13.033230, 0.000131134, -0.785261, 5.53038e-05, -2.35582, 0.00035044, 1.57129, 0.785808, 0.01, 0.01
2024-08-01 15:33:13.034214, 0.000136967, -0.785261, 5.52863e-05, -2.35583, 0.000349432, 1.57129, 0.785809, 0.01, 0.01
2024-08-01 15:33:13.035199, 0.000131859, -0.785264, 5.7411e-05, -2.35582, 0.000350453, 1.57129, 0.785807, 0.01, 0.01
2024-08-01 15:33:13.036207, 0.000129789, -0.785259, 5.87727e-05, -2.35582, 0.000349437, 1.5713, 0.78581, 0.01, 0.01
2024-08-01 15:33:13.037220, 0.000134013, -0.785256, 5.76451e-05, -2.35583, 0.000348174, 1.5713, 0.785809, 0.01, 0.01
2024-08-01 15:33:13.038206, 0.000131709, -0.785261, 5.88508e-05, -2.35582, 0.000347109, 1.5713, 0.785806, 0.01, 0.01
2024-08-01 15:33:13.039196, 0.000134654, -0.785261, 5.83247e-05, -2.35583, 0.000349034, 1.57129, 0.785806, 0.01, 0.01
2024-08-01 15:33:13.040258, 0.000131923, -0.785259, 6.06549e-05, -2.35583, 0.000348964, 1.5713, 0.785809, 0.01, 0.01
2024-08-01 15:33:13.041231, 0.000134725, -0.785256, 6.02214e-05, -2.35583, 0.000351212, 1.57129, 0.78581, 0.01, 0.01
2024-08-01 15:33:13.042208, 0.000134731, -0.785264, 5.87815e-05, -2.35583, 0.000349385, 1.57129, 0.78581, 0.01, 0.01
2024-08-01 15:33:13.043216, 0.000137238, -0.785264, 5.83016e-05, -2.35583, 0.00034942, 1.5713, 0.785809, 0.01, 0.01
2024-08-01 15:33:13.044294, 0.000137239, -0.785261, 5.74881e-05, -2.35582, 0.000351364, 1.57129, 0.785809, 0.01, 0.01
2024-08-01 15:33:13.045430, 0.000129444, -0.785256, 5.87984e-05, -2.35582, 0.000350453, 1.57129, 0.78581, 0.01, 0.01
2024-08-01 15:33:13.049443, 0.000132603, -0.785261, 5.55231e-05, -2.35582, 0.00035137, 1.57129, 0.785807, 0.01, 0.01
2024-08-01 15:33:13.049523, 0.000131239, -0.785259, 5.81435e-05, -2.35582, 0.000349437, 1.57129, 0.785807, 0.01, 0.01
2024-08-01 15:33:13.049555, 0.000134655, -0.785261, 5.80707e-05, -2.35583, 0.000352387, 1.57129, 0.78581, 0.01, 0.01
2024-08-01 15:33:13.050297, 0.000137213, -0.785261, 5.52806e-05, -2.35583, 0.00035137, 1.5713, 0.78581, 0.01, 0.01
2024-08-01 15:33:13.051317, 0.000131941, -0.785262, 5.80626e-05, -2.35583, 0.00035137, 1.57129, 0.78581, 0.01, 0.01
2024-08-01 15:33:13.052263, 0.000134731, -0.785254, 5.80619e-05, -2.35582, 0.000350455, 1.5713, 0.785811, 0.01, 0.01
2024-08-01 15:33:13.053337, 0.000131949, -0.785261, 6.05674e-05, -2.35583, 0.000350455, 1.57129, 0.785809, 0.01, 0.01
2024-08-01 15:33:13.054336, 0.000129443, -0.785261, 6.01922e-05, -2.35583, 0.000350455, 1.57129, 0.785807, 0.01, 0.01
2024-08-01 15:33:13.055315, 0.000132603, -0.785261, 5.59877e-05, -2.35583, 0.000349437, 1.5713, 0.785806, 0.01, 0.01
2024-08-01 15:33:13.056227, 0.000136529, -0.785259, 5.82983e-05, -2.35583, 0.000348174, 1.57129, 0.785811, 0.01, 0.01
2024-08-01 15:33:13.057221, 0.000134497, -0.785256, 5.81405e-05, -2.35582, 0.000348372, 1.57129, 0.785813, 0.01, 0.01
2024-08-01 15:33:13.058206, 0.00012974, -0.785261, 5.80879e-05, -2.35583, 0.0003501, 1.57129, 0.78581, 0.01, 0.01
2024-08-01 15:33:13.059198, 0.000134372, -0.785264, 5.52863e-05, -2.35583, 0.000350336, 1.5713, 0.785809, 0.01, 0.01
2024-08-01 15:33:13.060214, 0.000133778, -0.785266, 5.5934e-05, -2.35583, 0.000350415, 1.5713, 0.785809, 0.01, 0.01
2024-08-01 15:33:13.061211, 0.000131631, -0.785264, 5.73524e-05, -2.35583, 0.000351357, 1.57129, 0.785809, 0.01, 0.01
2024-08-01 15:33:13.062184, 0.000134627, -0.785261, 5.50411e-05, -2.35582, 0.00035045, 1.57129, 0.785808, 0.01, 0.01
2024-08-01 15:33:13.063201, 0.000135073, -0.785256, 5.79828e-05, -2.35582, 0.000349436, 1.57129, 0.785808, 0.01, 0.01
2024-08-01 15:33:13.064216, 0.000134387, -0.785256, 5.80353e-05, -2.35583, 0.000350454, 1.5713, 0.785809, 0.01, 0.01
2024-08-01 15:33:13.065208, 0.000133783, -0.785259, 6.2689e-05, -2.35582, 0.000349437, 1.57129, 0.785812, 0.01, 0.01
2024-08-01 15:33:13.066239, 0.000129127, -0.785264, 6.12745e-05, -2.35583, 0.000352387, 1.57129, 0.785811, 0.01, 0.01
2024-08-01 15:33:13.067225, 0.000134628, -0.785266, 5.82973e-05, -2.35582, 0.000350455, 1.5713, 0.785812, 0.01, 0.01
2024-08-01 15:33:13.068200, 0.000132568, -0.785261, 6.06458e-05, -2.35583, 0.00035137, 1.57129, 0.785809, 0.01, 0.01
2024-08-01 15:33:13.069203, 0.000136517, -0.785261, 5.27981e-05, -2.35583, 0.000350209, 1.5713, 0.785808, 0.01, 0.01
2024-08-01 15:33:13.070222, 0.000134493, -0.785259, 5.27806e-05, -2.35583, 0.000349389, 1.5713, 0.785812, 0.01, 0.01
2024-08-01 15:33:13.071214, 0.000129364, -0.785264, 5.52804e-05, -2.35582, 0.000349082, 1.57129, 0.785811, 0.01, 0.01
2024-08-01 15:33:13.072197, 0.000129792, -0.785261, 5.80626e-05, -2.35583, 0.000349319, 1.5713, 0.785812, 0.01, 0.01
2024-08-01 15:33:13.073195, 0.00013123, -0.785259, 6.01924e-05, -2.35583, 0.000351331, 1.5713, 0.785812, 0.01, 0.01
2024-08-01 15:33:13.074197, 0.00013171, -0.785256, 5.59878e-05, -2.35583, 0.000350441, 1.57129, 0.785809, 0.01, 0.01
2024-08-01 15:33:13.075196, 0.000129739, -0.785261, 6.0804e-05, -2.35583, 0.000351366, 1.57129, 0.785807, 0.01, 0.01
2024-08-01 15:33:13.076198, 0.000126576, -0.785264, 5.53565e-05, -2.35583, 0.000347257, 1.5713, 0.785807, 0.01, 0.01
2024-08-01 15:33:13.077198, 0.000133778, -0.785259, 5.80879e-05, -2.35583, 0.000350304, 1.57129, 0.785809, 0.01, 0.01
2024-08-01 15:33:13.078118, 0.000131631, -0.785259, 5.52863e-05, -2.35582, 0.000351015, 1.57129, 0.785812, 0.01, 0.01
2024-08-01 15:33:13.079271, 0.000135002, -0.785261, 5.80645e-05, -2.35583, 0.000350336, 1.5713, 0.785812, 0.01, 0.01
2024-08-01 15:33:13.080195, 0.000133988, -0.785259, 5.80626e-05, -2.35583, 0.000347219, 1.5713, 0.785811, 0.01, 0.01
2024-08-01 15:33:13.081202, 0.000129195, -0.785261, 5.80619e-05, -2.35582, 0.000348359, 1.5713, 0.78581, 0.01, 0.01
2024-08-01 15:33:13.082179, 0.000131867, -0.785253, 5.80617e-05, -2.35582, 0.000351011, 1.57129, 0.785805, 0.01, 0.01
2024-08-01 15:33:13.083194, 0.000134706, -0.785261, 5.52776e-05, -2.35583, 0.000352268, 1.57129, 0.785803, 0.01, 0.01
2024-08-01 15:33:13.084201, 0.000134724, -0.785264, 5.80616e-05, -2.35582, 0.00034838, 1.5713, 0.785806, 0.01, 0.01
2024-08-01 15:33:13.085206, 0.00013473, -0.785264, 6.05673e-05, -2.35582, 0.000351357, 1.5713, 0.785808, 0.01, 0.01
2024-08-01 15:33:13.086206, 0.000134733, -0.785264, 5.80616e-05, -2.35583, 0.000349433, 1.57129, 0.785812, 0.01, 0.01
2024-08-01 15:33:13.087206, 0.000131949, -0.785259, 5.74081e-05, -2.35582, 0.000350453, 1.57129, 0.78581, 0.01, 0.01
2024-08-01 15:33:13.088210, 0.000134733, -0.785261, 6.12774e-05, -2.35583, 0.000350454, 1.5713, 0.785811, 0.01, 0.01
2024-08-01 15:33:13.089197, 0.000132603, -0.785258, 5.82983e-05, -2.35583, 0.000352387, 1.57129, 0.785809, 0.01, 0.01
2024-08-01 15:33:13.090217, 0.000131239, -0.785262, 5.81405e-05, -2.35583, 0.000349437, 1.57129, 0.785808, 0.01, 0.01
2024-08-01 15:33:13.091203, 0.000129207, -0.785256, 5.80879e-05, -2.35582, 0.000348174, 1.57129, 0.785808, 0.01, 0.01
2024-08-01 15:33:13.092197, 0.000134655, -0.785264, 5.80704e-05, -2.35583, 0.000348372, 1.57129, 0.785807, 0.01, 0.01
2024-08-01 15:33:13.093212, 0.000134707, -0.785259, 5.7411e-05, -2.35583, 0.000351015, 1.57129, 0.785811, 0.01, 0.01
2024-08-01 15:33:13.094216, 0.000134725, -0.785259, 5.59887e-05, -2.35583, 0.000349319, 1.57129, 0.785811, 0.01, 0.01
2024-08-01 15:33:13.095193, 0.000131947, -0.785259, 5.55146e-05, -2.35583, 0.000351331, 1.5713, 0.78581, 0.01, 0.01
2024-08-01 15:33:13.096199, 0.000137238, -0.785256, 5.28509e-05, -2.35583, 0.000350441, 1.57129, 0.785812, 0.01, 0.01
2024-08-01 15:33:13.097195, 0.000131949, -0.785256, 5.80879e-05, -2.35582, 0.000351366, 1.57129, 0.785813, 0.01, 0.01
2024-08-01 15:33:13.098199, 0.000134733, -0.785264, 5.80704e-05, -2.35583, 0.000350453, 1.5713, 0.785812, 0.01, 0.01
2024-08-01 15:33:13.099197, 0.000129819, -0.785259, 6.05702e-05, -2.35583, 0.00035137, 1.57129, 0.785812, 0.01, 0.01
2024-08-01 15:33:13.100198, 0.000131239, -0.785261, 6.05682e-05, -2.35582, 0.000352387, 1.5713, 0.785813, 0.01, 0.01
2024-08-01 15:33:13.101214, 0.000132366, -0.785259, 6.05676e-05, -2.35583, 0.000353405, 1.5713, 0.785816, 0.01, 0.01
2024-08-01 15:33:13.102166, 0.00013645, -0.785256, 5.2772e-05, -2.35582, 0.000349437, 1.57129, 0.785814, 0.01, 0.01
2024-08-01 15:33:13.103193, 0.000134471, -0.785259, 6.05673e-05, -2.35582, 0.000350455, 1.5713, 0.785814, 0.01, 0.01
2024-08-01 15:33:13.104202, 0.000134646, -0.785261, 5.80616e-05, -2.35583, 0.000350455, 1.5713, 0.785812, 0.01, 0.01
2024-08-01 15:33:13.105194, 0.000134704, -0.785256, 5.80616e-05, -2.35583, 0.000352387, 1.5713, 0.785811, 0.01, 0.01
2024-08-01 15:33:13.106199, 0.000134724, -0.785256, 5.80616e-05, -2.35582, 0.000350455, 1.5713, 0.785811, 0.01, 0.01
2024-08-01 15:33:13.107201, 0.000131946, -0.785261, 6.05672e-05, -2.35583, 0.000349437, 1.57129, 0.785813, 0.01, 0.01
2024-08-01 15:33:13.108132, 0.000134732, -0.785264, 5.52775e-05, -2.35583, 0.00035137, 1.5713, 0.785813, 0.01, 0.01
2024-08-01 15:33:13.109270, 0.000132603, -0.785266, 5.52775e-05, -2.35582, 0.000346242, 1.5713, 0.785812, 0.01, 0.01
2024-08-01 15:33:13.110220, 0.000131893, -0.785259, 6.01921e-05, -2.35582, 0.000351322, 1.5713, 0.785808, 0.01, 0.01
2024-08-01 15:33:13.111131, 0.000133787, -0.785256, 5.59877e-05, -2.35582, 0.000349082, 1.57129, 0.785812, 0.01, 0.01
2024-08-01 15:33:13.112363, 0.000129128, -0.785259, 5.82983e-05, -2.35583, 0.000348302, 1.57129, 0.78581, 0.01, 0.01
2024-08-01 15:33:13.113234, 0.000129714, -0.785261, 5.53564e-05, -2.35583, 0.000351331, 1.57129, 0.785811, 0.01, 0.01
2024-08-01 15:33:13.114196, 0.000134363, -0.785264, 5.53038e-05, -2.35583, 0.000351357, 1.5713, 0.785809, 0.01, 0.01
2024-08-01 15:33:13.115229, 0.000133775, -0.785264, 5.52863e-05, -2.35583, 0.00035045, 1.57129, 0.785812, 0.01, 0.01
2024-08-01 15:33:13.116213, 0.000134414, -0.785261, 6.05702e-05, -2.35583, 0.000351369, 1.57129, 0.785813, 0.01, 0.01
2024-08-01 15:33:13.117236, 0.000129712, -0.785264, 5.80626e-05, -2.35583, 0.00035137, 1.5713, 0.785815, 0.01, 0.01
2024-08-01 15:33:13.118198, 0.000136494, -0.785259, 5.52779e-05, -2.35583, 0.00035137, 1.57129, 0.785812, 0.01, 0.01
2024-08-01 15:33:13.119191, 0.000131701, -0.785259, 5.2772e-05, -2.35583, 0.000350455, 1.57129, 0.785811, 0.01, 0.01
2024-08-01 15:33:13.120239, 0.000134651, -0.785259, 5.52776e-05, -2.35583, 0.000350455, 1.5713, 0.785811, 0.01, 0.01
2024-08-01 15:33:13.121219, 0.000129416, -0.785259, 5.80616e-05, -2.35583, 0.000345224, 1.5713, 0.78581, 0.01, 0.01
2024-08-01 15:33:13.122172, 0.000129435, -0.785261, 5.80616e-05, -2.35583, 0.000349389, 1.5713, 0.785809, 0.01, 0.01
2024-08-01 15:33:13.123194, 0.000129441, -0.785256, 5.52775e-05, -2.35583, 0.000352032, 1.57129, 0.785811, 0.01, 0.01
2024-08-01 15:33:13.124213, 0.000131948, -0.785261, 5.52775e-05, -2.35583, 0.000348302, 1.57129, 0.785813, 0.01, 0.01
2024-08-01 15:33:13.125268, 0.000131949, -0.785261, 5.80616e-05, -2.35583, 0.000349152, 1.57129, 0.785812, 0.01, 0.01
2024-08-01 15:33:13.126236, 0.000131949, -0.785259, 5.52775e-05, -2.35583, 0.000350292, 1.5713, 0.785809, 0.01, 0.01
2024-08-01 15:33:13.127239, 0.000131949, -0.785259, 6.05672e-05, -2.35583, 0.000350095, 1.57129, 0.785809, 0.01, 0.01
2024-08-01 15:33:13.128222, 0.000134734, -0.785261, 5.52775e-05, -2.35583, 0.00035125, 1.57129, 0.785807, 0.01, 0.01
2024-08-01 15:33:13.129227, 0.000129819, -0.785261, 5.52775e-05, -2.35582, 0.000350415, 1.5713, 0.785812, 0.01, 0.01
2024-08-01 15:33:13.130243, 0.000131893, -0.785261, 5.52775e-05, -2.35583, 0.000350441, 1.5713, 0.785805, 0.01, 0.01
2024-08-01 15:33:13.131282, 0.000131003, -0.785259, 6.01921e-05, -2.35583, 0.00035045, 1.57129, 0.785806, 0.01, 0.01
2024-08-01 15:33:13.133474, 0.000134418, -0.785264, 5.87718e-05, -2.35583, 0.000352386, 1.5713, 0.785811, 0.01, 0.01
2024-08-01 15:33:13.133516, 0.000132498, -0.785261, 5.55143e-05, -2.35583, 0.00035137, 1.57129, 0.785811, 0.01, 0.01
2024-08-01 15:33:13.134251, 0.000136494, -0.785261, 5.53564e-05, -2.35583, 0.000349437, 1.5713, 0.78581, 0.01, 0.01
2024-08-01 15:33:13.135267, 0.000136991, -0.785261, 5.80879e-05, -2.35582, 0.000352387, 1.5713, 0.785808, 0.01, 0.01
2024-08-01 15:33:13.136247, 0.000135026, -0.785256, 6.27065e-05, -2.35582, 0.000350455, 1.57129, 0.785808, 0.01, 0.01
2024-08-01 15:33:13.137251, 0.000131212, -0.785261, 6.3786e-05, -2.35583, 0.00035137, 1.57129, 0.785811, 0.01, 0.01
2024-08-01 15:33:13.138238, 0.000129573, -0.785259, 5.55152e-05, -2.35582, 0.000349437, 1.5713, 0.78581, 0.01, 0.01
2024-08-01 15:33:13.139240, 0.000128652, -0.785256, 5.81408e-05, -2.35583, 0.000349437, 1.5713, 0.78581, 0.01, 0.01
2024-08-01 15:33:13.140232, 0.000134469, -0.785264, 6.05937e-05, -2.35582, 0.000350455, 1.57129, 0.78581, 0.01, 0.01
2024-08-01 15:33:13.141273, 0.000132515, -0.785259, 6.05761e-05, -2.35583, 0.000350455, 1.57129, 0.785807, 0.01, 0.01
2024-08-01 15:33:13.142200, 0.000133994, -0.785259, 5.80645e-05, -2.35583, 0.000350455, 1.57129, 0.785805, 0.01, 0.01
2024-08-01 15:33:13.143196, 0.000136993, -0.785256, 5.80626e-05, -2.35583, 0.000350455, 1.57129, 0.785808, 0.01, 0.01
2024-08-01 15:33:13.144197, 0.000131867, -0.785259, 5.52779e-05, -2.35583, 0.000350455, 1.5713, 0.785806, 0.01, 0.01
2024-08-01 15:33:13.145177, 0.000129792, -0.785264, 5.2772e-05, -2.35583, 0.00035137, 1.57129, 0.78581, 0.01, 0.01
2024-08-01 15:33:13.146211, 0.000128725, -0.785259, 5.80616e-05, -2.35582, 0.000352387, 1.57129, 0.785809, 0.01, 0.01
2024-08-01 15:33:13.147212, 0.000134869, -0.785259, 6.05673e-05, -2.35583, 0.000346242, 1.57129, 0.785809, 0.01, 0.01
2024-08-01 15:33:13.148228, 0.000131159, -0.785264, 5.74081e-05, -2.35583, 0.000348372, 1.5713, 0.78581, 0.01, 0.01
2024-08-01 15:33:13.149206, 0.000131686, -0.785259, 5.81182e-05, -2.35583, 0.000347819, 1.5713, 0.785807, 0.01, 0.01
2024-08-01 15:33:13.150200, 0.000137805, -0.785264, 5.62244e-05, -2.35583, 0.000350187, 1.57129, 0.78581, 0.01, 0.01
2024-08-01 15:33:13.151230, 0.000134369, -0.785259, 5.83772e-05, -2.35582, 0.000350976, 1.57129, 0.785807, 0.01, 0.01
2024-08-01 15:33:13.152221, 0.000128487, -0.785261, 6.06725e-05, -2.35583, 0.000351239, 1.57129, 0.785807, 0.01, 0.01
2024-08-01 15:33:13.153288, 0.000132284, -0.785256, 5.80967e-05, -2.35583, 0.000351326, 1.57129, 0.78581, 0.01, 0.01
2024-08-01 15:33:13.154252, 0.000136423, -0.785259, 5.27836e-05, -2.35582, 0.000352373, 1.5713, 0.78581, 0.01, 0.01
2024-08-01 15:33:13.155190, 0.000129172, -0.785256, 5.27758e-05, -2.35583, 0.00035045, 1.5713, 0.78581, 0.01, 0.01
2024-08-01 15:33:13.156191, 0.000129353, -0.785266, 6.05685e-05, -2.35583, 0.000351369, 1.57129, 0.785811, 0.01, 0.01
2024-08-01 15:33:13.157200, 0.000134703, -0.785261, 5.5278e-05, -2.35582, 0.00035137, 1.5713, 0.785809, 0.01, 0.01
2024-08-01 15:33:13.158245, 0.000131939, -0.785256, 6.05674e-05, -2.35583, 0.000352387, 1.57129, 0.785806, 0.01, 0.01
2024-08-01 15:33:13.159257, 0.0001326, -0.785261, 5.27719e-05, -2.35583, 0.000349437, 1.57129, 0.785806, 0.01, 0.01
2024-08-01 15:33:13.160242, 0.000134022, -0.785261, 5.80616e-05, -2.35582, 0.00035137, 1.5713, 0.785807, 0.01, 0.01
2024-08-01 15:33:13.161190, 0.000134496, -0.785256, 5.74081e-05, -2.35583, 0.000350455, 1.57129, 0.785812, 0.01, 0.01
2024-08-01 15:33:13.162167, 0.000134655, -0.785259, 5.59877e-05, -2.35583, 0.00035137, 1.57129, 0.78581, 0.01, 0.01
2024-08-01 15:33:13.163213, 0.000137213, -0.785259, 5.55143e-05, -2.35582, 0.00035137, 1.57129, 0.78581, 0.01, 0.01
2024-08-01 15:33:13.164240, 0.00013723, -0.785261, 5.81405e-05, -2.35583, 0.00035137, 1.57129, 0.785811, 0.01, 0.01
2024-08-01 15:33:13.165253, 0.000131947, -0.785259, 5.80879e-05, -2.35583, 0.00035137, 1.5713, 0.785809, 0.01, 0.01
2024-08-01 15:33:13.166251, 0.000134733, -0.785259, 6.0576e-05, -2.35583, 0.00035137, 1.57129, 0.785806, 0.01, 0.01
2024-08-01 15:33:13.167209, 0.000131949, -0.785261, 5.80645e-05, -2.35583, 0.000350455, 1.57129, 0.785806, 0.01, 0.01
2024-08-01 15:33:13.168202, 0.000131949, -0.785264, 5.80626e-05, -2.35583, 0.000350455, 1.57129, 0.785807, 0.01, 0.01
2024-08-01 15:33:13.169196, 0.000134734, -0.785258, 5.80619e-05, -2.35583, 0.00035137, 1.57129, 0.785812, 0.01, 0.01
2024-08-01 15:33:13.170202, 0.000134734, -0.785257, 5.52776e-05, -2.35583, 0.000349437, 1.57129, 0.785812, 0.01, 0.01
2024-08-01 15:33:13.171267, 0.000131949, -0.785259, 5.80616e-05, -2.35583, 0.000350455, 1.57129, 0.785812, 0.01, 0.01
2024-08-01 15:33:13.172258, 0.000134734, -0.785256, 5.52775e-05, -2.35582, 0.000350455, 1.57129, 0.785811, 0.01, 0.01
2024-08-01 15:33:13.173200, 0.000131949, -0.785264, 5.80616e-05, -2.35583, 0.000350455, 1.57129, 0.785809, 0.01, 0.01
2024-08-01 15:33:13.174126, 0.000129444, -0.785259, 5.80616e-05, -2.35582, 0.00035137, 1.5713, 0.785809, 0.01, 0.01
2024-08-01 15:33:13.175276, 0.000134734, -0.785259, 5.52775e-05, -2.35583, 0.00035137, 1.57129, 0.785809, 0.01, 0.01
2024-08-01 15:33:13.176194, 0.000134734, -0.785266, 5.80616e-05, -2.35583, 0.00035137, 1.5713, 0.785809, 0.01, 0.01
2024-08-01 15:33:13.177215, 0.000134734, -0.785259, 5.80616e-05, -2.35583, 0.000350455, 1.57129, 0.785812, 0.01, 0.01
2024-08-01 15:33:13.178192, 0.000129819, -0.785256, 5.27719e-05, -2.35582, 0.00035137, 1.57129, 0.785812, 0.01, 0.01
2024-08-01 15:33:13.179191, 0.000134398, -0.785258, 5.80616e-05, -2.35583, 0.00035137, 1.5713, 0.785814, 0.01, 0.01
2024-08-01 15:33:13.180196, 0.000131656, -0.785259, 5.80616e-05, -2.35583, 0.000350455, 1.57129, 0.785815, 0.01, 0.01
2024-08-01 15:33:13.181201, 0.000128793, -0.785261, 5.80616e-05, -2.35583, 0.000349437, 1.5713, 0.785809, 0.01, 0.01
2024-08-01 15:33:13.182167, 0.000130897, -0.785264, 5.74081e-05, -2.35583, 0.00035137, 1.57129, 0.785807, 0.01, 0.01
2024-08-01 15:33:13.183197, 0.000134383, -0.785259, 5.87718e-05, -2.35583, 0.000350455, 1.57129, 0.785809, 0.01, 0.01
2024-08-01 15:33:13.184166, 0.000131833, -0.785258, 5.82983e-05, -2.35583, 0.000350455, 1.57129, 0.785812, 0.01, 0.01
2024-08-01 15:33:13.185196, 0.000131911, -0.785262, 5.81405e-05, -2.35583, 0.000347259, 1.57129, 0.785812, 0.01, 0.01
2024-08-01 15:33:13.186202, 0.000134721, -0.785261, 6.02184e-05, -2.35583, 0.000349389, 1.57129, 0.785812, 0.01, 0.01
2024-08-01 15:33:13.187204, 0.000134729, -0.785259, 5.87805e-05, -2.35583, 0.000349082, 1.5713, 0.785812, 0.01, 0.01
2024-08-01 15:33:13.188193, 0.000132602, -0.785261, 5.83012e-05, -2.35583, 0.00034714, 1.5713, 0.785814, 0.01, 0.01
2024-08-01 15:33:13.189192, 0.000128733, -0.785253, 5.81415e-05, -2.35583, 0.000350265, 1.57129, 0.78581, 0.01, 0.01
2024-08-01 15:33:13.190221, 0.000131713, -0.785264, 5.53042e-05, -2.35583, 0.000351002, 1.57129, 0.785806, 0.01, 0.01
2024-08-01 15:33:13.191194, 0.000131871, -0.785266, 5.27808e-05, -2.35583, 0.000352265, 1.57129, 0.785809, 0.01, 0.01
2024-08-01 15:33:13.192201, 0.000132577, -0.785259, 5.80646e-05, -2.35583, 0.000351329, 1.57129, 0.785809, 0.01, 0.01
2024-08-01 15:33:13.193193, 0.000131884, -0.785259, 5.52785e-05, -2.35583, 0.000352374, 1.5713, 0.785812, 0.01, 0.01
2024-08-01 15:33:13.194188, 0.000136289, -0.785259, 5.52779e-05, -2.35583, 0.000348416, 1.57129, 0.785812, 0.01, 0.01
2024-08-01 15:33:13.195189, 0.000132286, -0.785259, 5.80617e-05, -2.35583, 0.000349436, 1.5713, 0.785812, 0.01, 0.01
2024-08-01 15:33:13.196197, 0.000136423, -0.785261, 5.80616e-05, -2.35582, 0.000350454, 1.5713, 0.785809, 0.01, 0.01
2024-08-01 15:33:13.197193, 0.000134462, -0.785259, 5.80616e-05, -2.35582, 0.000352387, 1.57129, 0.785809, 0.01, 0.01
2024-08-01 15:33:13.198192, 0.000131859, -0.785256, 5.52775e-05, -2.35582, 0.000350455, 1.5713, 0.78581, 0.01, 0.01
2024-08-01 15:33:13.199190, 0.000137209, -0.785261, 5.52775e-05, -2.35583, 0.000349437, 1.57129, 0.785811, 0.01, 0.01
2024-08-01 15:33:13.200192, 0.000127303, -0.785261, 5.52775e-05, -2.35583, 0.00035137, 1.57129, 0.785812, 0.01, 0.01
2024-08-01 15:33:13.201191, 0.00013402, -0.785264, 5.80616e-05, -2.35583, 0.00035432, 1.57129, 0.785809, 0.01, 0.01
2024-08-01 15:33:13.202170, 0.000134496, -0.785259, 5.52775e-05, -2.35582, 0.000352387, 1.57129, 0.785812, 0.01, 0.01
2024-08-01 15:33:13.203210, 0.000134654, -0.785261, 6.05672e-05, -2.35583, 0.000350455, 1.5713, 0.785811, 0.01, 0.01
2024-08-01 15:33:13.204194, 0.000134707, -0.785256, 5.52775e-05, -2.35583, 0.00035137, 1.5713, 0.78581, 0.01, 0.01
2024-08-01 15:33:13.205193, 0.000131941, -0.785261, 5.27719e-05, -2.35583, 0.000350455, 1.57129, 0.785811, 0.01, 0.01
2024-08-01 15:33:13.206193, 0.000129816, -0.785269, 5.52775e-05, -2.35583, 0.000350455, 1.5713, 0.785814, 0.01, 0.01
2024-08-01 15:33:13.207197, 0.000134022, -0.785261, 5.80616e-05, -2.35583, 0.00035137, 1.57129, 0.785811, 0.01, 0.01
2024-08-01 15:33:13.208201, 0.000132366, -0.785262, 5.52775e-05, -2.35583, 0.000352387, 1.5713, 0.785815, 0.01, 0.01
2024-08-01 15:33:13.209192, 0.00012903, -0.785259, 5.52775e-05, -2.35582, 0.00035137, 1.57129, 0.785811, 0.01, 0.01
2024-08-01 15:33:13.210220, 0.000128846, -0.785259, 5.80616e-05, -2.35583, 0.000350455, 1.57129, 0.785813, 0.01, 0.01
2024-08-01 15:33:13.211197, 0.000133699, -0.785261, 6.05672e-05, -2.35582, 0.000350455, 1.57129, 0.785813, 0.01, 0.01
2024-08-01 15:33:13.212199, 0.000134389, -0.785259, 5.80616e-05, -2.35582, 0.000347259, 1.5713, 0.785811, 0.01, 0.01
2024-08-01 15:33:13.213231, 0.000129704, -0.785259, 5.52775e-05, -2.35582, 0.000350305, 1.57129, 0.785809, 0.01, 0.01
2024-08-01 15:33:13.214288, 0.000133985, -0.785259, 5.80616e-05, -2.35582, 0.000349082, 1.5713, 0.785809, 0.01, 0.01
2024-08-01 15:33:13.215226, 0.000132354, -0.785261, 6.05672e-05, -2.35583, 0.000346123, 1.57129, 0.785812, 0.01, 0.01
2024-08-01 15:33:13.216208, 0.000131156, -0.785262, 5.52775e-05, -2.35583, 0.000350265, 1.57129, 0.78581, 0.01, 0.01
2024-08-01 15:33:13.217202, 0.000134469, -0.785261, 5.80616e-05, -2.35583, 0.000352019, 1.57129, 0.78581, 0.01, 0.01
2024-08-01 15:33:13.218203, 0.000131861, -0.785251, 5.52775e-05, -2.35583, 0.000348052, 1.57129, 0.785807, 0.01, 0.01
2024-08-01 15:33:13.219198, 0.00012979, -0.785264, 5.80616e-05, -2.35583, 0.000347314, 1.5713, 0.78581, 0.01, 0.01
2024-08-01 15:33:13.220238, 0.000129099, -0.785259, 6.05672e-05, -2.35582, 0.000350086, 1.5713, 0.785808, 0.01, 0.01
2024-08-01 15:33:13.221261, 0.000128869, -0.785259, 5.80616e-05, -2.35583, 0.000349314, 1.5713, 0.785806, 0.01, 0.01
2024-08-01 15:33:13.222215, 0.000128417, -0.785261, 5.80616e-05, -2.35582, 0.000350414, 1.57129, 0.785808, 0.01, 0.01
2024-08-01 15:33:13.223175, 0.000134391, -0.785261, 5.80616e-05, -2.35583, 0.000351356, 1.5713, 0.785809, 0.01, 0.01
2024-08-01 15:33:13.224201, 0.000131835, -0.785264, 5.52775e-05, -2.35583, 0.000347254, 1.5713, 0.785809, 0.01, 0.01
2024-08-01 15:33:13.225237, 0.000134696, -0.785261, 6.05672e-05, -2.35582, 0.000345175, 1.57129, 0.785809, 0.01, 0.01
2024-08-01 15:33:13.226269, 0.000129806, -0.785261, 6.05672e-05, -2.35582, 0.000348017, 1.57129, 0.785808, 0.01, 0.01
2024-08-01 15:33:13.227221, 0.000131235, -0.785261, 5.52775e-05, -2.35583, 0.000348964, 1.5713, 0.785809, 0.01, 0.01
2024-08-01 15:33:13.228213, 0.000134495, -0.785259, 5.52775e-05, -2.35583, 0.00034928, 1.57129, 0.785808, 0.01, 0.01
2024-08-01 15:33:13.229197, 0.000134654, -0.785259, 5.80616e-05, -2.35582, 0.000351318, 1.5713, 0.785808, 0.01, 0.01
2024-08-01 15:33:13.230251, 0.000127287, -0.785261, 5.80616e-05, -2.35583, 0.00034942, 1.5713, 0.785811, 0.01, 0.01
2024-08-01 15:33:13.231235, 0.0001291, -0.785261, 5.52775e-05, -2.35583, 0.000350449, 1.5713, 0.78581, 0.01, 0.01
2024-08-01 15:33:13.232211, 0.000131, -0.785261, 6.01921e-05, -2.35582, 0.000349435, 1.57129, 0.785809, 0.01, 0.01
2024-08-01 15:33:13.233204, 0.000132286, -0.785264, 6.12774e-05, -2.35583, 0.000348419, 1.57129, 0.785808, 0.01, 0.01
2024-08-01 15:33:13.234212, 0.000131134, -0.785264, 5.82983e-05, -2.35583, 0.000350454, 1.57129, 0.785806, 0.01, 0.01
2024-08-01 15:33:13.235246, 0.000129547, -0.785259, 5.53564e-05, -2.35583, 0.000349437, 1.57129, 0.785806, 0.01, 0.01
2024-08-01 15:33:13.236226, 0.000133933, -0.785259, 6.05935e-05, -2.35583, 0.00034842, 1.5713, 0.785804, 0.01, 0.01
2024-08-01 15:33:13.237198, 0.000131683, -0.785259, 5.80704e-05, -2.35583, 0.000349437, 1.57129, 0.785802, 0.01, 0.01
2024-08-01 15:33:13.238212, 0.00013715, -0.785264, 5.27748e-05, -2.35583, 0.000350455, 1.57129, 0.785806, 0.01, 0.01
2024-08-01 15:33:13.239253, 0.000134704, -0.785261, 5.80626e-05, -2.35583, 0.000349437, 1.5713, 0.785808, 0.01, 0.01
2024-08-01 15:33:13.240953, 0.00013194, -0.785256, 5.80619e-05, -2.35583, 0.00035137, 1.5713, 0.785811, 0.01, 0.01
2024-08-01 15:33:13.241202, 0.00012731, -0.785259, 5.80617e-05, -2.35583, 0.000349437, 1.57129, 0.785809, 0.01, 0.01
2024-08-01 15:33:13.242215, 0.000131892, -0.785256, 6.05673e-05, -2.35583, 0.000350455, 1.5713, 0.785809, 0.01, 0.01
2024-08-01 15:33:13.243230, 0.000134161, -0.785259, 5.80616e-05, -2.35583, 0.000350455, 1.5713, 0.785807, 0.01, 0.01
2024-08-01 15:33:13.244242, 0.000128418, -0.785261, 5.52775e-05, -2.35583, 0.000350455, 1.57129, 0.785806, 0.01, 0.01
2024-08-01 15:33:13.245244, 0.000131607, -0.785259, 6.05672e-05, -2.35583, 0.000346242, 1.57129, 0.785807, 0.01, 0.01
2024-08-01 15:33:13.246251, 0.000131835, -0.785256, 5.52775e-05, -2.35582, 0.000350305, 1.57129, 0.785809, 0.01, 0.01
2024-08-01 15:33:13.247236, 0.000131911, -0.785264, 5.80616e-05, -2.35583, 0.0003501, 1.57129, 0.785808, 0.01, 0.01
2024-08-01 15:33:13.248308, 0.000134721, -0.785261, 5.52775e-05, -2.35583, 0.000349319, 1.57129, 0.78581, 0.01, 0.01
2024-08-01 15:33:13.249296, 0.000131945, -0.785259, 6.05672e-05, -2.35583, 0.000350415, 1.5713, 0.78581, 0.01, 0.01
2024-08-01 15:33:13.250243, 0.000129818, -0.785264, 5.80616e-05, -2.35583, 0.000349424, 1.57129, 0.785811, 0.01, 0.01
2024-08-01 15:33:13.251218, 0.000131892, -0.785259, 5.52775e-05, -2.35583, 0.000349433, 1.57129, 0.785808, 0.01, 0.01
2024-08-01 15:33:13.252284, 0.000128497, -0.785261, 5.80616e-05, -2.35583, 0.000350453, 1.57129, 0.785808, 0.01, 0.01
2024-08-01 15:33:13.253204, 0.000131634, -0.785266, 6.05672e-05, -2.35582, 0.000350454, 1.5713, 0.78581, 0.01, 0.01
2024-08-01 15:33:13.254264, 0.000131844, -0.785266, 5.80616e-05, -2.35582, 0.00034842, 1.57129, 0.785812, 0.01, 0.01
2024-08-01 15:33:13.255220, 0.000134698, -0.785264, 5.80616e-05, -2.35582, 0.000347259, 1.57129, 0.785811, 0.01, 0.01
2024-08-01 15:33:13.256237, 0.000134722, -0.785261, 5.80616e-05, -2.35583, 0.000352339, 1.5713, 0.785812, 0.01, 0.01
2024-08-01 15:33:13.257228, 0.00013473, -0.785259, 5.80616e-05, -2.35582, 0.000351015, 1.5713, 0.785809, 0.01, 0.01
2024-08-01 15:33:13.258208, 0.000131948, -0.785259, 5.80616e-05, -2.35583, 0.000352269, 1.5713, 0.785812, 0.01, 0.01
2024-08-01 15:33:13.259189, 0.000140023, -0.785266, 5.27719e-05, -2.35583, 0.000349398, 1.57129, 0.785812, 0.01, 0.01
2024-08-01 15:33:13.260190, 0.000131949, -0.785262, 5.52775e-05, -2.35583, 0.000349424, 1.57129, 0.785809, 0.01, 0.01
2024-08-01 15:33:13.261188, 0.000134733, -0.785251, 6.05672e-05, -2.35583, 0.00035045, 1.5713, 0.785809, 0.01, 0.01
2024-08-01 15:33:13.262174, 0.000134734, -0.785264, 5.80616e-05, -2.35583, 0.000349436, 1.57129, 0.78581, 0.01, 0.01
2024-08-01 15:33:13.263264, 0.000134734, -0.785259, 5.80616e-05, -2.35583, 0.000349437, 1.57129, 0.785813, 0.01, 0.01
2024-08-01 15:33:13.264210, 0.000134734, -0.785253, 5.80616e-05, -2.35582, 0.000350454, 1.57129, 0.785813, 0.01, 0.01
2024-08-01 15:33:13.265214, 0.000132603, -0.785256, 5.80616e-05, -2.35583, 0.000348174, 1.5713, 0.785812, 0.01, 0.01
2024-08-01 15:33:13.266138, 0.000131239, -0.785259, 5.80616e-05, -2.35583, 0.000350305, 1.57129, 0.785812, 0.01, 0.01
2024-08-01 15:33:13.267279, 0.000137002, -0.785261, 5.52775e-05, -2.35583, 0.000349082, 1.5713, 0.785809, 0.01, 0.01
2024-08-01 15:33:13.268207, 0.000132524, -0.785263, 5.80616e-05, -2.35583, 0.000351252, 1.5713, 0.785811, 0.01, 0.01
2024-08-01 15:33:13.269231, 0.000136503, -0.785259, 5.80616e-05, -2.35583, 0.000351331, 1.57129, 0.785811, 0.01, 0.01
2024-08-01 15:33:13.270243, 0.000131704, -0.785265, 5.52775e-05, -2.35583, 0.000348161, 1.57129, 0.785809, 0.01, 0.01
2024-08-01 15:33:13.272518, 0.000134652, -0.785261, 5.80616e-05, -2.35583, 0.000348368, 1.5713, 0.785812, 0.01, 0.01
2024-08-01 15:33:13.272536, 0.000134706, -0.785261, 6.05672e-05, -2.35583, 0.000349081, 1.57129, 0.785814, 0.01, 0.01
2024-08-01 15:33:13.273178, 0.000134724, -0.785259, 5.52775e-05, -2.35583, 0.000349319, 1.57129, 0.785811, 0.01, 0.01
2024-08-01 15:33:13.274197, 0.000131946, -0.785259, 5.52775e-05, -2.35582, 0.000350415, 1.5713, 0.785812, 0.01, 0.01
2024-08-01 15:33:13.275191, 0.000131948, -0.785264, 6.05672e-05, -2.35583, 0.000347246, 1.57129, 0.785809, 0.01, 0.01
2024-08-01 15:33:13.276185, 0.000134733, -0.785259, 5.52775e-05, -2.35582, 0.000351318, 1.57129, 0.78581, 0.01, 0.01
2024-08-01 15:33:13.277189, 0.000129819, -0.785261, 5.80616e-05, -2.35582, 0.000350098, 1.5713, 0.785807, 0.01, 0.01
2024-08-01 15:33:13.278186, 0.000131239, -0.785256, 5.80616e-05, -2.35582, 0.000352269, 1.57129, 0.785808, 0.01, 0.01
2024-08-01 15:33:13.279185, 0.000137002, -0.785261, 5.80616e-05, -2.35583, 0.000350415, 1.5713, 0.785814, 0.01, 0.01
2024-08-01 15:33:13.280195, 0.00012974, -0.785253, 5.52775e-05, -2.35583, 0.000348407, 1.5713, 0.785813, 0.01, 0.01
2024-08-01 15:33:13.281188, 0.000131867, -0.785264, 5.80616e-05, -2.35583, 0.000351366, 1.57129, 0.785809, 0.01, 0.01
2024-08-01 15:33:13.282164, 0.000133778, -0.785256, 5.80616e-05, -2.35582, 0.000350453, 1.5713, 0.785804, 0.01, 0.01
2024-08-01 15:33:13.283185, 0.000134415, -0.785264, 5.02662e-05, -2.35583, 0.00035137, 1.5713, 0.785809, 0.01, 0.01
2024-08-01 15:33:13.284161, 0.000137133, -0.785259, 5.52775e-05, -2.35583, 0.00035137, 1.5713, 0.785809, 0.01, 0.01
2024-08-01 15:33:13.285193, 0.000131914, -0.785266, 5.52775e-05, -2.35583, 0.00035137, 1.57129, 0.78581, 0.01, 0.01
2024-08-01 15:33:13.286194, 0.000134722, -0.785259, 5.52775e-05, -2.35582, 0.000350455, 1.57129, 0.785811, 0.01, 0.01
2024-08-01 15:33:13.287186, 0.00013473, -0.785259, 5.27719e-05, -2.35583, 0.00035137, 1.5713, 0.785812, 0.01, 0.01
2024-08-01 15:33:13.288185, 0.000134732, -0.785266, 6.05672e-05, -2.35583, 0.000350455, 1.57129, 0.785812, 0.01, 0.01
2024-08-01 15:33:13.289187, 0.000134733, -0.785259, 5.80616e-05, -2.35583, 0.00035137, 1.57129, 0.785811, 0.01, 0.01
2024-08-01 15:33:13.290211, 0.000131949, -0.785259, 5.52775e-05, -2.35582, 0.000347259, 1.57129, 0.785807, 0.01, 0.01
2024-08-01 15:33:13.291195, 0.000132603, -0.785259, 5.52775e-05, -2.35583, 0.000348126, 1.57129, 0.785808, 0.01, 0.01
2024-08-01 15:33:13.292186, 0.000134023, -0.785259, 5.80616e-05, -2.35583, 0.000347, 1.57129, 0.785809, 0.01, 0.01
2024-08-01 15:33:13.293189, 0.000131713, -0.785266, 5.52775e-05, -2.35582, 0.000350897, 1.57129, 0.785813, 0.01, 0.01
2024-08-01 15:33:13.294191, 0.000129365, -0.785264, 5.52775e-05, -2.35583, 0.000348017, 1.5713, 0.785812, 0.01, 0.01
2024-08-01 15:33:13.295187, 0.000135082, -0.785261, 6.01921e-05, -2.35582, 0.000349337, 1.57129, 0.785812, 0.01, 0.01
2024-08-01 15:33:13.296117, 0.000131231, -0.785256, 5.59877e-05, -2.35582, 0.000349065, 1.5713, 0.785813, 0.01, 0.01
2024-08-01 15:33:13.297271, 0.000134494, -0.785256, 5.55143e-05, -2.35583, 0.000348296, 1.5713, 0.785809, 0.01, 0.01
2024-08-01 15:33:13.298190, 0.000134654, -0.785263, 5.81405e-05, -2.35583, 0.000349396, 1.57129, 0.785809, 0.01, 0.01
2024-08-01 15:33:13.299186, 0.000134707, -0.785259, 5.80879e-05, -2.35582, 0.000350441, 1.5713, 0.785809, 0.01, 0.01
2024-08-01 15:33:13.300185, 0.000134725, -0.785261, 5.52863e-05, -2.35582, 0.000349433, 1.57129, 0.785809, 0.01, 0.01
2024-08-01 15:33:13.301186, 0.000131947, -0.785261, 5.52805e-05, -2.35583, 0.000350453, 1.5713, 0.785813, 0.01, 0.01
2024-08-01 15:33:13.302168, 0.000131948, -0.785259, 5.80626e-05, -2.35583, 0.000350454, 1.57129, 0.785813, 0.01, 0.01
2024-08-01 15:33:13.303187, 0.000131949, -0.785264, 5.80619e-05, -2.35583, 0.00035137, 1.57129, 0.785812, 0.01, 0.01
2024-08-01 15:33:13.304187, 0.000137239, -0.785259, 5.80617e-05, -2.35583, 0.000345224, 1.5713, 0.785809, 0.01, 0.01
2024-08-01 15:33:13.305190, 0.000137239, -0.785261, 6.05673e-05, -2.35582, 0.000349389, 1.57129, 0.785807, 0.01, 0.01
2024-08-01 15:33:13.306192, 0.000134734, -0.785256, 5.52775e-05, -2.35583, 0.000351015, 1.5713, 0.78581, 0.01, 0.01
2024-08-01 15:33:13.307192, 0.000131949, -0.785256, 5.52775e-05, -2.35583, 0.00034714, 1.57129, 0.78581, 0.01, 0.01
2024-08-01 15:33:13.308185, 0.000129819, -0.785269, 5.80616e-05, -2.35582, 0.000350265, 1.57129, 0.785812, 0.01, 0.01
2024-08-01 15:33:13.309187, 0.000131893, -0.785262, 5.80616e-05, -2.35583, 0.000351002, 1.57129, 0.785812, 0.01, 0.01
2024-08-01 15:33:13.310208, 0.000133787, -0.785261, 5.80616e-05, -2.35583, 0.000349315, 1.57129, 0.785811, 0.01, 0.01
2024-08-01 15:33:13.311183, 0.000134418, -0.785259, 5.80616e-05, -2.35582, 0.000346201, 1.5713, 0.785811, 0.01, 0.01
2024-08-01 15:33:13.312183, 0.000134628, -0.785261, 5.52775e-05, -2.35583, 0.000351308, 1.5713, 0.785805, 0.01, 0.01
2024-08-01 15:33:13.313192, 0.000126903, -0.785253, 5.80616e-05, -2.35583, 0.000352028, 1.57129, 0.785811, 0.01, 0.01
2024-08-01 15:33:13.314206, 0.000134722, -0.785261, 5.80616e-05, -2.35583, 0.000352268, 1.57129, 0.785816, 0.01, 0.01
2024-08-01 15:33:13.315265, 0.000131946, -0.785259, 5.80616e-05, -2.35582, 0.000352347, 1.5713, 0.785811, 0.01, 0.01
2024-08-01 15:33:13.316194, 0.000129443, -0.785266, 5.80616e-05, -2.35582, 0.000350441, 1.5713, 0.785812, 0.01, 0.01
2024-08-01 15:33:13.317189, 0.000131949, -0.785261, 5.27719e-05, -2.35583, 0.0003534, 1.57129, 0.785812, 0.01, 0.01
2024-08-01 15:33:13.318189, 0.000129819, -0.785259, 5.52775e-05, -2.35582, 0.000350453, 1.57129, 0.785814, 0.01, 0.01
2024-08-01 15:33:13.319232, 0.000126603, -0.785259, 6.05672e-05, -2.35583, 0.000349437, 1.57129, 0.785807, 0.01, 0.01
2024-08-01 15:33:13.320186, 0.000131003, -0.785256, 6.05672e-05, -2.35583, 0.00035137, 1.57129, 0.785807, 0.01, 0.01
2024-08-01 15:33:13.321194, 0.000131634, -0.785266, 5.80616e-05, -2.35582, 0.000350455, 1.57129, 0.785808, 0.01, 0.01
2024-08-01 15:33:13.322158, 0.000134628, -0.785261, 5.80616e-05, -2.35583, 0.000349437, 1.5713, 0.785811, 0.01, 0.01
2024-08-01 15:33:13.323194, 0.000134698, -0.785261, 5.27719e-05, -2.35583, 0.00035137, 1.57129, 0.785814, 0.01, 0.01
2024-08-01 15:33:13.324241, 0.000129432, -0.785264, 6.01921e-05, -2.35583, 0.000350455, 1.57129, 0.785811, 0.01, 0.01
2024-08-01 15:33:13.325188, 0.00013473, -0.785256, 5.87718e-05, -2.35583, 0.000350455, 1.5713, 0.785809, 0.01, 0.01
2024-08-01 15:33:13.326114, 0.000129443, -0.785261, 6.0804e-05, -2.35582, 0.000348174, 1.57129, 0.785807, 0.01, 0.01
2024-08-01 15:33:13.327287, 0.000134733, -0.785264, 5.81405e-05, -2.35583, 0.000346439, 1.5713, 0.785811, 0.01, 0.01
2024-08-01 15:33:13.328260, 0.000134733, -0.785256, 5.53038e-05, -2.35583, 0.0003501, 1.57129, 0.78581, 0.01, 0.01
2024-08-01 15:33:13.329205, 0.000131949, -0.785259, 5.80704e-05, -2.35582, 0.000352269, 1.57129, 0.785814, 0.01, 0.01
2024-08-01 15:33:13.330228, 0.000132603, -0.785259, 5.52805e-05, -2.35583, 0.000350415, 1.57129, 0.785813, 0.01, 0.01
2024-08-01 15:33:13.331209, 0.000131893, -0.785261, 5.80626e-05, -2.35583, 0.000350441, 1.57129, 0.785808, 0.01, 0.01
2024-08-01 15:33:13.332151, 0.000136292, -0.785264, 5.80619e-05, -2.35583, 0.000351366, 1.57129, 0.785808, 0.01, 0.01
2024-08-01 15:33:13.333315, 0.000134418, -0.785261, 5.80617e-05, -2.35583, 0.000350453, 1.57129, 0.785807, 0.01, 0.01
2024-08-01 15:33:13.334284, 0.000134628, -0.785262, 6.05673e-05, -2.35583, 0.000352387, 1.5713, 0.785812, 0.01, 0.01
2024-08-01 15:33:13.335321, 0.000134698, -0.785258, 5.52775e-05, -2.35582, 0.000349437, 1.57129, 0.78581, 0.01, 0.01
2024-08-01 15:33:13.336244, 0.000134722, -0.785257, 6.05673e-05, -2.35583, 0.000349437, 1.5713, 0.785813, 0.01, 0.01
2024-08-01 15:33:13.337229, 0.00013473, -0.785259, 5.80616e-05, -2.35583, 0.000345224, 1.57129, 0.785811, 0.01, 0.01
2024-08-01 15:33:13.338223, 0.000131948, -0.785259, 5.52775e-05, -2.35583, 0.000350305, 1.57129, 0.785813, 0.01, 0.01
2024-08-01 15:33:13.339277, 0.000134733, -0.785256, 5.80616e-05, -2.35583, 0.000351015, 1.57129, 0.785809, 0.01, 0.01
2024-08-01 15:33:13.340257, 0.000134733, -0.785264, 5.80616e-05, -2.35583, 0.000349319, 1.5713, 0.785806, 0.01, 0.01
2024-08-01 15:33:13.341226, 0.000131949, -0.785264, 5.80616e-05, -2.35583, 0.000349398, 1.57129, 0.785813, 0.01, 0.01
2024-08-01 15:33:13.342195, 0.000134734, -0.785261, 5.80616e-05, -2.35583, 0.000349424, 1.57129, 0.785811, 0.01, 0.01
2024-08-01 15:33:13.343219, 0.000134734, -0.785261, 5.80616e-05, -2.35583, 0.000349433, 1.5713, 0.785812, 0.01, 0.01
2024-08-01 15:33:13.344223, 0.000129819, -0.785259, 5.52775e-05, -2.35582, 0.000350453, 1.5713, 0.785811, 0.01, 0.01
2024-08-01 15:33:13.345398, 0.000131239, -0.785259, 5.52775e-05, -2.35582, 0.00035137, 1.5713, 0.785811, 0.01, 0.01
2024-08-01 15:33:13.346255, 0.000134497, -0.785261, 5.52775e-05, -2.35583, 0.000349437, 1.5713, 0.785811, 0.01, 0.01
2024-08-01 15:33:13.347199, 0.000134655, -0.785261, 5.52775e-05, -2.35583, 0.000348174, 1.57129, 0.785808, 0.01, 0.01
2024-08-01 15:33:13.348184, 0.000135082, -0.785259, 5.52775e-05, -2.35583, 0.000350305, 1.57129, 0.785811, 0.01, 0.01
2024-08-01 15:33:13.349185, 0.000134015, -0.785256, 5.80616e-05, -2.35583, 0.000349082, 1.57129, 0.78581, 0.01, 0.01
2024-08-01 15:33:13.350182, 0.000132363, -0.785261, 5.52775e-05, -2.35583, 0.000350336, 1.5713, 0.785813, 0.01, 0.01
2024-08-01 15:33:13.351216, 0.000131159, -0.785261, 5.27719e-05, -2.35582, 0.000348135, 1.57129, 0.785812, 0.01, 0.01
2024-08-01 15:33:13.352269, 0.000131686, -0.785261, 5.52775e-05, -2.35583, 0.000347342, 1.57129, 0.78581, 0.01, 0.01
2024-08-01 15:33:13.353205, 0.000134646, -0.785261, 5.52775e-05, -2.35583, 0.000351011, 1.5713, 0.785808, 0.01, 0.01
2024-08-01 15:33:13.354184, 0.00013192, -0.785264, 5.80616e-05, -2.35583, 0.000350335, 1.57129, 0.785809, 0.01, 0.01
2024-08-01 15:33:13.355185, 0.00013194, -0.785259, 5.80616e-05, -2.35583, 0.000350415, 1.57129, 0.785812, 0.01, 0.01
2024-08-01 15:33:13.356232, 0.000137236, -0.785261, 6.05672e-05, -2.35583, 0.000350441, 1.5713, 0.785815, 0.01, 0.01
2024-08-01 15:33:13.357239, 0.000132602, -0.785266, 5.80616e-05, -2.35583, 0.000351366, 1.5713, 0.785811, 0.01, 0.01
2024-08-01 15:33:13.358350, 0.000129108, -0.785261, 5.80616e-05, -2.35583, 0.000352386, 1.5713, 0.785815, 0.01, 0.01
2024-08-01 15:33:13.359289, 0.000136292, -0.785259, 5.52775e-05, -2.35583, 0.000350454, 1.57129, 0.78581, 0.01, 0.01
2024-08-01 15:33:13.360247, 0.000134418, -0.785261, 6.05672e-05, -2.35583, 0.000350454, 1.5713, 0.785809, 0.01, 0.01
2024-08-01 15:33:13.361250, 0.000131844, -0.785264, 5.80616e-05, -2.35583, 0.000349437, 1.5713, 0.78581, 0.01, 0.01
2024-08-01 15:33:13.362164, 0.000137204, -0.785264, 5.80616e-05, -2.35582, 0.00035137, 1.57129, 0.785812, 0.01, 0.01
2024-08-01 15:33:13.363193, 0.000129432, -0.785264, 5.52775e-05, -2.35583, 0.00035137, 1.57129, 0.785812, 0.01, 0.01
2024-08-01 15:33:13.364180, 0.000137235, -0.785261, 5.80616e-05, -2.35583, 0.00035137, 1.57129, 0.785812, 0.01, 0.01
2024-08-01 15:33:13.365203, 0.000132602, -0.785256, 5.80616e-05, -2.35583, 0.000350455, 1.57129, 0.785809, 0.01, 0.01
2024-08-01 15:33:13.366211, 0.000134023, -0.785261, 5.52775e-05, -2.35583, 0.000350455, 1.57129, 0.785809, 0.01, 0.01
2024-08-01 15:33:13.367219, 0.000131713, -0.785261, 5.52775e-05, -2.35583, 0.00035137, 1.5713, 0.78581, 0.01, 0.01
2024-08-01 15:33:13.368206, 0.000132524, -0.785259, 5.52775e-05, -2.35583, 0.000350455, 1.57129, 0.785811, 0.01, 0.01
2024-08-01 15:33:13.369188, 0.000133997, -0.785261, 5.80616e-05, -2.35583, 0.00035137, 1.57129, 0.785814, 0.01, 0.01
2024-08-01 15:33:13.370192, 0.000134488, -0.785259, 5.84367e-05, -2.35583, 0.000349437, 1.57129, 0.785812, 0.01, 0.01
2024-08-01 15:33:13.371191, 0.000134652, -0.785259, 5.45674e-05, -2.35583, 0.000350455, 1.5713, 0.785813, 0.01, 0.01
2024-08-01 15:33:13.372181, 0.000134706, -0.785259, 5.25352e-05, -2.35583, 0.000349437, 1.57129, 0.785813, 0.01, 0.01
2024-08-01 15:33:13.373184, 0.00012981, -0.785261, 5.83578e-05, -2.35583, 0.000352387, 1.57129, 0.78581, 0.01, 0.01
2024-08-01 15:33:13.374181, 0.00013402, -0.785253, 5.51946e-05, -2.35582, 0.000349437, 1.5713, 0.785809, 0.01, 0.01
2024-08-01 15:33:13.375183, 0.000132365, -0.785261, 5.21913e-05, -2.35583, 0.000352387, 1.57129, 0.785811, 0.01, 0.01
2024-08-01 15:33:13.376182, 0.000131814, -0.785261, 5.42488e-05, -2.35583, 0.00035137, 1.57129, 0.785811, 0.01, 0.01
2024-08-01 15:33:13.377182, 0.000134135, -0.785261, 5.55882e-05, -2.35582, 0.000349437, 1.57129, 0.785813, 0.01, 0.01
2024-08-01 15:33:13.378185, 0.000133699, -0.785261, 5.76122e-05, -2.35582, 0.000349437, 1.57129, 0.785813, 0.01, 0.01
2024-08-01 15:33:13.379188, 0.000134389, -0.785259, 5.2162e-05, -2.35583, 0.000350455, 1.57129, 0.785812, 0.01, 0.01
2024-08-01 15:33:13.380184, 0.000131835, -0.785263, 5.95287e-05, -2.35583, 0.00035137, 1.5713, 0.78581, 0.01, 0.01
2024-08-01 15:33:13.381183, 0.000131911, -0.785259, 5.49314e-05, -2.35583, 0.00035137, 1.57129, 0.785809, 0.01, 0.01
2024-08-01 15:33:13.382160, 0.000131937, -0.785259, 5.4787e-05, -2.35582, 0.000349437, 1.57129, 0.78581, 0.01, 0.01
2024-08-01 15:33:13.383183, 0.000137235, -0.785259, 5.59492e-05, -2.35583, 0.00035137, 1.57129, 0.785812, 0.01, 0.01
2024-08-01 15:33:13.384187, 0.000129442, -0.785264, 6.0416e-05, -2.35583, 0.000350455, 1.57129, 0.785812, 0.01, 0.01
2024-08-01 15:33:13.385193, 0.000131949, -0.785264, 5.88464e-05, -2.35582, 0.000350455, 1.5713, 0.785812, 0.01, 0.01
2024-08-01 15:33:13.386190, 0.000134733, -0.785259, 5.55391e-05, -2.35582, 0.000350455, 1.57129, 0.78581, 0.01, 0.01
2024-08-01 15:33:13.387181, 0.000131949, -0.785264, 5.81488e-05, -2.35583, 0.00035137, 1.5713, 0.785812, 0.01, 0.01
2024-08-01 15:33:13.388185, 0.000134734, -0.785256, 5.53066e-05, -2.35582, 0.00035137, 1.57129, 0.785809, 0.01, 0.01
2024-08-01 15:33:13.389185, 0.000126938, -0.785261, 5.80713e-05, -2.35583, 0.000350455, 1.57129, 0.785811, 0.01, 0.01
2024-08-01 15:33:13.390195, 0.000135109, -0.785261, 5.52808e-05, -2.35582, 0.000350455, 1.57129, 0.78581, 0.01, 0.01
2024-08-01 15:33:13.391184, 0.000131239, -0.785259, 6.01932e-05, -2.35582, 0.000349437, 1.57129, 0.785813, 0.01, 0.01
2024-08-01 15:33:13.392185, 0.000129207, -0.785259, 6.12778e-05, -2.35583, 0.00035137, 1.5713, 0.785812, 0.01, 0.01
2024-08-01 15:33:13.393185, 0.000129365, -0.785259, 5.82984e-05, -2.35583, 0.00035137, 1.57129, 0.785809, 0.01, 0.01
2024-08-01 15:33:13.394183, 0.000131923, -0.785259, 5.53565e-05, -2.35583, 0.00035137, 1.5713, 0.785811, 0.01, 0.01
2024-08-01 15:33:13.395187, 0.00012981, -0.785261, 6.30992e-05, -2.35583, 0.000346242, 1.57129, 0.785807, 0.01, 0.01
2024-08-01 15:33:13.396186, 0.000134396, -0.785261, 6.0576e-05, -2.35582, 0.000346194, 1.5713, 0.785809, 0.01, 0.01
2024-08-01 15:33:13.397111, 0.000131002, -0.785256, 5.80645e-05, -2.35583, 0.000349034, 1.57129, 0.78581, 0.01, 0.01
2024-08-01 15:33:13.398264, 0.000129503, -0.785261, 5.52785e-05, -2.35583, 0.000348964, 1.57129, 0.78581, 0.01, 0.01
2024-08-01 15:33:13.399181, 0.000131788, -0.785259, 6.05676e-05, -2.35583, 0.000348262, 1.5713, 0.78581, 0.01, 0.01
2024-08-01 15:33:13.400211, 0.000133752, -0.785261, 5.80617e-05, -2.35583, 0.000351318, 1.57129, 0.785812, 0.01, 0.01
2024-08-01 15:33:13.401191, 0.000132276, -0.785259, 5.80616e-05, -2.35583, 0.000350437, 1.57129, 0.78581, 0.01, 0.01
2024-08-01 15:33:13.402162, 0.000128625, -0.785264, 5.52775e-05, -2.35583, 0.000351364, 1.57129, 0.785809, 0.01, 0.01
2024-08-01 15:33:13.403182, 0.00013446, -0.785266, 5.27719e-05, -2.35582, 0.000348172, 1.57129, 0.785808, 0.01, 0.01
2024-08-01 15:33:13.404185, 0.000129728, -0.785261, 5.80616e-05, -2.35583, 0.000348371, 1.5713, 0.785804, 0.01, 0.01
2024-08-01 15:33:13.405193, 0.000131209, -0.785261, 5.80616e-05, -2.35583, 0.000352032, 1.57129, 0.785809, 0.01, 0.01
2024-08-01 15:33:13.406192, 0.000132356, -0.785266, 5.80616e-05, -2.35582, 0.000351252, 1.57129, 0.785811, 0.01, 0.01
2024-08-01 15:33:13.407180, 0.000136447, -0.785264, 5.27719e-05, -2.35583, 0.000350415, 1.57129, 0.78581, 0.01, 0.01
2024-08-01 15:33:13.408181, 0.000131685, -0.785264, 5.80616e-05, -2.35583, 0.000351357, 1.57129, 0.785809, 0.01, 0.01
2024-08-01 15:33:13.409182, 0.000132515, -0.785259, 5.27719e-05, -2.35582, 0.00035045, 1.5713, 0.785806, 0.01, 0.01
2024-08-01 15:33:13.410182, 0.00013121, -0.785261, 5.80616e-05, -2.35583, 0.000351369, 1.5713, 0.785805, 0.01, 0.01
2024-08-01 15:33:13.411179, 0.000131703, -0.785251, 5.52775e-05, -2.35583, 0.000349437, 1.5713, 0.785805, 0.01, 0.01
2024-08-01 15:33:13.412187, 0.000129737, -0.785259, 5.52775e-05, -2.35583, 0.000352387, 1.57129, 0.785807, 0.01, 0.01
2024-08-01 15:33:13.413183, 0.000131212, -0.785261, 6.01921e-05, -2.35583, 0.00035137, 1.57129, 0.785809, 0.01, 0.01
2024-08-01 15:33:13.414180, 0.000134488, -0.785258, 5.87718e-05, -2.35583, 0.000350455, 1.57129, 0.785809, 0.01, 0.01
2024-08-01 15:33:13.415251, 0.000132521, -0.785262, 6.0804e-05, -2.35583, 0.000350455, 1.5713, 0.78581, 0.01, 0.01
2024-08-01 15:33:13.416275, 0.000128706, -0.785261, 5.53564e-05, -2.35583, 0.000353405, 1.57129, 0.785807, 0.01, 0.01
2024-08-01 15:33:13.417209, 0.000134488, -0.785261, 5.74344e-05, -2.35583, 0.000349437, 1.57129, 0.785807, 0.01, 0.01
2024-08-01 15:33:13.418190, 0.000134652, -0.785259, 5.87805e-05, -2.35583, 0.000350455, 1.5713, 0.785805, 0.01, 0.01
2024-08-01 15:33:13.419189, 0.000134706, -0.785261, 5.55172e-05, -2.35582, 0.00035137, 1.57129, 0.785806, 0.01, 0.01
2024-08-01 15:33:13.420211, 0.000129435, -0.785261, 5.81415e-05, -2.35583, 0.000346242, 1.57129, 0.785809, 0.01, 0.01
2024-08-01 15:33:13.421188, 0.000137236, -0.785264, 5.53042e-05, -2.35583, 0.000351322, 1.5713, 0.785808, 0.01, 0.01
2024-08-01 15:33:13.422189, 0.000131948, -0.785259, 5.31559e-05, -2.35583, 0.000348065, 1.5713, 0.785809, 0.01, 0.01
2024-08-01 15:33:13.423242, 0.000132603, -0.785259, 5.73544e-05, -2.35583, 0.000350336, 1.57129, 0.785809, 0.01, 0.01
2024-08-01 15:33:13.424198, 0.000131239, -0.785256, 6.03315e-05, -2.35583, 0.000350415, 1.57129, 0.785807, 0.01, 0.01
2024-08-01 15:33:13.425241, 0.000131713, -0.785261, 5.5199e-05, -2.35582, 0.000350441, 1.57129, 0.785808, 0.01, 0.01
2024-08-01 15:33:13.426211, 0.00012974, -0.785261, 5.27457e-05, -2.35583, 0.000351366, 1.57129, 0.785811, 0.01, 0.01
2024-08-01 15:33:13.427244, 0.000128707, -0.785264, 6.05585e-05, -2.35582, 0.000350453, 1.5713, 0.78581, 0.01, 0.01
2024-08-01 15:33:13.428198, 0.000134488, -0.785261, 6.01892e-05, -2.35582, 0.00035137, 1.5713, 0.78581, 0.01, 0.01
2024-08-01 15:33:13.429235, 0.000131868, -0.785262, 5.59867e-05, -2.35583, 0.000352387, 1.57129, 0.78581, 0.01, 0.01
2024-08-01 15:33:13.430227, 0.000131922, -0.785261, 5.55139e-05, -2.35583, 0.000350455, 1.57129, 0.78581, 0.01, 0.01
2024-08-01 15:33:13.431231, 0.00013194, -0.785261, 5.53563e-05, -2.35582, 0.000350455, 1.57129, 0.785809, 0.01, 0.01
2024-08-01 15:33:13.432199, 0.000137236, -0.785264, 6.05935e-05, -2.35583, 0.000349437, 1.57129, 0.785807, 0.01, 0.01
2024-08-01 15:33:13.433256, 0.000134733, -0.785259, 5.80703e-05, -2.35582, 0.00035137, 1.57129, 0.785809, 0.01, 0.01
2024-08-01 15:33:13.434394, 0.000129819, -0.785259, 5.80645e-05, -2.35582, 0.00034842, 1.57129, 0.785812, 0.01, 0.01
2024-08-01 15:33:13.435278, 0.000136529, -0.785259, 5.80626e-05, -2.35582, 0.00035137, 1.5713, 0.785808, 0.01, 0.01
2024-08-01 15:33:13.436223, 0.000129582, -0.785264, 5.27722e-05, -2.35583, 0.000352387, 1.57129, 0.785811, 0.01, 0.01
2024-08-01 15:33:13.437210, 0.000133944, -0.785261, 5.80617e-05, -2.35583, 0.00035137, 1.57129, 0.785808, 0.01, 0.01
2024-08-01 15:33:13.438212, 0.000131686, -0.785259, 5.52776e-05, -2.35583, 0.000350455, 1.57129, 0.785812, 0.01, 0.01
2024-08-01 15:33:13.439222, 0.000134646, -0.785261, 6.05673e-05, -2.35583, 0.000352387, 1.5713, 0.785809, 0.01, 0.01
2024-08-01 15:33:13.440273, 0.000135079, -0.785261, 5.52775e-05, -2.35583, 0.000350209, 1.57129, 0.785808, 0.01, 0.01
2024-08-01 15:33:13.441225, 0.000136519, -0.785261, 5.80616e-05, -2.35583, 0.000345176, 1.57129, 0.785808, 0.01, 0.01
2024-08-01 15:33:13.442221, 0.000129204, -0.785266, 5.80616e-05, -2.35582, 0.000344821, 1.5713, 0.785809, 0.01, 0.01
2024-08-01 15:33:13.443272, 0.000132523, -0.785253, 5.52775e-05, -2.35583, 0.000347899, 1.5713, 0.785813, 0.01, 0.01
2024-08-01 15:33:13.444202, 0.000131213, -0.785264, 5.80616e-05, -2.35583, 0.000351874, 1.5713, 0.785812, 0.01, 0.01
2024-08-01 15:33:13.445353, 0.000131704, -0.785259, 5.52775e-05, -2.35582, 0.000352216, 1.5713, 0.785809, 0.01, 0.01
2024-08-01 15:33:13.446229, 0.000132521, -0.785259, 5.52775e-05, -2.35583, 0.000350398, 1.57129, 0.785807, 0.01, 0.01
2024-08-01 15:33:13.447190, 0.000136502, -0.785256, 5.52775e-05, -2.35582, 0.000350436, 1.57129, 0.785809, 0.01, 0.01
2024-08-01 15:33:13.448214, 0.000132357, -0.785256, 5.80616e-05, -2.35583, 0.000349431, 1.57129, 0.785809, 0.01, 0.01
2024-08-01 15:33:13.449204, 0.000131157, -0.785264, 6.05672e-05, -2.35583, 0.000349435, 1.5713, 0.785812, 0.01, 0.01
2024-08-01 15:33:13.450208, 0.000134845, -0.785259, 5.52775e-05, -2.35583, 0.000350454, 1.57129, 0.785813, 0.01, 0.01
2024-08-01 15:33:13.451194, 0.000128646, -0.785263, 6.26978e-05, -2.35583, 0.00035137, 1.5713, 0.785813, 0.01, 0.01
2024-08-01 15:33:13.452195, 0.000131683, -0.785264, 5.87718e-05, -2.35583, 0.000352387, 1.57129, 0.785812, 0.01, 0.01
2024-08-01 15:33:13.453180, 0.000131861, -0.785261, 5.55143e-05, -2.35583, 0.000349437, 1.57129, 0.78581, 0.01, 0.01
2024-08-01 15:33:13.454209, 0.000134704, -0.785259, 6.0271e-05, -2.35583, 0.000352387, 1.57129, 0.785809, 0.01, 0.01
2024-08-01 15:33:13.455195, 0.000132593, -0.785259, 5.6014e-05, -2.35583, 0.000350455, 1.57129, 0.785811, 0.01, 0.01
2024-08-01 15:33:13.456207, 0.00012873, -0.785259, 5.83071e-05, -2.35583, 0.000349437, 1.5713, 0.785811, 0.01, 0.01
2024-08-01 15:33:13.457201, 0.000131712, -0.785266, 6.06491e-05, -2.35582, 0.000350455, 1.57129, 0.785813, 0.01, 0.01
2024-08-01 15:33:13.458217, 0.000134654, -0.785256, 5.27992e-05, -2.35582, 0.00035137, 1.5713, 0.785814, 0.01, 0.01
2024-08-01 15:33:13.459193, 0.000131923, -0.785264, 5.52866e-05, -2.35582, 0.00035137, 1.57129, 0.785813, 0.01, 0.01
2024-08-01 15:33:13.460263, 0.00012981, -0.785256, 5.52806e-05, -2.35583, 0.000350455, 1.57129, 0.785813, 0.01, 0.01
2024-08-01 15:33:13.461216, 0.00013189, -0.785259, 6.05683e-05, -2.35582, 0.00035137, 1.5713, 0.785809, 0.01, 0.01
2024-08-01 15:33:13.462176, 0.000128871, -0.785261, 5.80619e-05, -2.35583, 0.000350455, 1.57129, 0.785809, 0.01, 0.01
2024-08-01 15:33:13.463188, 0.000131577, -0.785261, 5.80617e-05, -2.35582, 0.000350455, 1.57129, 0.785809, 0.01, 0.01
2024-08-01 15:33:13.464178, 0.000131551, -0.785259, 5.23968e-05, -2.35582, 0.000349437, 1.57129, 0.785813, 0.01, 0.01
2024-08-01 15:33:13.465200, 0.000133673, -0.785256, 5.87718e-05, -2.35583, 0.000350455, 1.5713, 0.785812, 0.01, 0.01
2024-08-01 15:33:13.466211, 0.000131596, -0.785256, 5.82983e-05, -2.35583, 0.000350455, 1.57129, 0.785813, 0.01, 0.01
2024-08-01 15:33:13.467239, 0.000134616, -0.785264, 5.53564e-05, -2.35583, 0.000349437, 1.5713, 0.785814, 0.01, 0.01
2024-08-01 15:33:13.468218, 0.000134694, -0.785256, 5.80879e-05, -2.35583, 0.000350455, 1.5713, 0.785809, 0.01, 0.01
2024-08-01 15:33:13.469294, 0.00013472, -0.785266, 5.27806e-05, -2.35583, 0.000349437, 1.5713, 0.785809, 0.01, 0.01
2024-08-01 15:33:13.470242, 0.000127309, -0.785264, 5.52805e-05, -2.35583, 0.000347259, 1.57129, 0.78581, 0.01, 0.01
2024-08-01 15:33:13.471206, 0.000131891, -0.785261, 6.05682e-05, -2.35582, 0.000347355, 1.5713, 0.785808, 0.01, 0.01
2024-08-01 15:33:13.472199, 0.000133786, -0.785261, 6.01924e-05, -2.35582, 0.000349082, 1.57129, 0.785812, 0.01, 0.01
2024-08-01 15:33:13.473196, 0.000129503, -0.785262, 5.87719e-05, -2.35583, 0.000350336, 1.5713, 0.785813, 0.01, 0.01
2024-08-01 15:33:13.474194, 0.000133918, -0.785261, 5.55143e-05, -2.35583, 0.000351331, 1.5713, 0.785812, 0.01, 0.01
2024-08-01 15:33:13.475194, 0.000134462, -0.785264, 5.81405e-05, -2.35583, 0.000350441, 1.57129, 0.785811, 0.01, 0.01
2024-08-01 15:33:13.476194, 0.000134643, -0.785261, 5.80879e-05, -2.35583, 0.00035045, 1.5713, 0.785812, 0.01, 0.01
2024-08-01 15:33:13.477202, 0.000131919, -0.785259, 5.80704e-05, -2.35582, 0.000352386, 1.57129, 0.78581, 0.01, 0.01
2024-08-01 15:33:13.478208, 0.000129434, -0.785261, 5.52805e-05, -2.35583, 0.00035137, 1.57129, 0.78581, 0.01, 0.01
